;FLAVOR:Marlin
;TIME:13351
;Filament used: 7.36307m
;Layer height: 0.2
;MINX:66.252
;MINY:41.407
;MINZ:0.2
;MAXX:168.858
;MAXY:193.593
;MAXZ:3.8
;TARGET_MACHINE.NAME:Creality Ender-3
;POSTPROCESSED
;Generated with Cura_SteamEngine 5.5.0
M140 S60
M105
M190 S60
M104 S220
M105
M109 S220
M82 ;absolute extrusion mode
; Ender 3 Custom Start G-code
G92 E0 ; Reset Extruder
G28 ; Home all axes
G1 Z2.0 F3000 ; Move Z Axis up little to prevent scratching of Heat Bed
G1 X0.1 Y20 Z0.3 F5000.0 ; Move to start position
G1 X0.1 Y200.0 Z0.3 F1500.0 E15 ; Draw the first line
G1 X0.4 Y200.0 Z0.3 F5000.0 ; Move to side a little
G1 X0.4 Y20 Z0.3 F1500.0 E30 ; Draw the second line
G92 E0 ; Reset Extruder
G1 Z2.0 F3000 ; Move Z Axis up little to prevent scratching of Heat Bed
G1 X5 Y20 Z0.3 F5000.0 ; Move over to prevent blob squish
G92 E0
G92 E0
G1 F2700 E-5
;LAYER_COUNT:14
;LAYER:5
M117 Printing Layer 5 of 18 CE3E3V2_bobsled_plaque_sale
;TYPE:WALL-INNER
;MESH:bobsled_plaque.stl(1)
G1 F2700 E258.46289
G1 F1500 X117.633 Y79.091 E258.49313
G1 X116.78 Y78.728 E258.52396
G1 X116.076 Y78.193 E258.55337
G1 X115.52 Y77.469 E258.58373
G1 X115.172 Y76.627 E258.61404
G1 X115.056 Y75.743 E258.64369
G1 X115.171 Y74.841 E258.67393
G1 X115.521 Y73.992 E258.70448
G1 X116.064 Y73.284 E258.73415
G1 X116.79 Y72.725 E258.76463
G1 X117.638 Y72.372 E258.79518
G1 X118.531 Y72.258 E258.82512
G1 X119.427 Y72.378 E258.85519
G1 X120.267 Y72.723 E258.88539
G1 X120.989 Y73.275 E258.91562
G1 X121.541 Y73.997 E258.94585
G1 X121.89 Y74.84 E258.9762
G1 X122 Y75.732 E259.00609
G1 X121.889 Y76.619 E259.03582
G1 X121.541 Y77.468 E259.06634
G1 X120.99 Y78.189 E259.09652
G1 X120.277 Y78.733 E259.12635
G1 X119.427 Y79.091 E259.15702
G1 X118.535 Y79.206 E259.18694
G1 F2700 E254.18694
G0 F9000 X118.128 Y79.256
G0 X118.526 Y79.388
G0 X117.987 Y150.376
G0 X118 Y158.1
G1 F2700 E259.18694
G1 F1500 X117.023 Y157.974 E259.2197
G1 X116.105 Y157.591 E259.25279
G1 X115.325 Y156.993 E259.28548
G1 X114.728 Y156.216 E259.31807
G1 X114.344 Y155.289 E259.35144
G1 X114.219 Y154.317 E259.38403
G1 X114.35 Y153.341 E259.41679
G1 X114.721 Y152.434 E259.44938
G1 X115.325 Y151.642 E259.48251
G1 X116.111 Y151.041 E259.51542
G1 X117.019 Y150.666 E259.54809
G1 X117.995 Y150.536 E259.58084
G1 X118.991 Y150.667 E259.61425
G1 X119.896 Y151.05 E259.64694
G1 X120.676 Y151.643 E259.67953
G1 X121.27 Y152.42 E259.71206
G1 X121.656 Y153.341 E259.74527
G1 X121.782 Y154.318 E259.77803
G1 X121.657 Y155.29 E259.81063
G1 X121.278 Y156.203 E259.84351
G1 X120.674 Y156.994 E259.87661
G1 X119.902 Y157.586 E259.90897
G1 X118.978 Y157.974 E259.9423
G1 X118 Y158.1 E259.9751
G1 F2700 E254.9751
G0 F9000 X117.534 Y158.141
G0 X116.028 Y157.755
G0 X82.697 Y173.359
G0 X82.692 Y174.137
G0 X85.485 Y185.193
G1 F2700 E259.9751
G1 F1500 X149.52 Y185.192 E262.10491
G1 X150.005 Y185.167 E262.12106
G1 X150.433 Y185.088 E262.13554
G1 X150.862 Y184.949 E262.15054
G1 X151.257 Y184.757 E262.16514
G1 X151.636 Y184.506 E262.18026
G1 X151.972 Y184.213 E262.19509
G1 X152.256 Y183.887 E262.20947
G1 X152.509 Y183.505 E262.22471
G1 X152.701 Y183.109 E262.23935
G1 X152.84 Y182.682 E262.25428
G1 X152.918 Y182.254 E262.26875
G1 X152.943 Y181.769 E262.28491
G1 X152.944 Y53.215 E266.56063
G1 X152.917 Y52.748 E266.57619
G1 X152.839 Y52.326 E266.59046
G1 X152.693 Y51.884 E266.60594
G1 X152.508 Y51.504 E266.62
G1 X152.252 Y51.116 E266.63546
G1 X151.965 Y50.787 E266.64998
G1 X151.625 Y50.491 E266.66498
G1 X151.259 Y50.249 E266.67957
G1 X150.867 Y50.058 E266.69407
G1 X150.426 Y49.912 E266.70952
G1 X150.003 Y49.835 E266.72382
G1 X149.518 Y49.807 E266.73998
G1 X85.476 Y49.807 E268.87003
G1 X84.995 Y49.82 E268.88603
G1 X84.553 Y49.892 E268.90093
G1 X84.113 Y50.028 E268.91624
G1 X83.72 Y50.213 E268.93069
G1 X83.35 Y50.455 E268.9454
G1 X83.008 Y50.751 E268.96044
G1 X82.712 Y51.093 E268.97548
G1 X82.47 Y51.463 E268.99019
G1 X82.285 Y51.856 E269.00464
G1 X82.149 Y52.298 E269.02002
G1 X82.077 Y52.734 E269.03471
G1 X82.065 Y53.169 E269.04919
G1 X82.064 Y181.786 E273.32701
G1 X82.086 Y182.261 E273.34282
G1 X82.161 Y182.683 E273.35708
G1 X82.302 Y183.116 E273.37222
G1 X82.492 Y183.514 E273.38689
G1 X82.742 Y183.891 E273.40194
G1 X83.033 Y184.224 E273.41665
G1 X83.363 Y184.513 E273.43124
G1 X83.743 Y184.765 E273.4464
G1 X84.141 Y184.955 E273.46107
G1 X84.574 Y185.096 E273.47622
G1 X84.996 Y185.171 E273.49047
G1 X85.485 Y185.193 E273.50675
G0 F9000 X85.476 Y185.593
;TYPE:WALL-OUTER
G1 F1500 X149.53 Y185.592 E275.6372
G1 X150.052 Y185.565 E275.65458
G1 X150.532 Y185.476 E275.67082
G1 X151.012 Y185.321 E275.6876
G1 X151.455 Y185.105 E275.70399
G1 X151.879 Y184.825 E275.72089
G1 X152.256 Y184.497 E275.73751
G1 X152.575 Y184.13 E275.75368
G1 X152.857 Y183.703 E275.7707
G1 X153.073 Y183.259 E275.78712
G1 X153.229 Y182.78 E275.80388
G1 X153.316 Y182.3 E275.8201
G1 X153.343 Y181.779 E275.83746
G1 X153.344 Y53.204 E280.11388
G1 X153.315 Y52.7 E280.13067
G1 X153.227 Y52.226 E280.1467
G1 X153.065 Y51.733 E280.16396
G1 X152.856 Y51.305 E280.17981
G1 X152.571 Y50.873 E280.19702
G1 X152.249 Y50.503 E280.21333
G1 X151.868 Y50.172 E280.23012
G1 X151.458 Y49.901 E280.24647
G1 X151.018 Y49.686 E280.26275
G1 X150.525 Y49.524 E280.28001
G1 X150.051 Y49.437 E280.29604
G1 X149.529 Y49.407 E280.31343
G1 X85.471 Y49.407 E282.44401
G1 X84.957 Y49.421 E282.46111
G1 X84.461 Y49.502 E282.47783
G1 X83.968 Y49.654 E282.49499
G1 X83.525 Y49.863 E282.51128
G1 X83.108 Y50.135 E282.52784
G1 X82.724 Y50.467 E282.54472
G1 X82.392 Y50.851 E282.5616
G1 X82.12 Y51.268 E282.57816
G1 X81.911 Y51.711 E282.59446
G1 X81.759 Y52.206 E282.61168
G1 X81.678 Y52.696 E282.6282
G1 X81.665 Y53.163 E282.64373
G1 X81.664 Y181.795 E286.92205
G1 X81.688 Y182.305 E286.93903
G1 X81.772 Y182.78 E286.95508
G1 X81.93 Y183.265 E286.97204
G1 X82.143 Y183.712 E286.98851
G1 X82.423 Y184.134 E287.00536
G1 X82.749 Y184.508 E287.02186
G1 X83.12 Y184.832 E287.03824
G1 X83.545 Y185.114 E287.05521
G1 X83.992 Y185.327 E287.07167
G1 X84.477 Y185.485 E287.08864
G1 X84.952 Y185.569 E287.10468
G1 X85.476 Y185.593 E287.12213
G1 F2700 E282.12213
G0 F9000 X82.692 Y174.137
G0 X82.697 Y173.359
G0 X116.028 Y157.755
G0 X118.016 Y157.695
G1 F2700 E287.12213
G1 F1500 X117.133 Y157.584 E287.15173
G1 X116.324 Y157.25 E287.18084
G1 X115.617 Y156.713 E287.21037
G1 X115.082 Y156.019 E287.23951
G1 X114.736 Y155.192 E287.26933
G1 X114.624 Y154.302 E287.29917
G1 X114.733 Y153.462 E287.32734
G1 X115.07 Y152.637 E287.35698
G1 X115.614 Y151.926 E287.38675
G1 X116.312 Y151.392 E287.41599
G1 X117.131 Y151.053 E287.44547
G1 X118.016 Y150.941 E287.47514
G1 X118.87 Y151.053 E287.50378
G1 X119.691 Y151.394 E287.53335
G1 X120.401 Y151.942 E287.56318
G1 X120.933 Y152.644 E287.59248
G1 X121.26 Y153.43 E287.62079
G1 X121.378 Y154.318 E287.65059
G1 X121.265 Y155.191 E287.67987
G1 X120.929 Y156 E287.709
G1 X120.376 Y156.719 E287.73917
G1 X119.694 Y157.24 E287.76772
G1 X118.889 Y157.578 E287.79675
G1 X118.016 Y157.695 E287.82605
G1 F2700 E282.82605
G0 F9000 X117.534 Y158.141
G0 X116.189 Y157.453
G0 X115.44 Y156.878
G0 X114.865 Y156.129
G0 X114.503 Y155.255
G0 X114.38 Y154.318
G0 X114.503 Y153.382
G0 X114.865 Y152.507
G0 X115.44 Y151.758
G0 X116.047 Y151.292
G0 X117.987 Y150.376
G0 X118.526 Y79.388
G0 X118.514 Y78.801
G1 F2700 E287.82605
G1 F1500 X117.733 Y78.698 E287.85225
G1 X116.99 Y78.387 E287.87904
G1 X116.356 Y77.901 E287.90561
G1 X115.87 Y77.267 E287.93218
G1 X115.563 Y76.525 E287.95889
G1 X115.461 Y75.714 E287.98608
G1 X115.563 Y74.938 E288.01211
G1 X115.863 Y74.21 E288.0383
G1 X116.355 Y73.564 E288.0653
G1 X117.006 Y73.067 E288.09254
G1 X117.754 Y72.76 E288.11944
G1 X118.517 Y72.662 E288.14502
G1 X119.336 Y72.768 E288.17249
G1 X120.077 Y73.08 E288.19923
G1 X120.699 Y73.557 E288.2253
G1 X121.186 Y74.191 E288.25189
G1 X121.492 Y74.923 E288.27828
G1 X121.6 Y75.732 E288.30543
G1 X121.498 Y76.52 E288.33185
G1 X121.19 Y77.267 E288.35873
G1 X120.696 Y77.91 E288.3857
G1 X120.081 Y78.38 E288.41144
G1 X119.331 Y78.697 E288.43852
G1 X118.514 Y78.801 E288.46592
G1 F2700 E283.46592
G0 F9000 X118.128 Y79.256
G0 X119.476 Y79.266
G0 X148.405 Y103.16
G0 X147.998 Y104.066
G0 X147.911 Y104.016
;TYPE:FILL
G1 F2700 E288.46592
G1 F3000 X148.362 Y103.896 E288.48144
G0 F9000 X147.815 Y104.189
G1 F3000 X148.069 Y104.443 E288.49339
G1 F2700 E283.49339
G0 F9000 X147.982 Y104.396
G0 X147.735 Y105.066
G0 X149.744 Y106.286
G0 X149.792 Y106.166
G1 F2700 E288.49339
G1 F3000 X150.412 Y106.786 E288.52255
G0 F9000 X150.624 Y106.511
G1 F3000 X152.717 Y98.7 E288.79151
G0 F9000 X152.707 Y98.8
G0 X152.391 Y100.21
G0 X152.293 Y100.182
G1 F3000 X152.863 Y100.752 E288.81832
G0 F9000 X152.644 Y100.752
G0 X152.644 Y102.69
G0 X152.862 Y102.69
G1 F3000 X151.314 Y103.105 E288.87163
G0 F9000 X151.408 Y103.142
G0 X150.254 Y107.182
G0 X150.229 Y107.619
G0 X150.329 Y107.612
G1 F3000 X147.764 Y117.185 E289.20126
G0 F9000 X147.76 Y116.48
G1 F3000 X150.525 Y115.739 E289.29647
G0 F9000 X150.512 Y115.372
G1 F3000 X147.624 Y112.483 E289.43233
G0 F9000 X147.725 Y112.469
G0 X147.548 Y111.741
G0 X146.657 Y111.396
G0 X146.632 Y111.491
G1 F3000 X146.105 Y110.964 E289.45712
G0 F9000 X146.341 Y110.649
G1 F3000 X151.309 Y109.318 E289.62818
G1 F2700 E284.62818
G0 F9000 X151.226 Y109.373
G0 X146.961 Y110.008
G0 X145.242 Y108.486
G0 X144.421 Y109.276
G0 X144.488 Y109.347
G1 F2700 E289.62818
G1 F3000 X144.165 Y109.025 E289.64335
G0 F9000 X143.587 Y109.591
G1 F3000 X143.359 Y110.441 E289.67262
G0 F9000 X143.291 Y110.37
G0 X141.555 Y111.838
G0 X141.616 Y111.915
G1 F3000 X140.548 Y112.201 E289.7094
G0 F9000 X140.604 Y112.285
G0 X139.767 Y113.084
G0 X139.821 Y113.166
G1 F3000 X139.542 Y112.887 E289.72252
G1 F2700 E284.72252
G0 F9000 X139.598 Y112.97
G0 X140.186 Y112.924
G0 X141.425 Y114.753
G0 X141.4 Y114.745
G1 F2700 E289.72252
G1 F3000 X145.92 Y119.265 E289.93513
G0 F9000 X145.822 Y119.265
G0 X145.84 Y116.967
G0 X145.938 Y116.968
G1 F3000 X139.084 Y118.805 E290.17114
G0 F9000 X139.158 Y118.737
G0 X138.878 Y118.512
G0 X137.94 Y118.534
G0 X137.644 Y119.124
G0 X137.732 Y119.167
G1 F3000 X133.378 Y120.334 E290.32106
G0 F9000 X133.451 Y120.265
G0 X134.27 Y121.441
G0 X134.186 Y121.493
G1 F3000 X135.108 Y118.052 E290.43955
G0 F9000 X135.871 Y117.701
G1 F3000 X137.687 Y119.518 E290.52499
G0 F9000 X137.588 Y119.518
G0 X137.745 Y118.652
G0 X138.878 Y118.512
G0 X139.354 Y119.031
G0 X139.443 Y121.17
G0 X139.341 Y121.171
G1 F3000 X140.998 Y122.828 E290.60293
G0 F9000 X140.9 Y122.846
G0 X141.392 Y124.411
G0 X141.485 Y124.373
G1 F3000 X139.381 Y124.937 E290.67538
G0 F9000 X139.382 Y125.282
G1 F3000 X142.385 Y114.076 E291.06125
G1 F2700 E286.06125
G0 F9000 X142.441 Y114.16
G0 X141.025 Y115.047
G0 X137.916 Y116.759
G0 X137.173 Y114.912
G0 X135.968 Y115.108
G0 X135.921 Y115.018
G1 F2700 E291.06125
G1 F3000 X135.792 Y115.501 E291.07787
G1 F2700 E286.07787
G0 F9000 X135.754 Y115.41
G0 X134.646 Y115.975
G0 X134.412 Y118.375
G0 X132.645 Y119.876
G0 X131.875 Y120.177
G0 X131.619 Y120.75
G0 X131.711 Y120.781
G1 F2700 E291.07787
G1 F3000 X119.082 Y124.164 E291.51273
G0 F9000 X119.182 Y124.167
G0 X120.888 Y124.802
G0 X120.852 Y124.893
G1 F3000 X121.294 Y123.243 E291.56954
G0 F9000 X121.327 Y123.339
G0 X123.65 Y122.512
G0 X123.617 Y122.417
G1 F3000 X131.106 Y129.906 E291.9218
G0 F9000 X131.769 Y130.512
G1 F3000 X132.909 Y126.257 E292.06831
G0 F9000 X133.074 Y126.627
G1 F3000 X127.992 Y127.989 E292.24331
G0 F9000 X128.036 Y127.899
G0 X126.477 Y127.154
G0 X126.434 Y127.242
G1 F3000 X128.165 Y120.783 E292.46571
G0 F9000 X128.198 Y120.878
G0 X129.89 Y120.263
G0 X129.854 Y120.169
G1 F3000 X133.356 Y123.672 E292.63046
G0 F9000 X133.28 Y123.609
G0 X132.418 Y122.379
G0 X131.762 Y121.221
G0 X131.625 Y120.93
G0 X131.875 Y120.177
G0 X132.485 Y119.873
G0 X132.867 Y119.95
G0 X133.141 Y120.038
G0 X133.544 Y120.448
G0 X135.306 Y123.287
G0 X135.5 Y123.807
G0 X135.385 Y124.396
G0 X134.513 Y124.883
G0 X134.475 Y124.79
G1 F3000 X137.644 Y127.96 E292.77954
G0 F9000 X137.546 Y127.96
G0 X137.604 Y130.609
G0 X139.428 Y130.688
G0 X139.498 Y129.712
G0 X139.396 Y129.712
G1 F3000 X142.693 Y133.008 E292.9346
G0 F9000 X142.602 Y133.046
G0 X143.115 Y134.234
G0 X143.206 Y134.196
G1 F3000 X143.062 Y134.732 E292.95306
G0 F9000 X143.134 Y134.665
G0 X142.334 Y134.64
G0 X141.707 Y135.24
G0 X141.704 Y136.056
G0 X141.792 Y136.719
G0 X141.888 Y136.689
G1 F3000 X139.273 Y137.389 E293.0431
G0 F9000 X138.928 Y137.728
G1 F3000 X143.588 Y142.389 E293.26231
G1 X143.702 Y142.414
G1 X144.132 Y142.299 E293.27712
G0 F9000 X144.039 Y142.337
G0 X143.355 Y142.383
G0 X142.914 Y142.563
G0 X143.003 Y142.601
G1 F3000 X137.057 Y144.195 E293.48187
G1 X137.015 Y144.301
G1 X139.989 Y147.275 E293.62175
G0 F9000 X139.902 Y147.228
G0 X139.299 Y148.402
G0 X139.387 Y148.447
G1 F3000 X140.32 Y144.967 E293.74159
G0 F9000 X140.341 Y145.065
G0 X139.645 Y144.611
G0 X139.889 Y143.494
G0 X140.706 Y143.425
G0 X140.706 Y143.525
G1 F3000 X141.863 Y139.205 E293.89034
G0 F9000 X141.823 Y139.296
G0 X138.116 Y137.764
G0 X138.175 Y137.684
G1 F3000 X133.063 Y139.053 E294.06635
G0 F9000 X132.484 Y139.77
G1 F3000 X133.914 Y141.2 E294.13362
G0 F9000 X133.86 Y141.118
G0 X133.539 Y140.202
G0 X133.629 Y139.472
G0 X134.033 Y139.007
G0 X134.864 Y139.064
G0 X135.241 Y139.446
G0 X135.552 Y139.877
G0 X135.461 Y139.917
G1 F3000 X137.623 Y131.849 E294.41143
G0 F9000 X137.624 Y131.62
G1 F3000 X133.88 Y132.623 E294.54034
G1 X133.854 Y132.655
G1 X135.019 Y133.82 E294.59514
G0 F9000 X134.922 Y133.809
G0 X134.889 Y134.603
G0 X135.981 Y134.985
G0 X136.034 Y134.835
G1 F3000 X137.6 Y136.401 E294.6688
G0 F9000 X137.502 Y136.401
G0 X137.598 Y131.404
G0 X137.735 Y131.431
G1 F3000 X137.963 Y130.579 E294.69814
G0 F9000 X138.328 Y131.431
G1 F3000 X141.653 Y130.54 E294.81263
G0 F9000 X141.561 Y130.577
G0 X141.281 Y129.752
G0 X141.324 Y129.251
G0 X141.561 Y128.814
G0 X141.944 Y128.566
G0 X142.282 Y128.477
G0 X142.705 Y128.539
G0 X143.163 Y128.878
G0 X143.803 Y129.951
G0 X143.71 Y129.989
G1 F3000 X145.96 Y129.386 E294.8901
G0 F9000 X145.862 Y129.393
G0 X144.672 Y128.897
G0 X144.652 Y128.797
G1 F3000 X144.088 Y130.904 E294.96265
G0 F9000 X144.18 Y130.867
G0 X145.049 Y128.16
G0 X145.075 Y127.527
G0 X144.982 Y127.565
G1 F3000 X145.901 Y124.135 E295.08076
G0 F9000 X145.903 Y123.19
G1 F3000 X143.42 Y123.855 E295.16625
G0 F9000 X143.511 Y123.813
G0 X144.54 Y126.238
G0 X144.446 Y126.276
G1 F3000 X145.908 Y127.738 E295.23502
G0 F9000 X145.808 Y127.739
G0 X145.94 Y129.591
G0 X146.093 Y130.423
G0 X146.381 Y130.662
G0 X146.814 Y130.771
G0 X147.675 Y130.607
G0 X147.741 Y130.22
G0 X147.873 Y128.903
G0 X147.773 Y128.9
G1 F3000 X151.314 Y127.951 E295.35695
G0 F9000 X151.191 Y127.578
G1 F3000 X150.354 Y130.699 E295.46442
G0 F9000 X150.265 Y130.657
G0 X149.789 Y131.666
G0 X149.878 Y131.708
G1 F3000 X147.758 Y129.588 E295.56414
G0 F9000 X147.859 Y129.591
G0 X149.508 Y133.771
G0 X149.554 Y133.684
G1 F3000 X145.527 Y148.715 E296.08171
G0 F9000 X145.349 Y148.184
G1 F3000 X147.866 Y147.51 E296.16837
G0 F9000 X147.815 Y146.615
G1 F3000 X145.065 Y143.865 E296.29772
G0 F9000 X145.129 Y143.943
G0 X145.581 Y144.06
G0 X146.698 Y143.366
G0 X145.851 Y141.828
G0 X145.756 Y141.864
G1 F3000 X149.221 Y140.935 E296.41704
G0 F9000 X149.136 Y140.887
G0 X149.687 Y140.023
G0 X149.766 Y140.082
G1 F3000 X145.869 Y136.184 E296.60036
G0 F9000 X145.933 Y135.605
G1 F3000 X151.097 Y134.221 E296.77818
G0 F9000 X151.515 Y133.345
G1 F3000 X151.266 Y133.096 E296.78989
G0 F9000 X151.349 Y133.153
G0 X149.726 Y137.077
G0 X149.064 Y141.144
G0 X149.059 Y141.646
G0 X149.16 Y141.948
G0 X149.358 Y142.141
G0 X149.828 Y142.38
G0 X150.951 Y142.298
G0 X152.644 Y139.96
G0 X152.862 Y139.96
G1 F3000 X151.375 Y140.358 E296.84109
G0 F9000 X151.474 Y140.366
G0 X151.287 Y141.54
G0 X151.192 Y141.507
G1 F3000 X151.939 Y142.255 E296.87625
G1 F2700 E291.87625
G0 F9000 X151.849 Y142.217
G0 X146.698 Y143.366
G0 X145.976 Y135.615
G0 X145.871 Y135.162
G0 X143.512 Y129.444
G0 X143.214 Y128.916
G0 X142.705 Y128.539
G0 X142.2 Y128.459
G0 X141.756 Y128.669
G0 X141.463 Y128.936
G0 X141.312 Y129.34
G0 X141.281 Y129.752
G0 X141.71 Y139.176
G0 X143.362 Y147.044
G0 X143.145 Y147.238
G0 X143.243 Y148.749
G0 X143.34 Y148.723
