;FLAVOR:Marlin
;TIME:13263
;Filament used: 7.36039m
;Layer height: 0.2
;MINX:62.736
;MINY:43.434
;MINZ:0.2
;MAXX:165.326
;MAXY:195.219
;MAXZ:3.8
;TARGET_MACHINE.NAME:Creality Ender-3
;POSTPROCESSED
;Generated with Cura_SteamEngine 5.5.0
M140 S60
M105
M190 S60
M104 S220
M105
M109 S220
M82 ;absolute extrusion mode
; Ender 3 Custom Start G-code
G92 E0 ; Reset Extruder
G28 ; Home all axes
G1 Z2.0 F3000 ; Move Z Axis up little to prevent scratching of Heat Bed
G1 X0.1 Y20 Z0.3 F5000.0 ; Move to start position
G1 X0.1 Y200.0 Z0.3 F1500.0 E15 ; Draw the first line
G1 X0.4 Y200.0 Z0.3 F5000.0 ; Move to side a little
G1 X0.4 Y20 Z0.3 F1500.0 E30 ; Draw the second line
G92 E0 ; Reset Extruder
G1 Z2.0 F3000 ; Move Z Axis up little to prevent scratching of Heat Bed
G1 X5 Y20 Z0.3 F5000.0 ; Move over to prevent blob squish
G92 E0
G92 E0
G1 F2700 E-5
;LAYER_COUNT:19
;LAYER:0
M117 Printing Layer 0 of 18 CE3E3V2_bobsled_plaque
M107
G0 F6000 X72.186 Y48.801 Z0.2
;TYPE:SKIRT
G1 F2700 E0
G1 F1200 X72.74 Y47.995 E0.03253
G1 X74.183 Y46.415 E0.1037
G1 X74.844 Y45.857 E0.13247
G1 X76.909 Y44.567 E0.21345
G1 X77.73 Y44.216 E0.24315
G1 X79.487 Y43.697 E0.30408
G1 X81.195 Y43.454 E0.36146
G1 X81.876 Y43.434 E0.38412
G1 X146.309 Y43.44 E2.52717
G1 X147.862 Y43.572 E2.57901
G1 X149.488 Y43.93 E2.63439
G1 X150.782 Y44.405 E2.68024
G1 X152.381 Y45.251 E2.7404
G1 X153.35 Y45.949 E2.78012
G1 X154.414 Y46.908 E2.82777
G1 X155.536 Y48.246 E2.88584
G1 X156.513 Y49.832 E2.9478
G1 X156.848 Y50.574 E2.97488
G1 X157.337 Y52.083 E3.02764
G1 X157.643 Y53.776 E3.08486
G1 X157.724 Y55.033 E3.12675
G1 X157.724 Y87.135 E4.19447
G1 X158.956 Y88.353 E4.25209
G1 X160.464 Y91.753 E4.3758
G1 X161.115 Y94.049 E4.45518
G1 X161.507 Y95.664 E4.51045
G1 X161.805 Y97.105 E4.55939
G1 X162.15 Y99.194 E4.62981
G1 X162.326 Y100.759 E4.68219
G1 X162.961 Y101.359 E4.71125
G1 X163.933 Y102.515 E4.76149
G1 X164.913 Y104.816 E4.84467
G1 X165.324 Y106.214 E4.89313
G1 X165.326 Y109.126 E4.98999
G1 X164.611 Y111.43 E5.07022
G1 X164.527 Y111.626 E5.07732
G1 X164.577 Y111.76 E5.08207
G1 X165.085 Y114.185 E5.16448
G1 X165.217 Y115.741 E5.21642
G1 X164.633 Y118.378 E5.30625
G1 X164.064 Y119.455 E5.34676
G1 X164.344 Y121.361 E5.41084
G1 X163.824 Y124.537 E5.51788
G1 X162.451 Y126.963 E5.61059
G1 X162.731 Y128.429 E5.66024
G1 X162.345 Y130.934 E5.74454
G1 X161.864 Y132.551 E5.80065
G1 X161.508 Y133.446 E5.83268
G1 X161.163 Y134.415 E5.86689
G1 X160.848 Y135.595 E5.90751
G1 X160.577 Y137.144 E5.95982
G1 X160.15 Y140.915 E6.08604
G1 X159.759 Y142.849 E6.15167
G1 X159.533 Y143.464 E6.17346
G1 X158.101 Y145.701 E6.2618
G1 X157.724 Y146.078 E6.27954
G1 X157.705 Y184.139 E7.54545
G1 X157.646 Y184.93 E7.57183
G1 X157.221 Y187.026 E7.64296
G1 X156.86 Y188.042 E7.67883
G1 X156.17 Y189.438 E7.73062
G1 X155.116 Y190.965 E7.79233
G1 X153.934 Y192.228 E7.84987
G1 X153.245 Y192.8 E7.87965
G1 X151.525 Y193.9 E7.94756
G1 X150.337 Y194.44 E7.99096
G1 X149.216 Y194.803 E8.03015
G1 X146.94 Y195.194 E8.10696
G1 X146.164 Y195.219 E8.13278
G1 X81.436 Y195.193 E10.28564
G1 X79.954 Y195.039 E10.3352
G1 X79.052 Y194.84 E10.36592
G1 X77.08 Y194.123 E10.43571
G1 X75.75 Y193.395 E10.48614
G1 X74.88 Y192.781 E10.52156
G1 X73.477 Y191.499 E10.58477
G1 X73.063 Y191.024 E10.60573
G1 X71.641 Y188.826 E10.6928
G1 X71.364 Y188.221 E10.71493
G1 X70.645 Y185.793 E10.79915
G1 X70.47 Y184.516 E10.84202
G1 X70.444 Y183.971 E10.86017
G1 X70.444 Y153.645 E11.86882
G1 X69.793 Y153.309 E11.89318
G1 X68.345 Y151.741 E11.96417
G1 X67.48 Y150.269 E12.02096
G1 X67.051 Y149.279 E12.05684
G1 X66.782 Y147.026 E12.13231
G1 X66.805 Y136.436 E12.48454
G1 X67.007 Y134.245 E12.55772
G1 X66.253 Y132.457 E12.62226
G1 X65.731 Y130.872 E12.67776
G1 X65.576 Y128.65 E12.75184
G1 X65.655 Y127.024 E12.80599
G1 X65.727 Y126.777 E12.81455
G1 X65.424 Y126.335 E12.83237
G1 X64.578 Y124.756 E12.89195
G1 X64.081 Y122.385 E12.97252
G1 X63.981 Y121.225 E13.01125
G1 X64.243 Y119.736 E13.06153
G1 X63.62 Y118.662 E13.10283
G1 X63.003 Y115.736 E13.20229
G1 X63.278 Y112.968 E13.29481
G1 X63.752 Y111.729 E13.33893
G1 X63.01 Y109.893 E13.40479
G1 X62.736 Y107.361 E13.4895
G1 X63.042 Y105.362 E13.55676
G1 X63.337 Y104.355 E13.59166
G1 X64.973 Y101.492 E13.70134
G1 X65.753 Y100.836 E13.73523
G1 X65.925 Y99.119 E13.79263
G1 X66.149 Y97.642 E13.84231
G1 X66.469 Y95.993 E13.89818
G1 X67.017 Y93.77 E13.97433
G1 X67.849 Y90.796 E14.07705
G1 X68.806 Y89.202 E14.13889
G1 X69.545 Y88.246 E14.17907
G1 X70.444 Y87.565 E14.21659
G1 X70.444 Y54.76 E15.30768
G1 X70.472 Y54.086 E15.33012
G1 X70.859 Y51.829 E15.40628
G1 X71.164 Y50.886 E15.43925
G1 X72.186 Y48.801 E15.51648
G0 F6000 X72.516 Y49.028
G1 F1200 X73.07 Y48.222 E15.54901
G1 X74.441 Y46.721 E15.61662
G1 X75.102 Y46.163 E15.64539
G1 X77.067 Y44.934 E15.72248
G1 X77.843 Y44.6 E15.75058
G1 X79.6 Y44.081 E15.81151
G1 X81.207 Y43.854 E15.86549
G1 X81.876 Y43.834 E15.88775
G1 X146.276 Y43.839 E18.02971
G1 X147.777 Y43.963 E18.0798
G1 X149.351 Y44.306 E18.13338
G1 X150.596 Y44.759 E18.17745
G1 X152.148 Y45.576 E18.23578
G1 X153.082 Y46.246 E18.27401
G1 X154.146 Y47.205 E18.32165
G1 X155.196 Y48.456 E18.37598
G1 X156.148 Y49.997 E18.43622
G1 X156.483 Y50.739 E18.4633
G1 X156.943 Y52.154 E18.51279
G1 X157.249 Y53.847 E18.57001
G1 X157.324 Y55.033 E18.60953
G1 X157.324 Y87.301 E19.68277
G1 X158.62 Y88.583 E19.7434
G1 X160.098 Y91.915 E19.86464
G1 X160.726 Y94.143 E19.94163
G1 X161.115 Y95.745 E19.99646
G1 X161.41 Y97.17 E20.04486
G1 X161.752 Y99.239 E20.11461
G1 X161.944 Y100.95 E20.17188
G1 X162.655 Y101.617 E20.2043
G1 X163.589 Y102.727 E20.25255
G1 X164.529 Y104.929 E20.33218
G1 X164.924 Y106.273 E20.37878
G1 X164.926 Y109.066 E20.47167
G1 X164.243 Y111.273 E20.54851
G1 X164.091 Y111.628 E20.56136
G1 X164.185 Y111.842 E20.56913
G1 X164.693 Y114.267 E20.65154
G1 X164.813 Y115.714 E20.69983
G1 X164.254 Y118.239 E20.78584
G1 X163.649 Y119.384 E20.82892
G1 X163.939 Y121.357 E20.89524
G1 X163.44 Y124.405 E20.99797
G1 X162.139 Y126.713 E21.08609
G1 X162.026 Y126.868 E21.09247
G1 X162.325 Y128.438 E21.14563
G1 X161.962 Y130.82 E21.22577
G1 X161.492 Y132.403 E21.28069
G1 X161.136 Y133.298 E21.31273
G1 X160.78 Y134.299 E21.34806
G1 X160.456 Y135.514 E21.38989
G1 X160.183 Y137.075 E21.44259
G1 X159.758 Y140.837 E21.56851
G1 X159.383 Y142.711 E21.63208
G1 X159.172 Y143.286 E21.65245
G1 X157.787 Y145.449 E21.73788
G1 X157.324 Y145.912 E21.75965
G1 X157.306 Y184.109 E23.03009
G1 X157.247 Y184.9 E23.05647
G1 X156.844 Y186.893 E23.1241
G1 X156.501 Y187.865 E23.15839
G1 X155.811 Y189.261 E23.21018
G1 X154.823 Y190.692 E23.26802
G1 X153.678 Y191.92 E23.32386
G1 X152.989 Y192.492 E23.35364
G1 X151.31 Y193.563 E23.41988
G1 X150.214 Y194.059 E23.45989
G1 X149.093 Y194.422 E23.49908
G1 X146.927 Y194.794 E23.57218
G1 X146.164 Y194.819 E23.59757
G1 X81.477 Y194.795 E25.74907
G1 X80.04 Y194.648 E25.79711
G1 X79.138 Y194.449 E25.82784
G1 X77.272 Y193.772 E25.89386
G1 X75.981 Y193.068 E25.94277
G1 X75.111 Y192.454 E25.97818
G1 X73.779 Y191.236 E26.03822
G1 X73.365 Y190.761 E26.05917
G1 X72.005 Y188.659 E26.14244
G1 X71.728 Y188.054 E26.16457
G1 X71.041 Y185.738 E26.24492
G1 X70.87 Y184.497 E26.28659
G1 X70.844 Y183.952 E26.30474
G1 X70.844 Y153.402 E27.32083
G1 X70.04 Y152.987 E27.35093
G1 X68.669 Y151.503 E27.41812
G1 X67.825 Y150.066 E27.47355
G1 X67.441 Y149.175 E27.50582
G1 X67.182 Y147.027 E27.57778
G1 X67.203 Y136.473 E27.92881
G1 X67.396 Y134.378 E27.99879
G1 X67.428 Y134.226 E28.00395
G1 X67.33 Y133.968 E28.01313
G1 X66.633 Y132.332 E28.07228
G1 X66.127 Y130.794 E28.12613
G1 X65.976 Y128.669 E28.19698
G1 X66.055 Y127.043 E28.25113
G1 X66.175 Y126.721 E28.26256
G1 X65.777 Y126.146 E28.28582
G1 X64.958 Y124.618 E28.34348
G1 X64.473 Y122.303 E28.42215
G1 X64.384 Y121.242 E28.45756
G1 X64.663 Y119.661 E28.51096
G1 X63.997 Y118.515 E28.55504
G1 X63.407 Y115.715 E28.65022
G1 X63.67 Y113.063 E28.73886
G1 X64.182 Y111.725 E28.7865
G1 X63.402 Y109.795 E28.85574
G1 X63.14 Y107.371 E28.93683
G1 X63.426 Y105.475 E29.00061
G1 X63.709 Y104.51 E29.03405
G1 X65.284 Y101.754 E29.13963
G1 X66.135 Y101.038 E29.17662
G1 X66.321 Y99.179 E29.23876
G1 X66.542 Y97.718 E29.28791
G1 X66.862 Y96.069 E29.34378
G1 X67.402 Y93.878 E29.41883
G1 X68.22 Y90.955 E29.51978
G1 X69.123 Y89.447 E29.57825
G1 X69.83 Y88.532 E29.61671
G1 X70.844 Y87.764 E29.65901
G1 X70.844 Y54.777 E30.75616
G1 X70.872 Y54.103 E30.7786
G1 X71.24 Y51.952 E30.85118
G1 X71.545 Y51.009 E30.88415
G1 X72.516 Y49.028 E30.95752
G0 F6000 X72.846 Y49.255
G1 F1200 X73.4 Y48.449 E30.99005
G1 X74.699 Y47.027 E31.05411
G1 X75.36 Y46.469 E31.08288
G1 X77.226 Y45.301 E31.1561
G1 X77.956 Y44.984 E31.18257
G1 X79.713 Y44.465 E31.24351
G1 X81.219 Y44.254 E31.29409
G1 X81.876 Y44.234 E31.31595
G1 X146.244 Y44.238 E33.45684
G1 X147.693 Y44.354 E33.50519
G1 X149.215 Y44.682 E33.55697
G1 X150.41 Y45.113 E33.59922
G1 X151.916 Y45.902 E33.65577
G1 X152.814 Y46.543 E33.69247
G1 X153.878 Y47.502 E33.74011
G1 X154.889 Y48.712 E33.79255
G1 X155.783 Y50.162 E33.84921
G1 X156.118 Y50.904 E33.87629
G1 X156.549 Y52.225 E33.9225
G1 X156.855 Y53.918 E33.97972
G1 X156.924 Y55.033 E34.01688
G1 X156.924 Y87.467 E35.09564
G1 X158.285 Y88.814 E35.15933
G1 X159.713 Y92.024 E35.27618
G1 X160.337 Y94.237 E35.35266
G1 X160.723 Y95.826 E35.40704
G1 X161.015 Y97.235 E35.4549
G1 X161.354 Y99.284 E35.52398
G1 X161.529 Y100.845 E35.57622
G1 X161.543 Y101.124 E35.58551
G1 X162.349 Y101.875 E35.62216
G1 X163.245 Y102.939 E35.66842
G1 X164.145 Y105.042 E35.7445
G1 X164.524 Y106.332 E35.78922
G1 X164.526 Y109.006 E35.87816
G1 X163.875 Y111.115 E35.95157
G1 X163.649 Y111.642 E35.97064
G1 X163.793 Y111.924 E35.98117
G1 X164.301 Y114.349 E36.06358
G1 X164.409 Y115.686 E36.10819
G1 X163.874 Y118.1 E36.19043
G1 X163.208 Y119.361 E36.23786
G1 X163.271 Y119.567 E36.24503
G1 X163.534 Y121.353 E36.30507
G1 X163.056 Y124.27 E36.40339
G1 X161.815 Y126.478 E36.48763
G1 X161.601 Y126.773 E36.49975
G1 X161.919 Y128.444 E36.55633
G1 X161.578 Y130.707 E36.63244
G1 X161.12 Y132.255 E36.68614
G1 X160.764 Y133.15 E36.71817
G1 X160.4 Y134.173 E36.75429
G1 X160.064 Y135.433 E36.79766
G1 X159.789 Y137.006 E36.85077
G1 X159.366 Y140.76 E36.97642
G1 X159.008 Y142.573 E37.03788
G1 X158.813 Y143.104 E37.0567
G1 X157.473 Y145.197 E37.13936
G1 X156.924 Y145.746 E37.16518
G1 X156.907 Y184.079 E38.44014
G1 X156.848 Y184.87 E38.46652
G1 X156.466 Y186.761 E38.53069
G1 X156.142 Y187.688 E38.56335
G1 X155.452 Y189.084 E38.61514
G1 X154.53 Y190.42 E38.66913
G1 X153.422 Y191.612 E38.72326
G1 X152.733 Y192.184 E38.75305
G1 X151.144 Y193.199 E38.81576
G1 X150.091 Y193.678 E38.85423
G1 X148.97 Y194.041 E38.89342
G1 X146.914 Y194.394 E38.96281
G1 X146.164 Y194.419 E38.98777
G1 X81.517 Y194.397 E41.13793
G1 X80.126 Y194.257 E41.18443
G1 X79.224 Y194.058 E41.21516
G1 X77.463 Y193.42 E41.27745
G1 X76.212 Y192.741 E41.32479
G1 X75.342 Y192.127 E41.36021
G1 X74.081 Y190.973 E41.41706
G1 X73.667 Y190.498 E41.43802
G1 X72.369 Y188.492 E41.51749
G1 X72.092 Y187.887 E41.53962
G1 X71.437 Y185.683 E41.6161
G1 X71.27 Y184.478 E41.65656
G1 X71.244 Y183.933 E41.6747
G1 X71.244 Y153.159 E42.69825
G1 X70.287 Y152.665 E42.73407
G1 X68.991 Y151.262 E42.7976
G1 X68.192 Y149.908 E42.84989
G1 X67.831 Y149.071 E42.88021
G1 X67.582 Y147.028 E42.94866
G1 X67.601 Y136.509 E43.29852
G1 X67.787 Y134.46 E43.36695
G1 X67.843 Y134.193 E43.37603
G1 X67.704 Y133.826 E43.38908
G1 X67.013 Y132.207 E43.44763
G1 X66.523 Y130.716 E43.49983
G1 X66.376 Y128.688 E43.56746
G1 X66.452 Y127.124 E43.61954
G1 X66.623 Y126.665 E43.63583
G1 X66.13 Y125.957 E43.66452
G1 X65.338 Y124.48 E43.72027
G1 X64.865 Y122.221 E43.79703
G1 X64.787 Y121.259 E43.82913
G1 X65.082 Y119.586 E43.88563
G1 X64.375 Y118.368 E43.93247
G1 X63.811 Y115.694 E44.02337
G1 X64.063 Y113.157 E44.10816
G1 X64.612 Y111.721 E44.1593
G1 X63.794 Y109.697 E44.23191
G1 X63.544 Y107.38 E44.30942
G1 X63.81 Y105.588 E44.36967
G1 X64.081 Y104.665 E44.40167
G1 X65.595 Y102.016 E44.50315
G1 X66.517 Y101.24 E44.54323
G1 X66.716 Y99.239 E44.61011
G1 X66.935 Y97.794 E44.65872
G1 X67.255 Y96.145 E44.71459
G1 X67.787 Y93.986 E44.78855
G1 X68.591 Y91.113 E44.88778
G1 X69.439 Y89.692 E44.94281
G1 X70.113 Y88.82 E44.97947
G1 X71.244 Y87.963 E45.02667
G1 X71.244 Y54.794 E46.12987
G1 X71.272 Y54.12 E46.15231
G1 X71.621 Y52.075 E46.22131
G1 X71.926 Y51.132 E46.25427
G1 X72.846 Y49.255 E46.3238
G0 F6000 X73.176 Y49.482
G1 F1200 X73.73 Y48.676 E46.35633
G1 X74.957 Y47.333 E46.41683
G1 X75.618 Y46.775 E46.4456
G1 X77.387 Y45.667 E46.51503
G1 X78.069 Y45.368 E46.5398
G1 X79.826 Y44.849 E46.60073
G1 X81.231 Y44.654 E46.64791
G1 X81.876 Y44.634 E46.66937
G1 X146.213 Y44.637 E48.80923
G1 X147.609 Y44.745 E48.8558
G1 X149.08 Y45.059 E48.90583
G1 X150.225 Y45.468 E48.94627
G1 X151.684 Y46.228 E49.00098
G1 X152.582 Y46.869 E49.03768
G1 X153.572 Y47.759 E49.08196
G1 X154.549 Y48.922 E49.13247
G1 X155.419 Y50.328 E49.18747
G1 X155.738 Y51.029 E49.21308
G1 X156.155 Y52.296 E49.25745
G1 X156.461 Y53.989 E49.31467
G1 X156.524 Y55.033 E49.34946
G1 X156.524 Y87.633 E50.43374
G1 X157.95 Y89.045 E50.50048
G1 X159.328 Y92.133 E50.61295
G1 X159.948 Y94.331 E50.68891
G1 X160.331 Y95.907 E50.74285
G1 X160.62 Y97.3 E50.79017
G1 X160.956 Y99.329 E50.85858
G1 X161.131 Y100.89 E50.91082
G1 X161.153 Y101.308 E50.92474
G1 X162.076 Y102.168 E50.9667
G1 X162.9 Y103.151 E51.00936
G1 X163.761 Y105.155 E51.08191
G1 X164.124 Y106.391 E51.12475
G1 X164.126 Y108.946 E51.20973
G1 X163.507 Y110.958 E51.27975
G1 X163.208 Y111.657 E51.30504
G1 X163.413 Y112.061 E51.3201
G1 X163.902 Y114.381 E51.39896
G1 X164.005 Y115.658 E51.44157
G1 X163.495 Y117.961 E51.52003
G1 X162.774 Y119.325 E51.57134
G1 X162.875 Y119.625 E51.58187
G1 X163.129 Y121.349 E51.63983
G1 X162.672 Y124.136 E51.73376
G1 X161.491 Y126.243 E51.8141
G1 X161.199 Y126.645 E51.83063
G1 X161.188 Y126.745 E51.83397
G1 X161.513 Y128.451 E51.89173
G1 X161.182 Y130.647 E51.9656
G1 X160.748 Y132.107 E52.01626
G1 X160.392 Y133.002 E52.0483
G1 X160.02 Y134.047 E52.08519
G1 X159.672 Y135.352 E52.13011
G1 X159.395 Y136.937 E52.18363
G1 X158.973 Y140.684 E52.30904
G1 X158.632 Y142.435 E52.36837
G1 X158.452 Y142.926 E52.38577
G1 X157.159 Y144.945 E52.46551
G1 X156.524 Y145.58 E52.49538
G1 X156.508 Y184.051 E53.77493
G1 X156.456 Y184.791 E53.7996
G1 X156.088 Y186.629 E53.86195
G1 X155.764 Y187.556 E53.89461
G1 X155.094 Y188.906 E53.94473
G1 X154.236 Y190.148 E53.99494
G1 X153.166 Y191.304 E54.04733
G1 X152.477 Y191.876 E54.07712
G1 X150.929 Y192.862 E54.13816
G1 X149.968 Y193.297 E54.17325
G1 X148.847 Y193.66 E54.21244
G1 X146.9 Y193.994 E54.27814
G1 X146.164 Y194.019 E54.30263
G1 X81.556 Y193.999 E56.45151
G1 X80.212 Y193.866 E56.49643
G1 X79.31 Y193.667 E56.52715
G1 X77.653 Y193.068 E56.58575
G1 X76.443 Y192.414 E56.6315
G1 X75.573 Y191.8 E56.66691
G1 X74.383 Y190.71 E56.72059
G1 X73.969 Y190.235 E56.74154
G1 X72.733 Y188.325 E56.81721
G1 X72.456 Y187.72 E56.83934
G1 X71.833 Y185.628 E56.91194
G1 X71.67 Y184.459 E56.9512
G1 X71.644 Y183.914 E56.96935
G1 X71.644 Y152.916 E58.00035
G1 X70.534 Y152.343 E58.04189
G1 X69.315 Y151.024 E58.10163
G1 X68.537 Y149.705 E58.15256
G1 X68.221 Y148.965 E58.17933
G1 X67.982 Y147.029 E58.24421
G1 X67.999 Y136.545 E58.59291
G1 X68.179 Y134.541 E58.65983
G1 X68.258 Y134.161 E58.67274
G1 X68.072 Y133.669 E58.69023
G1 X67.393 Y132.082 E58.74764
G1 X66.918 Y130.638 E58.7982
G1 X66.776 Y128.707 E58.8626
G1 X66.849 Y127.205 E58.91262
G1 X67.072 Y126.608 E58.93381
G1 X66.482 Y125.768 E58.96795
G1 X65.717 Y124.342 E59.02178
G1 X65.264 Y122.189 E59.09495
G1 X65.19 Y121.277 E59.12539
G1 X65.501 Y119.511 E59.18503
G1 X64.752 Y118.221 E59.23464
G1 X64.215 Y115.673 E59.32125
G1 X64.455 Y113.252 E59.40217
G1 X65.042 Y111.717 E59.45683
G1 X64.186 Y109.599 E59.53281
G1 X63.947 Y107.388 E59.60678
G1 X64.194 Y105.701 E59.66348
G1 X64.453 Y104.82 E59.69403
G1 X65.906 Y102.278 E59.79141
G1 X66.919 Y101.425 E59.83546
G1 X66.932 Y101.109 E59.84598
G1 X67.112 Y99.299 E59.90647
G1 X67.328 Y97.87 E59.95454
G1 X67.648 Y96.221 E60.01041
G1 X68.172 Y94.094 E60.08327
G1 X68.962 Y91.272 E60.18074
G1 X69.756 Y89.937 E60.2324
G1 X70.398 Y89.106 E60.26733
