;FLAVOR:Marlin
;TIME:9055
;Filament used: 5.66183m
;Layer height: 0.2
;MINX:68.219
;MINY:38.863
;MINZ:0.2
;MAXX:165.001
;MAXY:191.589
;MAXZ:3.2
;TARGET_MACHINE.NAME:Creality Ender-3
;POSTPROCESSED
;Generated with Cura_SteamEngine 5.5.0
M140 S60
M105
M190 S60
M104 S220
M105
M109 S220
M82 ;absolute extrusion mode
; Ender 3 Custom Start G-code
G92 E0 ; Reset Extruder
G28 ; Home all axes
G1 Z2.0 F3000 ; Move Z Axis up little to prevent scratching of Heat Bed
G1 X0.1 Y20 Z0.3 F5000.0 ; Move to start position
G1 X0.1 Y200.0 Z0.3 F1500.0 E15 ; Draw the first line
G1 X0.4 Y200.0 Z0.3 F5000.0 ; Move to side a little
G1 X0.4 Y20 Z0.3 F1500.0 E30 ; Draw the second line
G92 E0 ; Reset Extruder
G1 Z2.0 F3000 ; Move Z Axis up little to prevent scratching of Heat Bed
G1 X5 Y20 Z0.3 F5000.0 ; Move over to prevent blob squish
G92 E0
G92 E0
G1 F2700 E-5
;LAYER_COUNT:16
;LAYER:0
M117 Printing Layer 0 of 15 sapwapahcikan-paskisikan-plaque_flat_sale
M107
G0 F6000 X74.764 Y44.412 Z0.2
;TYPE:SKIRT
G1 F2700 E0
G1 F1200 X75.633 Y43.16 E0.05069
G1 X76.617 Y42.087 E0.09911
G1 X78.102 Y40.871 E0.16295
G1 X79.279 Y40.164 E0.20862
G1 X80.684 Y39.55 E0.25961
G1 X82.26 Y39.11 E0.31404
G1 X83.907 Y38.884 E0.36933
G1 X84.659 Y38.863 E0.39435
G1 X149.637 Y38.875 E2.55553
G1 X150.841 Y38.972 E2.5957
G1 X152.508 Y39.328 E2.6524
G1 X154.045 Y39.888 E2.70681
G1 X155.511 Y40.662 E2.76194
G1 X156.164 Y41.111 E2.7883
G1 X157.732 Y42.516 E2.85833
G1 X158.836 Y43.859 E2.91615
G1 X159.301 Y44.59 E2.94497
G1 X160.136 Y46.362 E3.01012
G1 X160.515 Y47.569 E3.0522
G1 X160.8 Y49.117 E3.10455
G1 X160.878 Y50.2 E3.14066
G1 X160.888 Y103.268 E4.90571
G1 X161.683 Y104.233 E4.9473
G1 X162.95 Y106.761 E5.04135
G1 X163.44 Y108.872 E5.11343
G1 X163.648 Y112.124 E5.22181
G1 X163.436 Y113.977 E5.28384
G1 X162.872 Y116.186 E5.35967
G1 X161.584 Y118.64 E5.45185
G1 X160.888 Y119.466 E5.48778
G1 X160.888 Y127.845 E5.76646
G1 X161.823 Y128.648 E5.80746
G1 X162.959 Y130.153 E5.87017
G1 X163.301 Y130.68 E5.89107
G1 X164.108 Y132.272 E5.95043
G1 X164.762 Y134.281 E6.0207
G1 X164.866 Y134.82 E6.03896
G1 X165.001 Y137.461 E6.12691
G1 X164.898 Y138.424 E6.15913
G1 X164.329 Y140.706 E6.23735
G1 X163.601 Y142.372 E6.29782
G1 X163.097 Y143.217 E6.33055
G1 X161.587 Y145.071 E6.41007
G1 X160.888 Y145.697 E6.44128
G1 X160.869 Y180.491 E7.59854
G1 X160.811 Y181.286 E7.62505
G1 X160.404 Y183.291 E7.6931
G1 X159.941 Y184.582 E7.73871
G1 X159.139 Y186.112 E7.79617
G1 X158.087 Y187.57 E7.85597
G1 X157.55 Y188.151 E7.88228
G1 X156.122 Y189.365 E7.94462
G1 X154.646 Y190.282 E8.00241
G1 X153.327 Y190.87 E8.05045
G1 X152.475 Y191.146 E8.08023
G1 X150.078 Y191.564 E8.16116
G1 X149.298 Y191.589 E8.18712
G1 X84.246 Y191.571 E10.35076
G1 X83.35 Y191.509 E10.38063
G1 X81.478 Y191.134 E10.44413
G1 X80.16 Y190.666 E10.49065
G1 X78.391 Y189.748 E10.55693
G1 X77.825 Y189.359 E10.57978
G1 X76.188 Y187.881 E10.65313
G1 X75.283 Y186.775 E10.70066
G1 X74.47 Y185.47 E10.7518
G1 X73.818 Y184.011 E10.80495
G1 X73.491 Y182.935 E10.84236
G1 X73.133 Y180.8 E10.91436
G1 X73.112 Y180.293 E10.93124
G1 X73.112 Y146.244 E12.06371
G1 X72.163 Y145.284 E12.10861
G1 X71.565 Y144.575 E12.13946
G1 X70.9 Y143.654 E12.17724
G1 X70.299 Y142.692 E12.21497
G1 X69.893 Y141.933 E12.2436
G1 X69.298 Y140.6 E12.29215
G1 X68.948 Y139.612 E12.32701
G1 X68.594 Y138.311 E12.37186
G1 X68.459 Y137.662 E12.3939
G1 X68.246 Y135.858 E12.45432
G1 X68.22 Y135.009 E12.48257
G1 X68.219 Y132.544 E12.56456
G1 X68.664 Y130.678 E12.62836
G1 X69.736 Y128.612 E12.70578
G1 X71.332 Y127.14 E12.77799
G1 X72.924 Y126.204 E12.83942
G1 X73.112 Y126.124 E12.84621
G1 X73.112 Y124.885 E12.88742
G1 X72.891 Y124.663 E12.89784
G1 X71.161 Y121.873 E13.00703
G1 X70.458 Y118.101 E13.13464
G1 X70.665 Y117.056 E13.17008
G1 X70.642 Y116.848 E13.17704
G1 X70.64 Y110.37 E13.3925
G1 X70.281 Y109.312 E13.42966
G1 X70.007 Y108.266 E13.46562
G1 X69.83 Y107.294 E13.49848
G1 X69.699 Y105.863 E13.54627
G1 X69.692 Y104.336 E13.59706
G1 X69.838 Y102.623 E13.65424
G1 X70.056 Y101.515 E13.6918
G1 X70.566 Y99.947 E13.74664
G1 X70.953 Y99.076 E13.77834
G1 X71.418 Y98.179 E13.81195
G1 X72.088 Y97.097 E13.85428
G1 X72.791 Y96.163 E13.89316
G1 X73.112 Y95.805 E13.90915
G1 X73.112 Y50.182 E15.42658
G1 X73.141 Y49.494 E15.44948
G1 X73.616 Y46.982 E15.53451
G1 X73.991 Y45.932 E15.5716
G1 X74.764 Y44.412 E15.62831
G0 F6000 X75.093 Y44.64
G1 F1200 X75.962 Y43.388 E15.679
G1 X76.911 Y42.358 E15.72558
G1 X78.309 Y41.213 E15.78569
G1 X79.439 Y40.531 E15.82959
G1 X80.844 Y39.917 E15.88058
G1 X82.315 Y39.506 E15.93138
G1 X83.918 Y39.284 E15.98521
G1 X84.659 Y39.263 E16.00986
G1 X149.605 Y39.274 E18.16998
G1 X150.809 Y39.371 E18.21015
G1 X152.372 Y39.704 E18.2633
G1 X153.859 Y40.242 E18.3159
G1 X155.284 Y40.992 E18.36946
G1 X155.937 Y41.441 E18.39582
G1 X157.423 Y42.771 E18.46215
G1 X158.498 Y44.074 E18.51833
G1 X158.963 Y44.805 E18.54714
G1 X159.754 Y46.482 E18.60881
G1 X160.133 Y47.689 E18.65089
G1 X160.401 Y49.146 E18.70017
G1 X160.479 Y50.229 E18.73628
G1 X160.488 Y103.412 E20.50515
G1 X161.345 Y104.452 E20.54997
G1 X162.571 Y106.898 E20.64098
G1 X163.05 Y108.962 E20.71145
G1 X163.25 Y112.079 E20.81533
G1 X163.048 Y113.878 E20.87555
G1 X162.495 Y116.044 E20.9499
G1 X161.251 Y118.414 E21.03892
G1 X160.488 Y119.319 E21.07829
G1 X160.488 Y128.029 E21.36799
G1 X161.53 Y128.924 E21.41368
G1 X162.623 Y130.371 E21.47399
G1 X162.965 Y130.898 E21.49489
G1 X163.728 Y132.396 E21.5508
G1 X164.369 Y134.357 E21.61942
G1 X164.473 Y134.896 E21.63768
G1 X164.603 Y137.418 E21.72167
G1 X164.5 Y138.381 E21.75388
G1 X163.962 Y140.546 E21.82808
G1 X163.257 Y142.167 E21.88687
G1 X162.753 Y143.012 E21.9196
G1 X161.277 Y144.818 E21.99718
G1 X160.488 Y145.518 E22.03226
G1 X160.47 Y180.462 E23.1945
G1 X160.412 Y181.257 E23.22101
G1 X160.027 Y183.156 E23.28546
G1 X159.564 Y184.447 E23.33107
G1 X158.785 Y185.926 E23.38667
G1 X157.793 Y187.298 E23.44298
G1 X157.256 Y187.879 E23.4693
G1 X155.91 Y189.026 E23.52812
G1 X154.483 Y189.917 E23.58407
G1 X153.204 Y190.489 E23.63067
G1 X152.352 Y190.765 E23.66046
G1 X150.065 Y191.164 E23.73767
G1 X149.298 Y191.189 E23.7632
G1 X84.274 Y191.172 E25.9259
G1 X83.378 Y191.11 E25.95578
G1 X81.611 Y190.757 E26.01571
G1 X80.344 Y190.311 E26.06038
G1 X78.618 Y189.418 E26.12502
G1 X78.052 Y189.029 E26.14786
G1 X76.497 Y187.627 E26.2175
G1 X75.623 Y186.563 E26.2633
G1 X74.81 Y185.258 E26.31443
G1 X74.2 Y183.893 E26.36416
G1 X73.885 Y182.868 E26.39983
G1 X73.533 Y180.783 E26.47015
G1 X73.512 Y180.276 E26.48703
G1 X73.512 Y146.08 E27.6244
G1 X72.469 Y145.026 E27.67371
G1 X71.871 Y144.317 E27.70456
G1 X71.239 Y143.442 E27.74046
G1 X70.652 Y142.503 E27.7773
G1 X70.246 Y141.744 E27.80592
G1 X69.675 Y140.466 E27.85248
G1 X69.334 Y139.507 E27.88633
G1 X68.986 Y138.23 E27.93036
G1 X68.851 Y137.581 E27.9524
G1 X68.646 Y135.846 E28.01051
G1 X68.62 Y135.009 E28.03836
G1 X68.619 Y132.591 E28.11879
G1 X69.042 Y130.818 E28.17941
G1 X70.059 Y128.858 E28.25286
G1 X71.57 Y127.464 E28.32123
G1 X73.127 Y126.549 E28.3813
G1 X73.512 Y126.395 E28.39509
G1 X73.512 Y124.72 E28.4508
G1 X73.207 Y124.413 E28.46519
G1 X71.54 Y121.725 E28.57039
G1 X70.865 Y118.103 E28.69294
G1 X71.069 Y117.072 E28.72789
G1 X71.04 Y116.805 E28.73682
G1 X71.04 Y110.303 E28.95308
G1 X70.66 Y109.183 E28.99242
G1 X70.401 Y108.194 E29.02642
G1 X70.224 Y107.222 E29.05928
G1 X70.099 Y105.861 E29.10474
G1 X70.091 Y104.369 E29.15437
G1 X70.231 Y102.699 E29.2101
G1 X70.437 Y101.638 E29.24605
G1 X70.932 Y100.109 E29.29951
G1 X71.319 Y99.238 E29.33121
G1 X71.758 Y98.39 E29.36297
G1 X72.428 Y97.308 E29.40529
G1 X73.11 Y96.404 E29.44296
G1 X73.512 Y95.957 E29.46295
G1 X73.512 Y50.199 E30.98487
G1 X73.541 Y49.511 E31.00777
G1 X73.993 Y47.117 E31.08881
G1 X74.368 Y46.067 E31.12589
G1 X75.093 Y44.64 E31.17913
G0 F6000 X75.422 Y44.868
G1 F1200 X76.291 Y43.616 E31.22982
G1 X77.204 Y42.63 E31.27451
G1 X78.517 Y41.555 E31.33095
G1 X79.599 Y40.898 E31.37305
G1 X81.004 Y40.284 E31.42405
G1 X82.37 Y39.902 E31.47123
G1 X83.93 Y39.684 E31.52362
G1 X84.659 Y39.663 E31.54787
G1 X149.573 Y39.673 E33.70692
G1 X150.777 Y39.77 E33.7471
G1 X152.237 Y40.08 E33.79674
G1 X153.673 Y40.596 E33.84749
G1 X155.057 Y41.322 E33.89947
G1 X155.71 Y41.771 E33.92583
G1 X157.115 Y43.026 E33.98849
G1 X158.16 Y44.289 E34.04301
G1 X158.625 Y45.02 E34.07183
G1 X159.372 Y46.602 E34.13001
G1 X159.751 Y47.809 E34.17209
G1 X160.002 Y49.175 E34.21829
G1 X160.08 Y50.258 E34.2544
G1 X160.088 Y103.556 E36.0271
G1 X161.007 Y104.671 E36.07516
G1 X162.191 Y107.034 E36.16306
G1 X162.66 Y109.053 E36.232
G1 X162.852 Y112.034 E36.33136
G1 X162.65 Y113.833 E36.39157
G1 X162.12 Y115.898 E36.46248
G1 X160.918 Y118.188 E36.5485
G1 X160.088 Y119.172 E36.59131
G1 X160.088 Y128.213 E36.89202
G1 X161.237 Y129.2 E36.9424
G1 X162.287 Y130.589 E37.00031
G1 X162.629 Y131.116 E37.02121
G1 X163.371 Y132.577 E37.07571
G1 X163.976 Y134.433 E37.14064
G1 X164.08 Y134.972 E37.15889
G1 X164.205 Y137.375 E37.23893
G1 X164.102 Y138.338 E37.27114
G1 X163.595 Y140.387 E37.34134
G1 X162.913 Y141.962 E37.39843
G1 X162.409 Y142.807 E37.43115
G1 X160.968 Y144.564 E37.50673
G1 X160.088 Y145.338 E37.54571
G1 X160.071 Y180.433 E38.71297
G1 X160.013 Y181.228 E38.73949
G1 X159.65 Y183.021 E38.80033
G1 X159.187 Y184.312 E38.84595
G1 X158.46 Y185.692 E38.89783
G1 X157.499 Y187.026 E38.95251
G1 X156.962 Y187.607 E38.97882
G1 X155.651 Y188.721 E39.03604
G1 X154.319 Y189.552 E39.08826
G1 X153.081 Y190.108 E39.1334
G1 X152.229 Y190.384 E39.16319
G1 X150.052 Y190.764 E39.23669
G1 X149.298 Y190.789 E39.26178
G1 X84.302 Y190.773 E41.42356
G1 X83.406 Y190.711 E41.45343
G1 X81.743 Y190.379 E41.50983
G1 X80.527 Y189.955 E41.55266
G1 X78.845 Y189.088 E41.6156
G1 X78.279 Y188.699 E41.63845
G1 X76.765 Y187.33 E41.70634
G1 X75.963 Y186.351 E41.74843
G1 X75.15 Y185.046 E41.79957
G1 X74.566 Y183.731 E41.84742
G1 X74.279 Y182.801 E41.87979
G1 X73.933 Y180.766 E41.94845
G1 X73.912 Y180.259 E41.96533
G1 X73.912 Y145.915 E43.10761
G1 X72.775 Y144.768 E43.16133
G1 X72.177 Y144.059 E43.19218
G1 X71.578 Y143.23 E43.2262
G1 X71.005 Y142.314 E43.26213
G1 X70.599 Y141.555 E43.29076
G1 X70.052 Y140.332 E43.33532
G1 X69.72 Y139.402 E43.36817
G1 X69.378 Y138.149 E43.41137
G1 X69.243 Y137.5 E43.43341
G1 X69.046 Y135.833 E43.48924
G1 X69.02 Y135.009 E43.51666
G1 X69.019 Y132.638 E43.59552
G1 X69.42 Y130.958 E43.65297
G1 X70.382 Y129.104 E43.72244
G1 X71.808 Y127.788 E43.78698
G1 X73.33 Y126.894 E43.84569
G1 X73.912 Y126.671 E43.86642
G1 X73.912 Y124.555 E43.9368
G1 X73.523 Y124.163 E43.95517
G1 X71.919 Y121.577 E44.05638
G1 X71.272 Y118.105 E44.17385
G1 X71.473 Y117.087 E44.20836
G1 X71.44 Y116.805 E44.2178
G1 X71.44 Y110.236 E44.43629
G1 X71.039 Y109.054 E44.4778
G1 X70.795 Y108.122 E44.50984
G1 X70.618 Y107.15 E44.54271
G1 X70.499 Y105.859 E44.58583
G1 X70.49 Y104.402 E44.63429
G1 X70.624 Y102.775 E44.68858
G1 X70.83 Y101.714 E44.72453
G1 X71.298 Y100.271 E44.77499
G1 X71.685 Y99.4 E44.80669
G1 X72.098 Y98.601 E44.8366
G1 X72.768 Y97.519 E44.87893
G1 X73.408 Y96.671 E44.91427
G1 X73.912 Y96.11 E44.93935
G1 X73.912 Y50.216 E46.46579
G1 X73.941 Y49.528 E46.48869
G1 X74.37 Y47.252 E46.56573
G1 X74.745 Y46.202 E46.60281
G1 X75.422 Y44.868 E46.65257
G0 F6000 X75.751 Y45.096
G1 F1200 X76.62 Y43.844 E46.70326
G1 X77.458 Y42.939 E46.74428
G1 X78.726 Y41.896 E46.79889
G1 X79.759 Y41.265 E46.83915
G1 X81.164 Y40.651 E46.89015
G1 X82.426 Y40.298 E46.93373
G1 X83.942 Y40.084 E46.98465
G1 X84.659 Y40.063 E47.00851
G1 X149.541 Y40.072 E49.1665
G1 X150.745 Y40.169 E49.20667
G1 X152.103 Y40.457 E49.25284
G1 X153.488 Y40.951 E49.30175
G1 X154.832 Y41.653 E49.35218
G1 X155.444 Y42.07 E49.37681
G1 X156.807 Y43.281 E49.43746
G1 X157.822 Y44.504 E49.49032
G1 X158.287 Y45.235 E49.51913
G1 X158.99 Y46.722 E49.57384
G1 X159.369 Y47.929 E49.61592
G1 X159.603 Y49.204 E49.65903
G1 X159.681 Y50.287 E49.69514
G1 X159.688 Y103.7 E51.47167
G1 X160.669 Y104.89 E51.52296
G1 X161.812 Y107.171 E51.60782
G1 X162.27 Y109.143 E51.67516
G1 X162.454 Y111.989 E51.77001
G1 X162.252 Y113.788 E51.83022
G1 X161.745 Y115.753 E51.89772
G1 X160.585 Y117.962 E51.98071
G1 X159.688 Y119.026 E52.02699
G1 X159.688 Y128.396 E52.33864
G1 X160.944 Y129.476 E52.39373
G1 X161.951 Y130.807 E52.44925
G1 X162.293 Y131.334 E52.47014
G1 X162.991 Y132.702 E52.52122
G1 X163.583 Y134.509 E52.58447
G1 X163.687 Y135.048 E52.60272
G1 X163.807 Y137.332 E52.67879
G1 X163.704 Y138.295 E52.71101
G1 X163.228 Y140.229 E52.77725
G1 X162.569 Y141.757 E52.8326
G1 X162.065 Y142.602 E52.86532
G1 X160.704 Y144.264 E52.93677
G1 X159.688 Y145.157 E52.98176
G1 X159.672 Y180.404 E54.15408
G1 X159.614 Y181.199 E54.18059
G1 X159.273 Y182.886 E54.23784
G1 X158.81 Y184.177 E54.28345
G1 X158.135 Y185.459 E54.33164
G1 X157.205 Y186.754 E54.38467
G1 X156.668 Y187.335 E54.41098
G1 X155.392 Y188.416 E54.46661
G1 X154.155 Y189.187 E54.51509
G1 X152.958 Y189.727 E54.55876
G1 X152.106 Y190.003 E54.58855
G1 X150.039 Y190.364 E54.65834
G1 X149.298 Y190.389 E54.683
G1 X84.33 Y190.374 E56.84384
G1 X83.434 Y190.312 E56.87372
G1 X81.875 Y190.001 E56.92659
G1 X80.659 Y189.577 E56.96942
G1 X79.072 Y188.758 E57.02882
G1 X78.506 Y188.369 E57.05166
G1 X77.074 Y187.076 E57.11584
G1 X76.303 Y186.139 E57.15619
G1 X75.49 Y184.834 E57.20733
G1 X74.948 Y183.612 E57.25179
G1 X74.673 Y182.733 E57.28243
G1 X74.333 Y180.749 E57.34938
G1 X74.312 Y180.242 E57.36626
G1 X74.312 Y145.75 E58.51346
G1 X73.081 Y144.51 E58.57158
G1 X72.483 Y143.801 E58.60243
G1 X71.917 Y143.018 E58.63456
G1 X71.358 Y142.125 E58.6696
G1 X70.952 Y141.366 E58.69823
G1 X70.429 Y140.197 E58.74083
G1 X70.106 Y139.296 E58.77266
G1 X69.77 Y138.068 E58.81501
G1 X69.635 Y137.419 E58.83705
G1 X69.446 Y135.82 E58.89061
G1 X69.42 Y135.009 E58.9176
G1 X69.419 Y132.685 E58.99489
G1 X69.798 Y131.098 E59.04916
G1 X70.705 Y129.35 E59.11466
G1 X72.046 Y128.112 E59.17536
G1 X73.533 Y127.239 E59.23271
G1 X74.008 Y127.057 E59.24963
G1 X74.312 Y127.011 E59.25986
G1 X74.312 Y124.39 E59.34703
G1 X73.84 Y123.916 E59.36928
G1 X72.298 Y121.429 E59.46661
G1 X71.679 Y118.107 E59.579
G1 X71.878 Y117.098 E59.61321
G1 X71.84 Y116.805 E59.62303
G1 X71.84 Y110.131 E59.84501
G1 X71.765 Y109.95 E59.85153
G1 X71.418 Y108.926 E59.88749
G1 X71.189 Y108.05 E59.9176
G1 X71.012 Y107.078 E59.95046
G1 X70.899 Y105.856 E59.99128
G1 X70.889 Y104.434 E60.03858
G1 X71.017 Y102.851 E60.0914
G1 X71.223 Y101.79 E60.12735
G1 X71.664 Y100.433 E60.17481
G1 X72.051 Y99.562 E60.20651
G1 X72.438 Y98.812 E60.23458
G1 X73.108 Y97.73 E60.27691
G1 X73.706 Y96.938 E60.30991
G1 X74.312 Y96.263 E60.34008
G1 X74.312 Y50.233 E61.87105
G1 X74.341 Y49.545 E61.89395
G1 X74.747 Y47.387 E61.96699
G1 X75.122 Y46.337 E62.00407
G1 X75.751 Y45.096 E62.05034
G0 F6000 X76.08 Y45.324
G1 F1200 X76.949 Y44.072 E62.10103
G1 X77.712 Y43.248 E62.13838
G1 X78.98 Y42.205 E62.19299
G1 X79.919 Y41.632 E62.22958
G1 X81.324 Y41.018 E62.28058
G1 X82.483 Y40.694 E62.3206
G1 X83.954 Y40.484 E62.37003
G1 X84.659 Y40.463 E62.39348
G1 X149.509 Y40.471 E64.5504
G1 X150.713 Y40.568 E64.59058
G1 X151.969 Y40.834 E64.63328
G1 X153.354 Y41.328 E64.68219
G1 X154.607 Y41.984 E64.72923
G1 X155.219 Y42.401 E64.75386
G1 X156.5 Y43.537 E64.81081
G1 X157.484 Y44.719 E64.86196
G1 X157.949 Y45.45 E64.89078
G1 X158.608 Y46.842 E64.942
G1 X158.987 Y48.049 E64.98408
G1 X159.204 Y49.233 E65.02411
G1 X159.282 Y50.316 E65.06023
G1 X159.288 Y103.844 E66.84058
G1 X160.331 Y105.109 E66.89511
G1 X161.433 Y107.308 E66.97692
G1 X161.88 Y109.233 E67.04265
G1 X162.056 Y111.944 E67.133
G1 X161.854 Y113.743 E67.19321
G1 X161.369 Y115.608 E67.25731
G1 X160.252 Y117.736 E67.33724
G1 X159.288 Y118.879 E67.38698
G1 X159.288 Y128.617 E67.71086
G1 X159.538 Y128.794 E67.72105
G1 X160.651 Y129.752 E67.76989
G1 X161.615 Y131.025 E67.823
G1 X161.957 Y131.552 E67.8439
G1 X162.634 Y132.883 E67.89357
G1 X163.19 Y134.585 E67.95312
G1 X163.294 Y135.124 E67.97138
G1 X163.409 Y137.291 E68.04355
G1 X163.315 Y138.2 E68.07395
G1 X162.86 Y140.071 E68.13799
G1 X162.225 Y141.552 E68.19159
G1 X161.721 Y142.397 E68.22431
G1 X160.439 Y143.964 E68.29165
G1 X159.447 Y144.839 E68.33564
G1 X159.288 Y144.946 E68.34202
