;FLAVOR:Marlin
;TIME:13227
;Filament used: 8.50896m
;Layer height: 0.2
;MINX:58.657
;MINY:22.26
;MINZ:0.2
;MAXX:174.589
;MAXY:208.192
;MAXZ:3.2
;TARGET_MACHINE.NAME:Creality Ender-3
;POSTPROCESSED
;Generated with Cura_SteamEngine 5.5.0
M140 S60
M105
M190 S60
M104 S220
M105
M109 S220
M82 ;absolute extrusion mode
; Ender 3 Custom Start G-code
G92 E0 ; Reset Extruder
G28 ; Home all axes
G1 Z2.0 F3000 ; Move Z Axis up little to prevent scratching of Heat Bed
G1 X0.1 Y20 Z0.3 F5000.0 ; Move to start position
G1 X0.1 Y200.0 Z0.3 F1500.0 E15 ; Draw the first line
G1 X0.4 Y200.0 Z0.3 F5000.0 ; Move to side a little
G1 X0.4 Y20 Z0.3 F1500.0 E30 ; Draw the second line
G92 E0 ; Reset Extruder
G1 Z2.0 F3000 ; Move Z Axis up little to prevent scratching of Heat Bed
G1 X5 Y20 Z0.3 F5000.0 ; Move over to prevent blob squish
G92 E0
G92 E0
G1 F2700 E-5
;LAYER_COUNT:16
;LAYER:0
M117 Printing Layer 0 of 15 sapwapahcikan-paskisikan-plaque_flat
M107
G0 F6000 X65.426 Y29.815 Z0.2
;TYPE:SKIRT
G1 F2700 E0
G1 F1200 X66.02 Y28.607 E0.04477
G1 X67.184 Y26.883 E0.11396
G1 X67.964 Y26.006 E0.153
G1 X69.92 Y24.373 E0.23775
G1 X71.11 Y23.664 E0.28382
G1 X72.827 Y22.92 E0.34606
G1 X73.598 Y22.685 E0.37286
G1 X76.204 Y22.276 E0.4606
G1 X76.921 Y22.26 E0.48445
G1 X157.378 Y22.268 E3.16046
G1 X158.898 Y22.388 E3.21118
G1 X160.755 Y22.783 E3.27432
G1 X161.952 Y23.201 E3.31649
G1 X163.591 Y24.018 E3.3774
G1 X164.878 Y24.887 E3.42905
G1 X165.946 Y25.821 E3.47624
G1 X167.471 Y27.6 E3.55418
G1 X168.004 Y28.434 E3.5871
G1 X168.899 Y30.309 E3.6562
G1 X169.374 Y31.823 E3.70898
G1 X169.643 Y33.334 E3.76002
G1 X169.74 Y34.859 E3.81085
G1 X169.74 Y101.496 E6.0272
G1 X170.757 Y102.723 E6.08021
G1 X172.132 Y105.481 E6.18271
G1 X172.668 Y107.805 E6.26203
G1 X172.885 Y111.198 E6.37512
G1 X172.649 Y113.284 E6.44494
G1 X172.048 Y115.644 E6.52594
G1 X170.702 Y118.233 E6.62299
G1 X169.74 Y119.374 E6.67263
G1 X169.74 Y132.133 E7.097
G1 X169.971 Y132.308 E7.10663
G1 X170.991 Y133.236 E7.1525
G1 X171.686 Y134.02 E7.18735
G1 X172.296 Y134.826 E7.22097
G1 X172.938 Y135.83 E7.2606
G1 X173.419 Y136.748 E7.29507
G1 X174.143 Y138.446 E7.35647
G1 X174.563 Y141.113 E7.44627
G1 X174.589 Y142.058 E7.47771
G1 X174.531 Y143.209 E7.51604
G1 X174.493 Y143.55 E7.52745
G1 X174.238 Y144.895 E7.57298
G1 X173.967 Y145.872 E7.60671
G1 X173.858 Y146.193 E7.61798
G1 X173.292 Y147.506 E7.66554
G1 X172.799 Y148.427 E7.70028
G1 X172.634 Y148.695 E7.71075
G1 X171.805 Y149.842 E7.75782
G1 X171.524 Y150.178 E7.77239
G1 X170.583 Y151.149 E7.81736
G1 X170.132 Y151.542 E7.83726
G1 X169.74 Y151.834 E7.85351
G1 X169.721 Y196.144 E9.32727
G1 X169.627 Y197.311 E9.36621
G1 X169.303 Y198.913 E9.42057
G1 X168.714 Y200.614 E9.48044
G1 X167.965 Y202.087 E9.53541
G1 X167.204 Y203.216 E9.58069
G1 X165.801 Y204.78 E9.65057
G1 X164.617 Y205.765 E9.7018
G1 X163.529 Y206.477 E9.74505
G1 X161.521 Y207.417 E9.81879
G1 X159.978 Y207.871 E9.87228
G1 X158.097 Y208.161 E9.93558
G1 X157.197 Y208.192 E9.96554
G1 X76.536 Y208.175 E12.64833
G1 X75.33 Y208.085 E12.68856
G1 X73.761 Y207.777 E12.74174
G1 X72.499 Y207.371 E12.78583
G1 X70.426 Y206.354 E12.86263
G1 X69.184 Y205.484 E12.91306
G1 X67.762 Y204.172 E12.97742
G1 X66.859 Y203.077 E13.02462
G1 X66.092 Y201.894 E13.07151
G1 X65.153 Y199.831 E13.1469
G1 X64.795 Y198.611 E13.18919
G1 X64.468 Y196.557 E13.25837
G1 X64.441 Y195.924 E13.27944
G1 X64.441 Y152.573 E14.7213
G1 X63.045 Y151.162 E14.78732
G1 X62.276 Y150.248 E14.82705
G1 X61.718 Y149.474 E14.85878
G1 X60.884 Y148.138 E14.91117
G1 X60.518 Y147.451 E14.93706
G1 X59.971 Y146.234 E14.98143
G1 X59.391 Y144.616 E15.0386
G1 X59.074 Y143.449 E15.07882
G1 X58.916 Y142.691 E15.10458
G1 X58.689 Y140.754 E15.16944
G1 X58.658 Y139.783 E15.20175
G1 X58.657 Y137.173 E15.28856
G1 X59.102 Y135.307 E15.35237
G1 X60.174 Y133.241 E15.42978
G1 X61.767 Y131.772 E15.50185
G1 X63.404 Y130.82 E15.56484
G1 X64.133 Y130.531 E15.59092
G1 X64.441 Y130.474 E15.60134
G1 X64.441 Y126.141 E15.74546
G1 X64.209 Y125.917 E15.75618
G1 X62.451 Y123.059 E15.86778
G1 X62.124 Y122.333 E15.89427
G1 X61.59 Y119.264 E15.99788
G1 X61.553 Y118.402 E16.02657
G1 X61.772 Y117.307 E16.06371
G1 X61.662 Y116.791 E16.08126
G1 X61.662 Y108.771 E16.34801
G1 X61.444 Y108.23 E16.36741
G1 X61.118 Y107.251 E16.40173
G1 X60.85 Y106.219 E16.43719
G1 X60.623 Y104.97 E16.47941
G1 X60.493 Y103.526 E16.52763
G1 X60.482 Y101.755 E16.58654
G1 X60.673 Y99.625 E16.65767
G1 X61.075 Y97.81 E16.7195
G1 X61.753 Y96.274 E16.77534
G1 X62.479 Y94.895 E16.82717
G1 X63.171 Y93.798 E16.87031
G1 X63.688 Y93.106 E16.89904
G1 X64.441 Y92.273 E16.93639
G1 X64.445 Y34.574 E18.85547
G1 X64.506 Y33.498 E18.89131
G1 X64.915 Y31.283 E18.96623
G1 X65.426 Y29.815 E19.01793
G0 F6000 X65.785 Y29.992
G1 F1200 X66.379 Y28.784 E19.0627
G1 X67.484 Y27.148 E19.12836
G1 X68.221 Y26.313 E19.16541
G1 X70.125 Y24.717 E19.24804
G1 X71.315 Y24.008 E19.29411
G1 X72.944 Y23.303 E19.35315
G1 X73.715 Y23.068 E19.37996
G1 X76.213 Y22.676 E19.46406
G1 X76.921 Y22.66 E19.48761
G1 X157.348 Y22.667 E22.16262
G1 X158.815 Y22.779 E22.21156
G1 X160.623 Y23.161 E22.27302
G1 X161.82 Y23.579 E22.31519
G1 X163.367 Y24.35 E22.37268
G1 X164.654 Y25.219 E22.42433
G1 X165.642 Y26.081 E22.46794
G1 X167.167 Y27.86 E22.54588
G1 X167.643 Y28.607 E22.57534
G1 X168.517 Y30.429 E22.64255
G1 X168.992 Y31.943 E22.69532
G1 X169.244 Y33.36 E22.74319
G1 X169.34 Y34.859 E22.79315
G1 X169.34 Y101.64 E25.0143
G1 X170.42 Y102.943 E25.07059
G1 X171.752 Y105.615 E25.16989
G1 X172.278 Y107.895 E25.24771
G1 X172.487 Y111.154 E25.35633
G1 X172.261 Y113.185 E25.4243
G1 X171.671 Y115.501 E25.50379
G1 X170.367 Y118.009 E25.59781
G1 X169.34 Y119.227 E25.6508
G1 X169.34 Y132.333 E26.0867
G1 X169.702 Y132.604 E26.10174
G1 X170.692 Y133.502 E26.1462
G1 X171.367 Y134.262 E26.18001
G1 X171.959 Y135.042 E26.21258
G1 X172.584 Y136.016 E26.25107
G1 X173.051 Y136.905 E26.28447
G1 X173.756 Y138.558 E26.34424
G1 X174.163 Y141.124 E26.43065
G1 X174.189 Y142.038 E26.46106
G1 X174.133 Y143.165 E26.49859
G1 X174.095 Y143.506 E26.51001
G1 X173.852 Y144.788 E26.5534
G1 X173.588 Y145.743 E26.58636
G1 X173.479 Y146.064 E26.59763
G1 X172.925 Y147.347 E26.64411
G1 X172.458 Y148.217 E26.67696
G1 X172.293 Y148.485 E26.68742
G1 X171.498 Y149.585 E26.73257
G1 X171.217 Y149.921 E26.74713
G1 X170.32 Y150.847 E26.79001
G1 X169.869 Y151.24 E26.80991
G1 X169.34 Y151.633 E26.83183
G1 X169.322 Y196.112 E28.31121
G1 X169.228 Y197.279 E28.35015
G1 X168.925 Y198.783 E28.40117
G1 X168.357 Y200.433 E28.45921
G1 X167.633 Y201.863 E28.51252
G1 X166.872 Y202.992 E28.55781
G1 X165.504 Y204.512 E28.62582
G1 X164.398 Y205.43 E28.67363
G1 X163.31 Y206.142 E28.71688
G1 X161.408 Y207.033 E28.78674
G1 X159.865 Y207.487 E28.84023
G1 X158.083 Y207.761 E28.9002
G1 X157.197 Y207.792 E28.92968
G1 X76.566 Y207.776 E31.61148
G1 X75.36 Y207.686 E31.65171
G1 X73.884 Y207.396 E31.70174
G1 X72.622 Y206.99 E31.74583
G1 X70.655 Y206.026 E31.81869
G1 X69.455 Y205.19 E31.86733
G1 X68.07 Y203.917 E31.9299
G1 X67.195 Y202.859 E31.97556
G1 X66.428 Y201.676 E32.02245
G1 X65.537 Y199.718 E32.094
G1 X65.179 Y198.498 E32.13629
G1 X64.868 Y196.54 E32.20223
G1 X64.841 Y195.907 E32.2233
G1 X64.841 Y152.409 E33.67005
G1 X63.351 Y150.904 E33.74049
G1 X62.582 Y149.99 E33.78022
G1 X62.057 Y149.262 E33.81007
G1 X61.237 Y147.95 E33.86153
G1 X60.883 Y147.287 E33.88653
G1 X60.348 Y146.099 E33.92987
G1 X59.768 Y144.481 E33.98703
G1 X59.466 Y143.367 E34.02542
G1 X59.308 Y142.609 E34.05118
G1 X59.089 Y140.741 E34.11373
G1 X59.058 Y139.783 E34.14561
G1 X59.057 Y137.22 E34.23086
G1 X59.48 Y135.447 E34.29148
G1 X60.497 Y133.487 E34.36492
G1 X62.006 Y132.095 E34.43321
G1 X63.551 Y131.192 E34.49273
G1 X64.28 Y130.903 E34.51881
G1 X64.841 Y130.82 E34.53767
G1 X64.841 Y125.958 E34.69938
G1 X64.55 Y125.707 E34.71216
G1 X62.792 Y122.849 E34.82377
G1 X62.51 Y122.216 E34.84681
G1 X61.99 Y119.247 E34.94707
G1 X61.955 Y118.43 E34.97426
G1 X62.18 Y117.304 E35.01246
G1 X62.062 Y116.75 E35.0313
G1 X62.062 Y108.693 E35.29927
G1 X61.824 Y108.104 E35.3204
G1 X61.498 Y107.125 E35.35472
G1 X61.244 Y106.147 E35.38833
G1 X61.017 Y104.898 E35.43055
G1 X60.893 Y103.524 E35.47644
G1 X60.882 Y101.753 E35.53534
G1 X61.064 Y99.711 E35.60353
G1 X61.457 Y97.935 E35.66403
G1 X62.119 Y96.436 E35.71853
G1 X62.818 Y95.108 E35.76844
G1 X63.492 Y94.037 E35.81053
G1 X63.985 Y93.374 E35.83801
G1 X64.841 Y92.427 E35.88047
G1 X64.844 Y34.597 E37.8039
G1 X64.905 Y33.521 E37.83975
G1 X65.293 Y31.414 E37.91101
G1 X65.785 Y29.992 E37.96105
G0 F6000 X66.144 Y30.169
G1 F1200 X66.738 Y28.961 E38.00583
G1 X67.784 Y27.413 E38.06796
G1 X68.521 Y26.578 E38.10501
G1 X70.33 Y25.061 E38.18353
G1 X71.52 Y24.352 E38.2296
G1 X73.061 Y23.686 E38.28544
G1 X73.832 Y23.451 E38.31225
G1 X76.222 Y23.076 E38.39271
G1 X76.921 Y23.06 E38.41597
G1 X157.318 Y23.066 E41.08998
G1 X158.733 Y23.171 E41.13717
G1 X160.491 Y23.539 E41.19691
G1 X161.688 Y23.957 E41.23908
G1 X163.143 Y24.682 E41.29315
G1 X164.43 Y25.551 E41.3448
G1 X165.378 Y26.382 E41.38673
G1 X166.83 Y28.076 E41.46094
G1 X167.282 Y28.78 E41.48876
G1 X168.156 Y30.602 E41.55597
G1 X168.598 Y32.014 E41.60519
G1 X168.845 Y33.386 E41.65155
G1 X168.94 Y34.859 E41.70065
G1 X168.94 Y101.784 E43.92658
G1 X170.083 Y103.163 E43.98615
G1 X171.372 Y105.749 E44.08226
G1 X171.888 Y107.985 E44.15858
G1 X172.088 Y111.179 E44.26502
G1 X171.873 Y113.086 E44.32885
G1 X171.294 Y115.358 E44.40683
G1 X170.032 Y117.785 E44.49782
G1 X168.94 Y119.08 E44.55416
G1 X168.94 Y132.534 E45.00164
G1 X169.434 Y132.901 E45.02211
G1 X170.393 Y133.768 E45.06511
G1 X171.048 Y134.504 E45.09788
G1 X171.64 Y135.284 E45.13045
G1 X172.23 Y136.202 E45.16674
G1 X172.683 Y137.062 E45.19907
G1 X173.369 Y138.67 E45.25722
G1 X173.763 Y141.135 E45.34024
G1 X173.789 Y142.049 E45.37065
G1 X173.735 Y143.121 E45.40635
G1 X173.697 Y143.462 E45.41777
G1 X173.459 Y144.713 E45.46012
G1 X173.209 Y145.614 E45.49122
G1 X173.1 Y145.935 E45.5025
G1 X172.572 Y147.158 E45.5468
G1 X172.117 Y148.007 E45.57884
G1 X171.952 Y148.275 E45.58931
G1 X171.191 Y149.328 E45.63252
G1 X170.91 Y149.664 E45.64709
G1 X170.033 Y150.568 E45.68898
G1 X169.607 Y150.938 E45.70775
G1 X168.94 Y151.432 E45.73535
G1 X168.923 Y196.08 E47.22035
G1 X168.829 Y197.247 E47.25929
G1 X168.533 Y198.703 E47.30871
G1 X168 Y200.253 E47.36322
G1 X167.301 Y201.639 E47.41485
G1 X166.54 Y202.768 E47.46014
G1 X165.248 Y204.205 E47.52441
G1 X164.179 Y205.095 E47.57068
G1 X163.091 Y205.807 E47.61392
G1 X161.295 Y206.649 E47.6799
G1 X159.752 Y207.103 E47.73339
G1 X158.069 Y207.361 E47.79002
G1 X157.197 Y207.392 E47.81904
G1 X76.596 Y207.377 E50.49984
G1 X75.39 Y207.287 E50.54007
G1 X74.007 Y207.015 E50.58695
G1 X72.745 Y206.609 E50.63104
G1 X70.883 Y205.697 E50.7
G1 X69.725 Y204.895 E50.74685
G1 X68.378 Y203.662 E50.80759
G1 X67.531 Y202.641 E50.85171
G1 X66.764 Y201.458 E50.8986
G1 X65.921 Y199.605 E50.96631
G1 X65.563 Y198.385 E51.0086
G1 X65.268 Y196.523 E51.0713
G1 X65.241 Y195.89 E51.09238
G1 X65.241 Y152.244 E52.54405
G1 X63.657 Y150.646 E52.61888
G1 X62.888 Y149.732 E52.65861
G1 X62.396 Y149.05 E52.68658
G1 X61.59 Y147.761 E52.73715
G1 X61.248 Y147.122 E52.76125
G1 X60.725 Y145.964 E52.80351
G1 X60.145 Y144.346 E52.86068
G1 X59.858 Y143.285 E52.89724
G1 X59.7 Y142.527 E52.92299
G1 X59.489 Y140.728 E52.98324
G1 X59.458 Y139.783 E53.01468
G1 X59.457 Y137.267 E53.09837
G1 X59.858 Y135.587 E53.15581
G1 X60.82 Y133.733 E53.22529
G1 X62.244 Y132.42 E53.28971
G1 X63.699 Y131.564 E53.34586
G1 X64.384 Y131.292 E53.37037
G1 X65.241 Y131.165 E53.39918
G1 X65.241 Y125.756 E53.57909
G1 X64.89 Y125.497 E53.5936
G1 X63.157 Y122.686 E53.70343
G1 X62.896 Y122.099 E53.7248
G1 X62.39 Y119.23 E53.82169
G1 X62.357 Y118.458 E53.84739
G1 X62.588 Y117.301 E53.88664
G1 X62.462 Y116.709 E53.90677
G1 X62.462 Y108.614 E54.17601
G1 X62.204 Y107.978 E54.19883
G1 X61.878 Y106.999 E54.23315
G1 X61.638 Y106.075 E54.26491
G1 X61.411 Y104.826 E54.30713
G1 X61.293 Y103.522 E54.35068
G1 X61.282 Y101.751 E54.40958
G1 X61.455 Y99.797 E54.47483
G1 X61.839 Y98.06 E54.53399
G1 X62.485 Y96.598 E54.58716
G1 X63.172 Y95.294 E54.63618
G1 X63.813 Y94.276 E54.67619
G1 X64.306 Y93.613 E54.70367
G1 X65.241 Y92.581 E54.74999
G1 X65.243 Y34.62 E56.67778
G1 X65.304 Y33.544 E56.71362
G1 X65.671 Y31.544 E56.78125
G1 X66.144 Y30.169 E56.82962
G0 F6000 X66.503 Y30.346
G1 F1200 X67.097 Y29.138 E56.87439
G1 X68.084 Y27.678 E56.933
G1 X68.821 Y26.843 E56.97005
G1 X70.535 Y25.405 E57.04446
G1 X71.725 Y24.696 E57.09053
G1 X73.178 Y24.069 E57.14317
G1 X73.949 Y23.834 E57.16998
G1 X76.231 Y23.476 E57.2468
G1 X76.921 Y23.46 E57.26976
G1 X157.288 Y23.465 E59.94278
G1 X158.703 Y23.57 E59.98997
G1 X160.359 Y23.917 E60.04624
G1 X161.556 Y24.335 E60.08841
G1 X162.919 Y25.014 E60.13906
G1 X164.206 Y25.883 E60.19071
G1 X165.075 Y26.643 E60.22911
G1 X166.494 Y28.294 E60.30152
G1 X166.921 Y28.953 E60.32763
G1 X167.795 Y30.775 E60.39485
G1 X168.204 Y32.085 E60.44049
G1 X168.451 Y33.457 E60.48686
G1 X168.54 Y34.859 E60.53358
G1 X168.54 Y101.928 E62.76431
G1 X169.746 Y103.383 E62.82716
G1 X170.992 Y105.883 E62.92007
G1 X171.498 Y108.075 E62.99489
G1 X171.689 Y111.203 E63.09912
G1 X171.485 Y112.987 E63.15884
G1 X170.917 Y115.217 E63.23538
G1 X169.699 Y117.56 E63.32321
G1 X168.54 Y118.933 E63.38297
G1 X168.54 Y132.735 E63.84203
G1 X169.195 Y133.222 E63.86918
G1 X170.124 Y134.064 E63.91088
G1 X170.729 Y134.746 E63.9412
G1 X171.321 Y135.526 E63.97377
G1 X171.876 Y136.389 E64.0079
G1 X172.315 Y137.219 E64.03913
G1 X172.982 Y138.782 E64.09565
G1 X173.363 Y141.147 E64.17532
G1 X173.389 Y142.029 E64.20467
G1 X173.337 Y143.077 E64.23957
G1 X173.299 Y143.418 E64.25098
G1 X173.074 Y144.606 E64.2912
G1 X172.83 Y145.485 E64.32154
G1 X172.721 Y145.806 E64.33281
G1 X172.219 Y146.969 E64.37494
G1 X171.776 Y147.797 E64.40618
G1 X171.611 Y148.065 E64.41665
G1 X170.884 Y149.071 E64.45793
G1 X170.603 Y149.407 E64.4725
G1 X169.77 Y150.267 E64.51232
G1 X169.369 Y150.617 E64.53002
G1 X168.54 Y151.231 E64.56433
G1 X168.524 Y196.048 E66.05495
G1 X168.43 Y197.215 E66.09389
G1 X168.154 Y198.574 E66.14002
G1 X167.642 Y200.074 E66.19273
G1 X166.969 Y201.415 E66.24264
G1 X166.208 Y202.544 E66.28792
G1 X164.991 Y203.898 E66.34847
G1 X163.96 Y204.76 E66.39317
G1 X162.872 Y205.472 E66.43642
G1 X161.182 Y206.265 E66.49851
G1 X159.639 Y206.719 E66.552
G1 X158.055 Y206.961 E66.6053
G1 X157.197 Y206.992 E66.63385
G1 X76.626 Y206.978 E69.31366
G1 X75.42 Y206.888 E69.35388
G1 X74.13 Y206.634 E69.39761
G1 X72.868 Y206.228 E69.4417
G1 X71.11 Y205.368 E69.50679
G1 X69.994 Y204.599 E69.55187
G1 X68.685 Y203.406 E69.61078
G1 X67.867 Y202.423 E69.65331
G1 X67.1 Y201.24 E69.70021
G1 X66.305 Y199.492 E69.76407
G1 X65.947 Y198.272 E69.80636
G1 X65.668 Y196.506 E69.86583
G1 X65.641 Y195.873 E69.8869
G1 X65.641 Y152.048 E71.34453
G1 X65.409 Y151.845 E71.35478
G1 X63.963 Y150.388 E71.42305
G1 X63.194 Y149.474 E71.46278
G1 X62.735 Y148.838 E71.48887
G1 X61.943 Y147.572 E71.53854
G1 X61.601 Y146.933 E71.56264
G1 X61.09 Y145.8 E71.60398
G1 X60.531 Y144.242 E71.65904
G1 X60.25 Y143.203 E71.69484
G1 X60.092 Y142.445 E71.72059
G1 X59.889 Y140.715 E71.77852
G1 X59.858 Y139.783 E71.80954
G1 X59.857 Y137.314 E71.89166
G1 X60.236 Y135.727 E71.94593
G1 X61.143 Y133.979 E72.01143
G1 X62.482 Y132.744 E72.07201
G1 X63.902 Y131.909 E72.1268
G1 X64.488 Y131.681 E72.14772
G1 X65.641 Y131.51 E72.18648
G1 X65.641 Y125.554 E72.38458
G1 X65.19 Y125.221 E72.40323
G1 X63.498 Y122.476 E72.51048
G1 X63.282 Y121.983 E72.52838
G1 X62.79 Y119.213 E72.62195
G1 X62.759 Y118.486 E72.64615
G1 X62.996 Y117.298 E72.68645
G1 X62.862 Y116.668 E72.70787
G1 X62.862 Y108.535 E72.97837
G1 X62.575 Y107.828 E73.00375
G1 X62.265 Y106.898 E73.03636
G1 X62.032 Y106.003 E73.06712
G1 X61.805 Y104.754 E73.10934
G1 X61.693 Y103.52 E73.15055
G1 X61.682 Y101.749 E73.20946
G1 X61.846 Y99.883 E73.27176
G1 X62.221 Y98.185 E73.32959
G1 X62.851 Y96.76 E73.38142
G1 X63.511 Y95.507 E73.42852
G1 X64.134 Y94.515 E73.46748
G1 X64.627 Y93.852 E73.49496
G1 X65.641 Y92.736 E73.54511
G1 X65.642 Y34.642 E75.47733
G1 X65.698 Y33.615 E75.51153
G1 X66.05 Y31.673 E75.57718
G1 X66.503 Y30.346 E75.62381
