;FLAVOR:Marlin
;TIME:9810
;Filament used: 8.16101m
;Layer height: 0.2
;MINX:8.778
;MINY:20.114
;MINZ:0.2
;MAXX:167.821
;MAXY:208.135
;MAXZ:3.2
;TARGET_MACHINE.NAME:Creality Ender-3
;POSTPROCESSED
;Generated with Cura_SteamEngine 5.5.0
M140 S60
M105
M190 S60
M104 S220
M105
M109 S220
M82 ;absolute extrusion mode
; Ender 3 Custom Start G-code
G92 E0 ; Reset Extruder
G28 ; Home all axes
G1 Z2.0 F3000 ; Move Z Axis up little to prevent scratching of Heat Bed
G1 X0.1 Y20 Z0.3 F5000.0 ; Move to start position
G1 X0.1 Y200.0 Z0.3 F1500.0 E15 ; Draw the first line
G1 X0.4 Y200.0 Z0.3 F5000.0 ; Move to side a little
G1 X0.4 Y20 Z0.3 F1500.0 E30 ; Draw the second line
G92 E0 ; Reset Extruder
G1 Z2.0 F3000 ; Move Z Axis up little to prevent scratching of Heat Bed
G1 X5 Y20 Z0.3 F5000.0 ; Move over to prevent blob squish
G92 E0
G92 E0
G1 F2700 E-5
;LAYER_COUNT:16
;LAYER:0
M117 Printing Layer 0 of 15 Oyoyo_Plaque_multicolour_flat
M107
G0 F6000 X11.87 Y21.671 Z0.2
;TYPE:SKIRT
G1 F2700 E0
G1 F1200 X13.592 Y20.671 E0.06623
G1 X14.257 Y20.412 E0.08997
G1 X16 Y20.158 E0.14855
G1 X19.816 Y20.114 E0.27548
G1 X21.649 Y20.564 E0.33826
G1 X23.723 Y21.634 E0.41588
G1 X25.195 Y23.214 E0.4877
G1 X26.14 Y24.81 E0.54939
G1 X26.444 Y25.558 E0.57625
G1 X26.694 Y27.217 E0.63205
G1 X26.746 Y31.509 E0.77481
G1 X26.299 Y33.333 E0.83727
G1 X25.226 Y35.413 E0.91512
G1 X23.654 Y36.878 E0.98659
G1 X21.932 Y37.878 E1.05282
G1 X21.267 Y38.137 E1.07655
G1 X19.524 Y38.391 E1.13514
G1 X15.708 Y38.435 E1.26207
G1 X13.875 Y37.985 E1.32484
G1 X11.801 Y36.915 E1.40246
G1 X10.329 Y35.335 E1.47429
G1 X9.384 Y33.739 E1.53598
G1 X9.08 Y32.991 E1.56283
G1 X8.83 Y31.332 E1.61863
G1 X8.778 Y27.04 E1.7614
G1 X9.225 Y25.216 E1.82386
G1 X10.298 Y23.136 E1.9017
G1 X11.87 Y21.671 E1.97317
G0 F6000 X12.112 Y21.993
G1 F1200 X13.737 Y21.044 E2.03576
G1 X14.36 Y20.801 E2.058
G1 X16.005 Y20.558 E2.11331
G1 X19.772 Y20.515 E2.23861
G1 X21.508 Y20.941 E2.29806
G1 X23.475 Y21.956 E2.37168
G1 X24.873 Y23.455 E2.43986
G1 X25.769 Y24.961 E2.49814
G1 X26.055 Y25.665 E2.52341
G1 X26.298 Y27.277 E2.57764
G1 X26.345 Y31.461 E2.7168
G1 X25.92 Y33.196 E2.77622
G1 X24.904 Y35.165 E2.84991
G1 X23.412 Y36.556 E2.91776
G1 X21.787 Y37.505 E2.98035
G1 X21.164 Y37.748 E3.00259
G1 X19.519 Y37.991 E3.05789
G1 X15.752 Y38.034 E3.18319
G1 X14.016 Y37.608 E3.24265
G1 X12.049 Y36.593 E3.31626
G1 X10.651 Y35.094 E3.38444
G1 X9.755 Y33.588 E3.44272
G1 X9.469 Y32.884 E3.468
G1 X9.226 Y31.272 E3.52222
G1 X9.179 Y27.088 E3.66139
G1 X9.604 Y25.353 E3.7208
G1 X10.62 Y23.384 E3.79449
G1 X12.112 Y21.993 E3.86234
G0 F6000 X12.353 Y22.316
G1 F1200 X13.883 Y21.417 E3.92136
G1 X14.464 Y21.19 E3.94211
G1 X16.01 Y20.958 E3.9941
G1 X19.724 Y20.916 E4.11764
G1 X21.369 Y21.319 E4.17397
G1 X23.23 Y22.28 E4.24363
G1 X24.549 Y23.694 E4.30795
G1 X25.425 Y25.166 E4.36492
G1 X25.665 Y25.767 E4.38644
G1 X25.902 Y27.337 E4.43925
G1 X25.944 Y31.413 E4.57483
G1 X25.542 Y33.057 E4.63112
G1 X24.581 Y34.918 E4.70078
G1 X23.171 Y36.233 E4.76491
G1 X21.641 Y37.132 E4.82393
G1 X21.06 Y37.359 E4.84468
G1 X19.514 Y37.591 E4.89668
G1 X15.8 Y37.633 E5.02021
G1 X14.155 Y37.23 E5.07654
G1 X12.294 Y36.269 E5.14621
G1 X10.975 Y34.855 E5.21052
G1 X10.099 Y33.383 E5.26749
G1 X9.859 Y32.782 E5.28902
G1 X9.622 Y31.212 E5.34183
G1 X9.58 Y27.136 E5.4774
G1 X9.982 Y25.492 E5.53369
G1 X10.943 Y23.631 E5.60336
G1 X12.353 Y22.316 E5.66748
G0 F6000 X12.595 Y22.637
G1 F1200 X14.029 Y21.79 E5.72288
G1 X14.569 Y21.579 E5.74216
G1 X16.069 Y21.354 E5.79261
G1 X19.676 Y21.317 E5.91258
G1 X21.23 Y21.697 E5.96579
G1 X22.985 Y22.604 E6.0315
G1 X24.225 Y23.933 E6.09195
G1 X25.081 Y25.371 E6.14761
G1 X25.276 Y25.871 E6.16546
G1 X25.506 Y27.397 E6.21679
G1 X25.543 Y31.365 E6.34877
G1 X25.164 Y32.918 E6.40194
G1 X24.257 Y34.673 E6.46765
G1 X22.929 Y35.912 E6.52806
G1 X21.495 Y36.759 E6.58345
G1 X20.955 Y36.97 E6.60273
G1 X19.455 Y37.195 E6.65318
G1 X15.848 Y37.232 E6.77316
G1 X14.294 Y36.852 E6.82637
G1 X12.539 Y35.945 E6.89207
G1 X11.299 Y34.616 E6.95253
G1 X10.443 Y33.178 E7.00819
G1 X10.248 Y32.678 E7.02604
G1 X10.018 Y31.152 E7.07737
G1 X9.981 Y27.184 E7.20935
G1 X10.36 Y25.631 E7.26252
G1 X11.267 Y23.876 E7.32822
G1 X12.595 Y22.637 E7.38863
G0 F6000 X12.835 Y22.96
G1 F1200 X14.175 Y22.163 E7.44049
G1 X14.674 Y21.968 E7.45831
G1 X16.128 Y21.75 E7.50721
G1 X19.628 Y21.718 E7.62362
G1 X21.091 Y22.075 E7.67371
G1 X22.74 Y22.928 E7.73546
G1 X23.901 Y24.172 E7.79206
G1 X24.737 Y25.576 E7.8464
G1 X24.886 Y25.971 E7.86045
G1 X25.11 Y27.457 E7.91043
G1 X25.143 Y31.317 E8.03882
G1 X24.786 Y32.779 E8.08887
G1 X23.933 Y34.428 E8.15062
G1 X22.689 Y35.589 E8.20722
G1 X21.349 Y36.386 E8.25907
G1 X20.85 Y36.581 E8.27689
G1 X19.396 Y36.799 E8.32579
G1 X15.896 Y36.831 E8.44221
G1 X14.433 Y36.474 E8.4923
G1 X12.784 Y35.621 E8.55404
G1 X11.623 Y34.377 E8.61064
G1 X10.787 Y32.973 E8.66499
G1 X10.638 Y32.578 E8.67903
G1 X10.414 Y31.092 E8.72901
G1 X10.381 Y27.232 E8.8574
G1 X10.738 Y25.77 E8.90746
G1 X11.591 Y24.121 E8.96921
G1 X12.835 Y22.96 E9.0258
G0 F6000 X13.074 Y23.284
G1 F1200 X14.38 Y22.507 E9.07635
G1 X14.775 Y22.358 E9.09039
G1 X16.187 Y22.146 E9.13788
G1 X19.58 Y22.118 E9.25073
G1 X20.952 Y22.453 E9.29771
G1 X22.495 Y23.252 E9.3555
G1 X23.577 Y24.411 E9.40824
G1 X24.393 Y25.781 E9.46127
G1 X24.496 Y26.07 E9.47148
G1 X24.714 Y27.517 E9.52015
G1 X24.743 Y31.269 E9.64494
G1 X24.408 Y32.64 E9.69188
G1 X23.609 Y34.183 E9.74968
G1 X22.45 Y35.265 E9.80241
G1 X21.144 Y36.042 E9.85296
G1 X20.749 Y36.191 E9.867
G1 X19.337 Y36.403 E9.91449
G1 X15.944 Y36.431 E10.02734
G1 X14.572 Y36.096 E10.07432
G1 X13.029 Y35.297 E10.13211
G1 X11.947 Y34.138 E10.18485
G1 X11.131 Y32.768 E10.23788
G1 X11.028 Y32.479 E10.24809
G1 X10.81 Y31.032 E10.29676
G1 X10.781 Y27.28 E10.42155
G1 X11.116 Y25.909 E10.46849
G1 X11.915 Y24.366 E10.52629
G1 X13.074 Y23.284 E10.57902
G0 F6000 X13.313 Y23.608
G1 F1200 X14.585 Y22.851 E10.62825
G1 X14.875 Y22.748 E10.63849
G1 X16.246 Y22.542 E10.6846
G1 X19.532 Y22.518 E10.7939
G1 X20.813 Y22.831 E10.83776
G1 X22.25 Y23.575 E10.89158
G1 X23.253 Y24.65 E10.94048
G1 X24.049 Y25.986 E10.9922
G1 X24.1 Y26.13 E10.99728
G1 X24.318 Y27.577 E11.04596
G1 X24.343 Y31.221 E11.16716
G1 X24.03 Y32.501 E11.21099
G1 X23.286 Y33.938 E11.26481
G1 X22.211 Y34.941 E11.31371
G1 X20.939 Y35.698 E11.36294
G1 X20.649 Y35.801 E11.37317
G1 X19.278 Y36.007 E11.41929
G1 X15.992 Y36.031 E11.52858
G1 X14.711 Y35.718 E11.57244
G1 X13.274 Y34.974 E11.62626
G1 X12.271 Y33.899 E11.67516
G1 X11.475 Y32.563 E11.72689
G1 X11.424 Y32.419 E11.73197
G1 X11.206 Y30.972 E11.78064
G1 X11.181 Y27.328 E11.90184
G1 X11.494 Y26.048 E11.94567
G1 X12.238 Y24.611 E11.99949
G1 X13.313 Y23.608 E12.04839
G0 F6000 X13.555 Y23.93
G1 F1200 X14.79 Y23.195 E12.09619
G1 X14.934 Y23.144 E12.10127
G1 X16.305 Y22.938 E12.14738
G1 X19.484 Y22.918 E12.25312
G1 X20.674 Y23.209 E12.29387
G1 X22.003 Y23.897 E12.34364
G1 X22.931 Y24.892 E12.38889
G1 X23.705 Y26.191 E12.43919
G1 X23.918 Y27.58 E12.48593
G1 X23.943 Y31.172 E12.6054
G1 X23.652 Y32.362 E12.64614
G1 X22.964 Y33.691 E12.69592
G1 X21.969 Y34.619 E12.74117
G1 X20.734 Y35.354 E12.78897
G1 X20.59 Y35.405 E12.79405
G1 X19.219 Y35.611 E12.84017
G1 X16.04 Y35.631 E12.9459
G1 X14.85 Y35.34 E12.98665
G1 X13.521 Y34.652 E13.03642
G1 X12.593 Y33.657 E13.08168
G1 X11.819 Y32.358 E13.13197
G1 X11.606 Y30.969 E13.17871
G1 X11.581 Y27.377 E13.29818
G1 X11.872 Y26.187 E13.33893
G1 X12.56 Y24.858 E13.3887
G1 X13.555 Y23.93 E13.43395
G0 F6000 X13.797 Y24.252
G1 F1200 X14.995 Y23.539 E13.48032
G1 X16.308 Y23.338 E13.5245
G1 X19.435 Y23.318 E13.62851
G1 X20.535 Y23.587 E13.66617
G1 X21.756 Y24.219 E13.7119
G1 X22.609 Y25.134 E13.75351
G1 X23.322 Y26.33 E13.79982
G1 X23.518 Y27.583 E13.842
G1 X23.543 Y31.123 E13.95974
G1 X23.274 Y32.223 E13.99741
G1 X22.642 Y33.444 E14.04314
G1 X21.727 Y34.297 E14.08474
G1 X20.529 Y35.01 E14.13111
G1 X19.216 Y35.211 E14.17529
G1 X16.089 Y35.231 E14.2793
G1 X14.989 Y34.962 E14.31696
G1 X13.768 Y34.33 E14.36269
G1 X12.915 Y33.415 E14.4043
G1 X12.202 Y32.219 E14.45061
G1 X12.006 Y30.966 E14.49279
G1 X11.981 Y27.426 E14.61053
G1 X12.25 Y26.326 E14.6482
G1 X12.882 Y25.105 E14.69393
G1 X13.797 Y24.252 E14.73553
G0 F6000 X14.039 Y24.574
G1 F1200 X15.134 Y23.922 E14.77792
G1 X16.311 Y23.738 E14.81754
G1 X19.386 Y23.718 E14.91982
G1 X20.396 Y23.965 E14.9544
G1 X21.509 Y24.541 E14.99608
G1 X22.287 Y25.376 E15.03404
G1 X22.939 Y26.47 E15.0764
G1 X23.118 Y27.586 E15.11399
G1 X23.143 Y31.074 E15.23001
G1 X22.896 Y32.084 E15.26459
G1 X22.32 Y33.197 E15.30627
G1 X21.485 Y33.975 E15.34423
G1 X20.39 Y34.627 E15.38662
G1 X19.213 Y34.811 E15.42624
G1 X16.138 Y34.831 E15.52852
G1 X15.128 Y34.584 E15.5631
G1 X14.015 Y34.008 E15.60478
G1 X13.237 Y33.173 E15.64274
G1 X12.585 Y32.079 E15.6851
G1 X12.406 Y30.963 E15.72269
G1 X12.381 Y27.475 E15.83871
G1 X12.628 Y26.465 E15.87329
G1 X13.204 Y25.352 E15.91497
G1 X14.039 Y24.574 E15.95293
G0 F6000 X14.281 Y24.896
G1 F1200 X15.273 Y24.305 E15.99134
G1 X16.314 Y24.138 E16.0264
G1 X19.337 Y24.118 E16.12695
G1 X20.257 Y24.343 E16.15845
G1 X21.262 Y24.863 E16.19609
G1 X21.965 Y25.618 E16.2304
G1 X22.556 Y26.609 E16.26878
G1 X22.718 Y27.589 E16.30181
G1 X22.743 Y31.025 E16.4161
G1 X22.518 Y31.945 E16.4476
G1 X21.998 Y32.95 E16.48524
G1 X21.243 Y33.653 E16.51955
G1 X20.251 Y34.244 E16.55795
G1 X19.21 Y34.411 E16.59302
G1 X16.187 Y34.431 E16.69357
G1 X15.267 Y34.206 E16.72507
G1 X14.262 Y33.686 E16.7627
G1 X13.559 Y32.931 E16.79702
G1 X12.968 Y31.94 E16.83539
G1 X12.806 Y30.96 E16.86843
G1 X12.781 Y27.524 E16.98272
G1 X13.006 Y26.604 E17.01422
G1 X13.526 Y25.599 E17.05185
G1 X14.281 Y24.896 E17.08616
G0 F6000 X14.52 Y25.22
G1 F1200 X15.412 Y24.688 E17.12071
G1 X16.317 Y24.538 E17.15122
G1 X19.288 Y24.518 E17.25004
G1 X20.118 Y24.721 E17.27846
G1 X21.017 Y25.186 E17.31212
G1 X21.641 Y25.857 E17.3426
G1 X22.173 Y26.749 E17.37714
G1 X22.323 Y27.654 E17.40765
G1 X22.343 Y30.976 E17.51814
G1 X22.14 Y31.806 E17.54656
G1 X21.675 Y32.705 E17.58023
G1 X21.004 Y33.329 E17.6107
G1 X20.112 Y33.861 E17.64525
G1 X19.207 Y34.011 E17.67576
G1 X16.236 Y34.031 E17.77458
G1 X15.406 Y33.828 E17.803
G1 X14.507 Y33.363 E17.83666
G1 X13.883 Y32.692 E17.86714
G1 X13.351 Y31.8 E17.90168
G1 X13.201 Y30.895 E17.93219
G1 X13.181 Y27.573 E18.04268
G1 X13.384 Y26.743 E18.0711
G1 X13.849 Y25.844 E18.10477
G1 X14.52 Y25.22 E18.13524
G0 F6000 X14.759 Y25.544
G1 F1200 X15.552 Y25.071 E18.16596
G1 X16.383 Y24.933 E18.19397
G1 X19.239 Y24.918 E18.28897
G1 X19.979 Y25.099 E18.3143
G1 X20.772 Y25.509 E18.344
G1 X21.317 Y26.096 E18.37064
G1 X21.79 Y26.889 E18.40135
G1 X21.928 Y27.72 E18.42937
G1 X21.943 Y30.927 E18.53603
G1 X21.762 Y31.667 E18.56137
G1 X21.352 Y32.46 E18.59106
G1 X20.765 Y33.005 E18.6177
G1 X19.972 Y33.478 E18.64841
G1 X19.141 Y33.616 E18.67643
G1 X16.285 Y33.631 E18.77142
G1 X15.545 Y33.45 E18.79676
G1 X14.752 Y33.04 E18.82645
G1 X14.207 Y32.453 E18.85309
G1 X13.734 Y31.66 E18.88381
G1 X13.596 Y30.829 E18.91182
G1 X13.581 Y27.622 E19.01849
G1 X13.762 Y26.882 E19.04383
G1 X14.172 Y26.089 E19.07352
G1 X14.759 Y25.544 E19.10016
G0 F6000 X14.998 Y25.868
G1 F1200 X15.692 Y25.454 E19.12704
G1 X16.449 Y25.328 E19.15256
G1 X19.19 Y25.318 E19.24373
G1 X19.84 Y25.477 E19.26599
G1 X20.527 Y25.832 E19.29171
G1 X20.993 Y26.335 E19.31451
G1 X21.407 Y27.029 E19.34139
G1 X21.533 Y27.786 E19.36691
G1 X21.543 Y30.878 E19.46976
G1 X21.384 Y31.528 E19.49201
G1 X21.029 Y32.215 E19.51773
G1 X20.526 Y32.681 E19.54054
G1 X19.832 Y33.095 E19.56742
G1 X19.075 Y33.221 E19.59294
G1 X16.334 Y33.231 E19.68411
G1 X15.684 Y33.072 E19.70636
G1 X14.997 Y32.717 E19.73208
G1 X14.531 Y32.214 E19.75489
G1 X14.117 Y31.52 E19.78177
G1 X13.991 Y30.763 E19.80729
G1 X13.981 Y27.671 E19.91013
G1 X14.14 Y27.021 E19.93239
G1 X14.495 Y26.334 E19.95811
G1 X14.998 Y25.868 E19.98091
G0 F6000 X15.237 Y26.192
G1 F1200 X15.832 Y25.837 E20.00396
G1 X16.515 Y25.723 E20.02699
G1 X19.141 Y25.718 E20.11433
G1 X19.701 Y25.855 E20.13351
G1 X20.281 Y26.155 E20.15522
G1 X20.669 Y26.574 E20.17422
G1 X21.024 Y27.169 E20.19726
G1 X21.138 Y27.852 E20.22029
G1 X21.143 Y30.829 E20.31931
G1 X21.006 Y31.389 E20.33848
G1 X20.706 Y31.969 E20.3602
G1 X20.287 Y32.357 E20.3792
G1 X19.692 Y32.712 E20.40224
G1 X19.009 Y32.826 E20.42527
G1 X16.383 Y32.831 E20.51261
G1 X15.823 Y32.694 E20.53179
G1 X15.243 Y32.394 E20.55351
G1 X14.855 Y31.975 E20.5725
G1 X14.5 Y31.38 E20.59554
G1 X14.386 Y30.697 E20.61858
G1 X14.381 Y27.72 E20.71759
G1 X14.518 Y27.16 E20.73677
G1 X14.818 Y26.58 E20.75848
G1 X15.237 Y26.192 E20.77748
G0 F6000 X15.97 Y26.22
G1 F1200 X16.581 Y26.118 E20.79808
G1 X19.091 Y26.118 E20.88156
G1 X19.562 Y26.233 E20.89769
G1 X20.035 Y26.478 E20.91541
G1 X20.348 Y26.816 E20.93073
G1 X20.641 Y27.307 E20.94975
G1 X20.743 Y27.918 E20.97035
G1 X20.743 Y30.779 E21.06551
G1 X20.628 Y31.25 E21.08163
G1 X20.383 Y31.723 E21.09935
G1 X20.045 Y32.036 E21.11467
G1 X19.554 Y32.329 E21.13369
G1 X18.943 Y32.431 E21.15429
G1 X16.433 Y32.431 E21.23777
G1 X15.962 Y32.316 E21.2539
G1 X15.489 Y32.071 E21.27162
G1 X15.176 Y31.733 E21.28694
G1 X14.883 Y31.242 E21.30596
G1 X14.781 Y30.631 E21.32656
G1 X14.781 Y27.77 E21.42172
G1 X14.896 Y27.299 E21.43784
G1 X15.141 Y26.826 E21.45556
G1 X15.479 Y26.513 E21.47088
G1 X15.97 Y26.22 E21.4899
G0 F6000 X16.108 Y26.603
G1 F1200 X15.721 Y26.834 E21.50489
G1 X15.464 Y27.072 E21.51654
G1 X15.274 Y27.438 E21.53026
G1 X15.181 Y27.82 E21.54333
G1 X15.181 Y30.631 E21.63683
G1 X15.266 Y31.104 E21.65281
G1 X15.497 Y31.491 E21.6678
G1 X15.735 Y31.748 E21.67945
G1 X16.101 Y31.938 E21.69317
G1 X16.483 Y32.031 E21.70624
G1 X18.943 Y32.031 E21.78806
G1 X19.416 Y31.946 E21.80405
G1 X19.803 Y31.715 E21.81904
G1 X20.06 Y31.477 E21.83069
G1 X20.25 Y31.111 E21.8444
G1 X20.343 Y30.729 E21.85748
G1 X20.343 Y27.918 E21.95097
G1 X20.258 Y27.445 E21.96696
G1 X20.027 Y27.058 E21.98195
G1 X19.789 Y26.801 E21.9936
G1 X19.423 Y26.611 E22.00731
G1 X19.041 Y26.518 E22.02039
G1 X16.581 Y26.518 E22.10221
G1 X16.108 Y26.603 E22.11819
G0 F6000 X16.253 Y26.983
G1 F1200 X16.581 Y26.918 E22.12932
G1 X18.992 Y26.918 E22.20951
G1 X19.281 Y26.988 E22.2194
G1 X19.544 Y27.125 E22.22926
G1 X19.683 Y27.263 E22.23577
G1 X19.878 Y27.59 E22.24844
G1 X19.943 Y27.918 E22.25956
G1 X19.943 Y30.68 E22.35142
G1 X19.873 Y30.969 E22.36131
G1 X19.736 Y31.232 E22.37118
G1 X19.598 Y31.371 E22.37769
G1 X19.271 Y31.566 E22.39035
G1 X18.943 Y31.631 E22.40148
G1 X16.532 Y31.631 E22.48167
G1 X16.243 Y31.561 E22.49156
G1 X15.98 Y31.424 E22.50142
G1 X15.841 Y31.286 E22.50793
G1 X15.646 Y30.959 E22.5206
G1 X15.581 Y30.631 E22.53172
G1 X15.581 Y27.869 E22.62358
G1 X15.651 Y27.58 E22.63347
G1 X15.788 Y27.317 E22.64334
G1 X15.926 Y27.178 E22.64985
G1 X16.253 Y26.983 E22.66251
G0 F6000 X16.42 Y27.799
G1 F1200 X16.581 Y27.718 E22.66851
G1 X18.943 Y27.718 E22.74707
G1 X19.062 Y27.757 E22.75123
G1 X19.143 Y27.918 E22.75723
G1 X19.143 Y30.631 E22.84746
G1 X19.104 Y30.75 E22.85163
G1 X18.943 Y30.831 E22.85762
G1 X16.581 Y30.831 E22.93618
G1 X16.462 Y30.792 E22.94035
G1 X16.381 Y30.631 E22.94634
G1 X16.381 Y27.918 E23.03658
G1 X16.42 Y27.799 E23.04074
G0 F6000 X16.401 Y27.361
G1 F1200 X16.581 Y27.318 E23.0469
G1 X18.943 Y27.318 E23.12546
G1 X19.187 Y27.377 E23.13381
G1 X19.339 Y27.468 E23.1397
G1 X19.5 Y27.738 E23.15016
G1 X19.543 Y27.918 E23.15631
G1 X19.543 Y30.631 E23.24655
G1 X19.484 Y30.875 E23.25489
G1 X19.393 Y31.027 E23.26079
G1 X19.123 Y31.188 E23.27124
G1 X18.943 Y31.231 E23.2774
G1 X16.581 Y31.231 E23.35596
G1 X16.337 Y31.172 E23.36431
G1 X16.185 Y31.081 E23.3702
G1 X16.024 Y30.811 E23.38066
G1 X15.981 Y30.631 E23.38681
G1 X15.981 Y27.918 E23.47705
G1 X16.04 Y27.674 E23.48539
G1 X16.131 Y27.522 E23.49129
G1 X16.401 Y27.361 E23.50174
G1 F2700 E18.50174
G0 F6000 X16.401 Y27.253
G0 X19.596 Y27.265
G0 X62.143 Y33.658
G1 F2700 E23.50174
G1 F1200 X62.638 Y30.826 E23.59736
G1 X62.962 Y29.874 E23.63081
G1 X63.864 Y28.013 E23.69959
G1 X64.67 Y26.817 E23.74756
G1 X66.227 Y25.096 E23.82475
G1 X67.342 Y24.186 E23.87262
G1 X68.443 Y23.48 E23.91612
G1 X70.692 Y22.455 E23.99833
G1 X71.375 Y22.247 E24.02207
G1 X74.098 Y21.82 E24.11375
G1 X74.854 Y21.806 E24.1389
