;FLAVOR:Marlin
;TIME:18454
;Filament used: 15.0755m
;Layer height: 0.2
;MINX:7.887
;MINY:28.118
;MINZ:0.2
;MAXX:227.403
;MAXY:199.204
;MAXZ:3.2
;TARGET_MACHINE.NAME:Creality Ender-3
;POSTPROCESSED
;Generated with Cura_SteamEngine 5.5.0
M140 S60
M105
M190 S60
M104 S220
M105
M109 S220
M82 ;absolute extrusion mode
; Ender 3 Custom Start G-code
G92 E0 ; Reset Extruder
G28 ; Home all axes
G1 Z2.0 F3000 ; Move Z Axis up little to prevent scratching of Heat Bed
G1 X0.1 Y20 Z0.3 F5000.0 ; Move to start position
G1 X0.1 Y200.0 Z0.3 F1500.0 E15 ; Draw the first line
G1 X0.4 Y200.0 Z0.3 F5000.0 ; Move to side a little
G1 X0.4 Y20 Z0.3 F1500.0 E30 ; Draw the second line
G92 E0 ; Reset Extruder
G1 Z2.0 F3000 ; Move Z Axis up little to prevent scratching of Heat Bed
G1 X5 Y20 Z0.3 F5000.0 ; Move over to prevent blob squish
G92 E0
G92 E0
G1 F2700 E-5
;LAYER_COUNT:16
;LAYER:0
M117 Printing Layer 0 of 15 Oyoyo_Plaque_multicolour_flat_sale_3
M107
;MESH:rectPurge.stl
G0 F6000 X18.343 Y30.031 Z0.2
;TYPE:WALL-INNER
G1 F2700 E0
G1 F1200 X18.343 Y28.518 E0.05032
G1 X17.181 Y28.518 E0.08897
G1 X17.181 Y30.031 E0.13929
G1 X18.343 Y30.031 E0.17794
G0 F6000 X18.743 Y30.431
;TYPE:WALL-OUTER
G1 F1200 X18.743 Y28.118 E0.25487
G1 X16.781 Y28.118 E0.32013
G1 X16.781 Y30.431 E0.39706
G1 X18.743 Y30.431 E0.46232
G0 F6000 X18.473 Y30.161
G0 X18.243 Y29.661
G0 X17.973 Y29.661
;TYPE:SKIN
G1 F1140.1 X17.551 Y29.661 E0.47709
G1 X17.551 Y28.888 E0.50415
G1 X17.973 Y28.888 E0.51892
G1 X17.973 Y29.661 E0.54598
G1 F2700 E-4.45402
;MESH:oyoyo_plaque_moveholes_v4_multicolour.stl
G0 F6000 X18.243 Y29.661
G0 X18.529 Y30.217
G0 X44.235 Y86.125
G0 X46.887 Y90.646
;TYPE:WALL-INNER
G1 F2700 E0.54598
G1 F1200 X46.275 Y90.907 E0.56811
G1 X45.614 Y90.992 E0.59028
G1 X44.977 Y90.911 E0.61163
G1 X44.356 Y90.658 E0.63394
G1 X43.821 Y90.242 E0.65648
G1 X43.428 Y89.726 E0.67805
G1 X43.168 Y89.115 E0.70014
G1 X43.084 Y88.471 E0.72174
G1 X43.168 Y87.807 E0.744
G1 X43.419 Y87.21 E0.76554
G1 X43.823 Y86.67 E0.78797
G1 X44.352 Y86.27 E0.81003
G1 X44.963 Y86.011 E0.8321
G1 X45.616 Y85.929 E0.85399
G1 X46.273 Y86.013 E0.87602
G1 X46.884 Y86.268 E0.89804
G1 X47.408 Y86.67 E0.92
G1 X47.813 Y87.198 E0.94214
G1 X48.065 Y87.81 E0.96415
G1 X48.144 Y88.46 E0.98593
G1 X48.066 Y89.106 E1.00757
G1 X47.813 Y89.72 E1.02966
G1 X47.405 Y90.251 E1.05193
G1 X46.887 Y90.646 E1.0736
G1 F2700 E-3.9264
G0 F6000 X47.136 Y90.587
G0 X46.326 Y91.081
G0 X45.793 Y164.27
G0 X47.133 Y168.89
G1 F2700 E1.0736
G1 F1200 X46.591 Y169.342 E1.09707
G1 X45.942 Y169.634 E1.12074
G1 X45.257 Y169.752 E1.14386
G1 X44.558 Y169.689 E1.1672
G1 X43.895 Y169.438 E1.19078
G1 X43.339 Y169.054 E1.21325
G1 X42.882 Y168.509 E1.23691
G1 X42.587 Y167.871 E1.26029
G1 X42.467 Y167.181 E1.28358
G1 X42.534 Y166.465 E1.3075
G1 X42.777 Y165.821 E1.3304
G1 X43.17 Y165.249 E1.35348
G1 X43.712 Y164.795 E1.37699
G1 X44.35 Y164.501 E1.40036
G1 X45.038 Y164.382 E1.42358
G1 X45.747 Y164.446 E1.44726
G1 X46.396 Y164.683 E1.47024
G1 X46.972 Y165.086 E1.49362
G1 X47.424 Y165.624 E1.51699
G1 X47.718 Y166.259 E1.54026
G1 X47.839 Y166.943 E1.56337
G1 X47.774 Y167.663 E1.58741
G1 X47.543 Y168.289 E1.60961
G1 X47.133 Y168.89 E1.6338
G1 F2700 E-3.3662
G0 F6000 X78.243 Y197.311
G0 X79.054 Y196.945
G1 F2700 E1.6338
G1 F1200 X79.342 Y196.616 E1.64835
G1 X79.595 Y196.233 E1.66361
G1 X79.787 Y195.837 E1.67825
G1 X79.926 Y195.41 E1.69319
G1 X80.004 Y194.982 E1.70766
G1 X80.03 Y194.497 E1.72381
G1 X80.03 Y65.944 E5.9995
G1 X80.004 Y65.477 E6.01506
G1 X79.924 Y65.051 E6.02947
G1 X79.782 Y64.614 E6.04476
G1 X79.595 Y64.232 E6.0589
G1 X79.34 Y63.847 E6.07426
G1 X79.05 Y63.516 E6.0889
G1 X78.719 Y63.226 E6.10354
G1 X78.334 Y62.971 E6.11889
G1 X77.952 Y62.784 E6.13304
G1 X77.515 Y62.642 E6.14832
G1 X77.09 Y62.563 E6.1627
G1 X76.605 Y62.536 E6.17886
G1 X12.545 Y62.537 E8.3095
G1 X12.08 Y62.548 E8.32497
G1 X11.639 Y62.62 E8.33983
G1 X11.199 Y62.756 E8.35515
G1 X10.806 Y62.941 E8.3696
G1 X10.432 Y63.185 E8.38445
G1 X10.095 Y63.48 E8.39935
G1 X9.8 Y63.817 E8.41424
G1 X9.556 Y64.191 E8.4291
G1 X9.371 Y64.584 E8.44354
G1 X9.235 Y65.025 E8.45889
G1 X9.164 Y65.462 E8.47362
G1 X9.151 Y65.948 E8.48979
G1 X9.154 Y194.59 E12.76844
G1 X9.172 Y194.989 E12.78172
G1 X9.247 Y195.412 E12.79601
G1 X9.388 Y195.844 E12.81113
G1 X9.578 Y196.242 E12.82579
G1 X9.828 Y196.62 E12.84087
G1 X10.122 Y196.958 E12.85577
G1 X10.444 Y197.24 E12.87
G1 X10.824 Y197.489 E12.88511
G1 X11.233 Y197.685 E12.9002
G1 X11.66 Y197.824 E12.91513
G1 X12.082 Y197.899 E12.92939
G1 X12.572 Y197.921 E12.9457
G1 X76.606 Y197.921 E15.07548
G1 X77.091 Y197.895 E15.09164
G1 X77.519 Y197.817 E15.10611
G1 X77.946 Y197.678 E15.12104
G1 X78.343 Y197.485 E15.13572
G1 X78.725 Y197.233 E15.15095
G1 X79.054 Y196.945 E15.16549
G0 F6000 X79.338 Y197.229
;TYPE:WALL-OUTER
G1 F1200 X79.661 Y196.859 E15.18182
G1 X79.943 Y196.431 E15.19887
G1 X80.159 Y195.987 E15.21529
G1 X80.315 Y195.508 E15.23205
G1 X80.402 Y195.028 E15.24827
G1 X80.43 Y194.507 E15.26563
G1 X80.43 Y65.933 E19.54202
G1 X80.402 Y65.429 E19.55881
G1 X80.312 Y64.952 E19.57495
G1 X80.154 Y64.464 E19.59201
G1 X79.943 Y64.033 E19.60797
G1 X79.659 Y63.604 E19.62508
G1 X79.334 Y63.232 E19.64151
G1 X78.962 Y62.907 E19.65794
G1 X78.533 Y62.623 E19.67505
G1 X78.102 Y62.412 E19.69102
G1 X77.614 Y62.254 E19.70808
G1 X77.138 Y62.165 E19.72418
G1 X76.616 Y62.136 E19.74157
G1 X12.545 Y62.137 E21.87258
G1 X12.043 Y62.149 E21.88928
G1 X11.547 Y62.23 E21.906
G1 X11.054 Y62.382 E21.92316
G1 X10.611 Y62.591 E21.93945
G1 X10.19 Y62.865 E21.95616
G1 X9.811 Y63.196 E21.97289
G1 X9.48 Y63.575 E21.98963
G1 X9.206 Y63.996 E22.00633
G1 X8.997 Y64.439 E22.02263
G1 X8.845 Y64.933 E22.03982
G1 X8.764 Y65.424 E22.05637
G1 X8.751 Y65.943 E22.07364
G1 X8.754 Y194.608 E26.35305
G1 X8.774 Y195.033 E26.3672
G1 X8.858 Y195.509 E26.38328
G1 X9.016 Y195.993 E26.40021
G1 X9.229 Y196.44 E26.41668
G1 X9.509 Y196.863 E26.43355
G1 X9.838 Y197.241 E26.45022
G1 X10.202 Y197.559 E26.4663
G1 X10.627 Y197.838 E26.48321
G1 X11.084 Y198.057 E26.50006
G1 X11.563 Y198.213 E26.51682
G1 X12.038 Y198.297 E26.53286
G1 X12.563 Y198.321 E26.55034
G1 X76.616 Y198.321 E28.68075
G1 X77.137 Y198.293 E28.69811
G1 X77.617 Y198.206 E28.71433
G1 X78.096 Y198.05 E28.73109
G1 X78.541 Y197.833 E28.74755
G1 X78.968 Y197.552 E28.76455
G1 X79.338 Y197.229 E28.78089
G1 F2700 E23.78089
G0 F6000 X78.99 Y196.866
G0 X78.243 Y197.311
G0 X47.264 Y169.016
G0 X46.837 Y168.614
G1 F2700 E28.78089
G1 F1200 X46.39 Y168.989 E28.8003
G1 X45.842 Y169.246 E28.82043
G1 X45.256 Y169.349 E28.84022
G1 X44.658 Y169.297 E28.86018
G1 X44.099 Y169.093 E28.87997
G1 X43.598 Y168.742 E28.90032
G1 X43.223 Y168.292 E28.9198
G1 X42.976 Y167.759 E28.93934
G1 X42.869 Y167.166 E28.95938
G1 X42.925 Y166.566 E28.97942
G1 X43.135 Y165.999 E28.99954
G1 X43.473 Y165.518 E29.01909
G1 X43.931 Y165.135 E29.03895
G1 X44.475 Y164.885 E29.05886
G1 X45.082 Y164.786 E29.07931
G1 X45.65 Y164.838 E29.09828
G1 X46.225 Y165.051 E29.11868
G1 X46.702 Y165.386 E29.13807
G1 X47.085 Y165.844 E29.15792
G1 X47.332 Y166.377 E29.17746
G1 X47.436 Y166.978 E29.19775
G1 X47.382 Y167.568 E29.21745
G1 X47.181 Y168.119 E29.23696
G1 X46.837 Y168.614 E29.25701
G1 F2700 E24.25701
G0 F6000 X47.158 Y168.999
G0 X47.62 Y167.619
G0 X47.678 Y166.964
G0 X47.566 Y166.314
G0 X47.288 Y165.714
G0 X47.048 Y165.427
G0 X45.793 Y164.27
G0 X46.326 Y91.081
G0 X46.695 Y90.294
G1 F2700 E29.25701
G1 F1200 X46.162 Y90.518 E29.27624
G1 X45.6 Y90.587 E29.29507
G1 X45.062 Y90.516 E29.31312
G1 X44.548 Y90.301 E29.33165
G1 X44.109 Y89.964 E29.35006
G1 X43.766 Y89.51 E29.36899
G1 X43.559 Y89.009 E29.38702
G1 X43.489 Y88.442 E29.40602
G1 X43.559 Y87.911 E29.42383
G1 X43.771 Y87.4 E29.44223
G1 X44.1 Y86.966 E29.46035
G1 X44.564 Y86.61 E29.4798
G1 X45.083 Y86.399 E29.49843
G1 X45.603 Y86.333 E29.51586
G1 X46.179 Y86.407 E29.53518
G1 X46.691 Y86.623 E29.55366
G1 X47.118 Y86.952 E29.57159
G1 X47.461 Y87.398 E29.59031
G1 X47.673 Y87.91 E29.60874
G1 X47.744 Y88.46 E29.62718
G1 X47.673 Y89.01 E29.64563
G1 X47.464 Y89.516 E29.66383
G1 X47.127 Y89.959 E29.68235
G1 X46.695 Y90.294 E29.70053
G1 F2700 E24.70053
G0 F6000 X46.877 Y90.532
G0 X46.326 Y91.081
G0 X79.421 Y196.134
G0 X78.798 Y196.688
;TYPE:SKIN
G1 F2700 E29.70053
G1 F1200 X78.509 Y196.942 E29.71333
G1 X78.153 Y197.176 E29.7275
G1 X77.816 Y197.34 E29.73996
G1 X77.424 Y197.469 E29.75369
G1 X77.059 Y197.534 E29.76602
G1 X76.587 Y197.561 E29.78174
G1 X12.588 Y197.561 E31.91036
G1 X12.112 Y197.538 E31.92621
G1 X11.756 Y197.476 E31.93823
G1 X11.367 Y197.348 E31.95185
G1 X11.005 Y197.176 E31.96518
G1 X10.658 Y196.947 E31.97901
G1 X10.371 Y196.697 E31.99167
G1 X10.115 Y196.402 E32.00466
G1 X9.896 Y196.072 E32.01783
G1 X9.724 Y195.71 E32.03116
G1 X9.595 Y195.316 E32.04495
G1 X9.533 Y194.959 E32.057
G1 X9.515 Y194.586 E32.06942
G1 X9.511 Y65.996 E36.34634
G1 X9.524 Y65.497 E36.36294
G1 X9.587 Y65.111 E36.37595
G1 X9.713 Y64.703 E36.39016
G1 X9.871 Y64.368 E36.40247
G1 X10.087 Y64.036 E36.41565
G1 X10.35 Y63.735 E36.42894
G1 X10.651 Y63.472 E36.44224
G1 X10.982 Y63.256 E36.45538
G1 X11.317 Y63.098 E36.4677
G1 X11.727 Y62.972 E36.48197
G1 X12.113 Y62.909 E36.49498
G1 X12.591 Y62.896 E36.51088
G1 X76.586 Y62.896 E38.63936
G1 X77.052 Y62.923 E38.65489
G1 X77.422 Y62.993 E38.66741
G1 X77.821 Y63.122 E38.68136
G1 X78.145 Y63.28 E38.69335
G1 X78.502 Y63.514 E38.70755
G1 X78.794 Y63.772 E38.72051
G1 X79.052 Y64.064 E38.73347
G1 X79.284 Y64.419 E38.74757
G1 X79.446 Y64.747 E38.75974
G1 X79.575 Y65.145 E38.77365
G1 X79.644 Y65.513 E38.78611
G1 X79.67 Y65.956 E38.80087
G1 X79.67 Y194.478 E43.07553
G1 X79.643 Y194.95 E43.09125
G1 X79.578 Y195.316 E43.10361
G1 X79.453 Y195.7 E43.11705
G1 X79.282 Y196.05 E43.13
G1 X79.053 Y196.4 E43.14391
G1 X78.798 Y196.688 E43.15671
G1 F2700 E38.15671
G0 F6000 X78.993 Y196.862
G0 X78.243 Y197.311
G0 X47.264 Y169.016
G0 X47.4 Y169.135
G1 F2700 E43.15671
G1 F1200 X47.858 Y168.474 E43.18345
G1 X48.126 Y167.748 E43.20919
G1 X48.2 Y166.934 E43.23638
G1 X48.067 Y166.154 E43.2627
G1 X47.738 Y165.444 E43.28872
G1 X47.228 Y164.831 E43.31525
G1 X46.567 Y164.366 E43.34213
G1 X45.84 Y164.097 E43.36791
G1 X45.048 Y164.02 E43.39437
G1 X44.256 Y164.15 E43.42107
G1 X43.53 Y164.485 E43.44766
G1 X42.897 Y165.014 E43.4751
G1 X42.45 Y165.657 E43.50115
G1 X42.178 Y166.399 E43.52743
G1 X42.103 Y167.203 E43.55429
G1 X42.241 Y167.978 E43.58047
G1 X42.555 Y168.666 E43.60562
G1 X43.095 Y169.32 E43.63383
G1 X43.744 Y169.77 E43.6601
G1 X44.483 Y170.042 E43.68629
G1 X45.288 Y170.112 E43.71317
G1 X46.06 Y169.982 E43.7392
G1 X46.787 Y169.646 E43.76584
G1 X47.4 Y169.135 E43.79239
G1 F2700 E38.79239
G0 F6000 X47.205 Y168.962
G0 X47.62 Y167.619
G0 X47.678 Y166.964
G0 X47.614 Y166.596
G0 X47.107 Y164.963
G0 X46.326 Y91.081
G0 X47.075 Y90.96
G1 F2700 E43.79239
G1 F1200 X47.657 Y90.511 E43.81683
G1 X48.126 Y89.904 E43.84235
G1 X48.408 Y89.224 E43.86683
G1 X48.502 Y88.445 E43.89293
G1 X48.412 Y87.709 E43.91759
G1 X48.131 Y87.029 E43.94206
G1 X47.651 Y86.4 E43.96838
G1 X47.055 Y85.95 E43.99322
G1 X46.344 Y85.657 E44.0188
G1 X45.603 Y85.568 E44.04362
G1 X44.875 Y85.66 E44.06802
G1 X44.134 Y85.978 E44.09484
G1 X43.565 Y86.419 E44.11879
G1 X43.115 Y87.006 E44.14339
G1 X42.816 Y87.72 E44.16913
G1 X42.723 Y88.444 E44.19341
G1 X42.821 Y89.216 E44.21929
G1 X43.108 Y89.905 E44.24412
G1 X43.563 Y90.501 E44.26906
G1 X44.166 Y90.964 E44.29435
G1 X44.875 Y91.259 E44.31989
G1 X45.614 Y91.35 E44.34465
G1 X46.381 Y91.254 E44.37036
G1 X47.075 Y90.96 E44.39543
G1 F2700 E39.39543
G0 F6000 X47.136 Y90.587
G0 X48.324 Y88.46
G0 X78.234 Y63.145
G0 X78.882 Y64.174
G1 F2700 E44.39543
G1 F1200 X78.391 Y63.684 E44.4185
G0 F6000 X78.695 Y63.338
G0 X77.404 Y62.725
G0 X77.319 Y63.177
G1 F1200 X79.39 Y65.248 E44.51591
G0 F6000 X79.464 Y65.888
G1 F1200 X76.678 Y63.102 E44.64696
G0 F6000 X76.106 Y63.095
G1 F1200 X79.469 Y66.458 E44.80514
G0 F6000 X79.469 Y67.024
G1 F1200 X75.54 Y63.095 E44.98995
G0 F6000 X74.975 Y63.095
G1 F1200 X79.469 Y67.59 E45.20136
G0 F6000 X79.469 Y68.155
G1 F1200 X74.409 Y63.095 E45.43937
G0 F6000 X73.843 Y63.095
G1 F1200 X79.469 Y68.721 E45.704
G0 F6000 X79.469 Y69.287
G1 F1200 X73.278 Y63.095 E45.99523
G0 F6000 X72.712 Y63.095
G1 F1200 X79.469 Y69.852 E46.31305
G0 F6000 X79.469 Y70.418
G1 F1200 X72.146 Y63.095 E46.65751
G0 F6000 X71.581 Y63.095
G1 F1200 X79.469 Y70.984 E47.02856
G0 F6000 X79.469 Y71.55
G1 F1200 X71.015 Y63.095 E47.42623
G0 F6000 X70.449 Y63.095
G1 F1200 X79.469 Y72.115 E47.8505
G0 F6000 X79.469 Y72.681
G1 F1200 X69.884 Y63.095 E48.30138
G0 F6000 X69.318 Y63.095
G1 F1200 X79.469 Y73.247 E48.77887
G0 F6000 X79.469 Y73.812
G1 F1200 X68.752 Y63.095 E49.28297
G0 F6000 X68.187 Y63.095
G1 F1200 X79.469 Y74.378 E49.81366
G0 F6000 X79.469 Y74.944
G1 F1200 X67.621 Y63.095 E50.37098
G0 F6000 X67.055 Y63.095
G1 F1200 X79.469 Y75.509 E50.95489
G0 F6000 X79.469 Y76.075
G1 F1200 X66.489 Y63.095 E51.56543
G0 F6000 X65.924 Y63.095
G1 F1200 X79.469 Y76.641 E52.20257
G0 F6000 X79.469 Y77.206
G1 F1200 X65.358 Y63.095 E52.86631
G0 F6000 X64.792 Y63.095
G1 F1200 X79.469 Y77.772 E53.55667
G0 F6000 X79.469 Y78.338
G1 F1200 X64.227 Y63.095 E54.27363
G0 F6000 X63.661 Y63.095
G1 F1200 X79.469 Y78.903 E55.01719
G0 F6000 X79.469 Y79.469
G1 F1200 X63.095 Y63.095 E55.78737
G0 F6000 X62.53 Y63.095
G1 F1200 X79.469 Y80.035 E56.58416
G0 F6000 X79.469 Y80.6
G1 F1200 X61.964 Y63.095 E57.40754
G0 F6000 X61.398 Y63.095
G1 F1200 X79.469 Y81.166 E58.25754
G0 F6000 X79.469 Y81.732
G1 F1200 X60.833 Y63.095 E59.13415
G0 F6000 X60.267 Y63.095
G1 F1200 X79.469 Y82.298 E60.03737
G0 F6000 X79.469 Y82.863
G1 F1200 X59.701 Y63.095 E60.9672
G0 F6000 X59.136 Y63.095
G1 F1200 X79.469 Y83.429 E61.92362
G0 F6000 X79.469 Y83.995
G1 F1200 X58.57 Y63.095 E62.90667
G0 F6000 X58.004 Y63.095
G1 F1200 X79.469 Y84.56 E63.91632
G0 F6000 X79.469 Y85.126
G1 F1200 X57.438 Y63.095 E64.95259
G0 F6000 X56.873 Y63.095
G1 F1200 X79.469 Y85.692 E66.01546
G0 F6000 X79.469 Y86.257
G1 F1200 X56.307 Y63.095 E67.10493
G0 F6000 X55.741 Y63.095
G1 F1200 X79.469 Y86.823 E68.22102
G0 F6000 X79.469 Y87.389
G1 F1200 X55.176 Y63.095 E69.36372
G0 F6000 X54.61 Y63.095
G1 F1200 X79.469 Y87.954 E70.53301
G0 F6000 X79.469 Y88.52
G1 F1200 X54.044 Y63.095 E71.72892
G0 F6000 X53.479 Y63.095
G1 F1200 X79.469 Y89.086 E72.95143
G0 F6000 X79.469 Y89.651
G1 F1200 X52.913 Y63.095 E74.20055
G0 F6000 X52.347 Y63.095
G1 F1200 X79.469 Y90.217 E75.47628
G0 F6000 X79.469 Y90.783
G1 F1200 X51.782 Y63.095 E76.77862
G0 F6000 X51.216 Y63.095
G1 F1200 X79.469 Y91.349 E78.10758
G0 F6000 X79.469 Y91.914
G1 F1200 X50.65 Y63.095 E79.46313
G0 F6000 X50.085 Y63.095
G1 F1200 X79.469 Y92.48 E80.84529
G0 F6000 X79.469 Y93.046
G1 F1200 X49.519 Y63.095 E82.25407
G0 F6000 X48.953 Y63.095
G1 F1200 X79.469 Y93.611 E83.68945
G0 F6000 X79.469 Y94.177
G1 F1200 X48.388 Y63.095 E85.15143
G0 F6000 X47.822 Y63.095
G1 F1200 X79.469 Y94.743 E86.64003
G0 F6000 X79.469 Y95.308
G1 F1200 X47.256 Y63.095 E88.15523
G0 F6000 X46.69 Y63.095
G1 F1200 X79.469 Y95.874 E89.69705
G0 F6000 X79.469 Y96.44
G1 F1200 X46.125 Y63.095 E91.26548
G0 F6000 X45.559 Y63.095
G1 F1200 X79.469 Y97.005 E92.8605
G0 F6000 X79.469 Y97.571
G1 F1200 X44.993 Y63.095 E94.48214
G0 F6000 X44.428 Y63.095
G1 F1200 X79.469 Y98.137 E96.13039
G0 F6000 X79.469 Y98.702
G1 F1200 X43.862 Y63.095 E97.80523
G0 F6000 X43.296 Y63.095
G1 F1200 X79.469 Y99.268 E99.5067
G0 F6000 X79.469 Y99.834
G1 F1200 X42.731 Y63.095 E101.23477
G0 F6000 X42.165 Y63.095
G1 F1200 X79.469 Y100.399 E102.98943
G0 F6000 X79.469 Y100.965
G1 F1200 X41.599 Y63.095 E104.77072
G0 F6000 X41.034 Y63.095
G1 F1200 X79.469 Y101.531 E106.57861
G0 F6000 X79.469 Y102.097
G1 F1200 X40.468 Y63.095 E108.41312
G0 F6000 X39.902 Y63.095
G1 F1200 X79.469 Y102.662 E110.27423
G0 F6000 X79.469 Y103.228
G1 F1200 X39.337 Y63.095 E112.16194
G0 F6000 X38.771 Y63.095
G1 F1200 X79.469 Y103.794 E114.07627
G0 F6000 X79.469 Y104.359
G1 F1200 X38.205 Y63.095 E116.0172
G0 F6000 X37.64 Y63.095
G1 F1200 X79.469 Y104.925 E117.98474
G0 F6000 X79.469 Y105.491
G1 F1200 X37.074 Y63.095 E119.97889
G0 F6000 X36.508 Y63.095
G1 F1200 X79.469 Y106.056 E121.99964
G0 F6000 X79.469 Y106.622
G1 F1200 X35.942 Y63.095 E124.04702
