;FLAVOR:Marlin
;TIME:14269
;Filament used: 11.4325m
;Layer height: 0.2
;MINX:11.825
;MINY:9.5
;MINZ:0.2
;MAXX:191.745
;MAXY:218.055
;MAXZ:5.6
;TARGET_MACHINE.NAME:Creality Ender-3
;POSTPROCESSED
;Generated with Cura_SteamEngine 5.5.0
M140 S60
M105
M190 S60
M104 S220
M105
M109 S220
M82 ;absolute extrusion mode
; Ender 3 Custom Start G-code
G92 E0 ; Reset Extruder
G28 ; Home all axes
G1 Z2.0 F3000 ; Move Z Axis up little to prevent scratching of Heat Bed
G1 X0.1 Y20 Z0.3 F5000.0 ; Move to start position
G1 X0.1 Y200.0 Z0.3 F1500.0 E15 ; Draw the first line
G1 X0.4 Y200.0 Z0.3 F5000.0 ; Move to side a little
G1 X0.4 Y20 Z0.3 F1500.0 E30 ; Draw the second line
G92 E0 ; Reset Extruder
G1 Z2.0 F3000 ; Move Z Axis up little to prevent scratching of Heat Bed
G1 X5 Y20 Z0.3 F5000.0 ; Move over to prevent blob squish
G92 E0
G92 E0
G1 F2700 E-5
;LAYER_COUNT:28
;LAYER:0
M117 Printing Layer 0 of 27 maskihkîwiyiniw_plaque_multicolour_flat_v2
M107
G0 F6000 X18.742 Y9.5 Z0.2
;TYPE:SKIRT
G1 F2700 E0
G1 F1200 X17.309 Y9.716 E0.0482
G1 X16.578 Y10.006 E0.07436
G1 X14.906 Y10.983 E0.13877
G1 X13.348 Y12.436 E0.20962
G1 X12.276 Y14.507 E0.28719
G1 X11.825 Y16.351 E0.35032
G1 X11.87 Y20.913 E0.50206
G1 X12.117 Y22.552 E0.55719
G1 X12.407 Y23.283 E0.58335
G1 X13.384 Y24.955 E0.64776
G1 X14.837 Y26.513 E0.71862
G1 X16.908 Y27.585 E0.79618
G1 X18.753 Y28.037 E0.85936
G1 X22.925 Y27.991 E0.99813
G1 X24.564 Y27.744 E1.05326
G1 X25.295 Y27.454 E1.07941
G1 X26.967 Y26.477 E1.14382
G1 X28.525 Y25.024 E1.21468
G1 X29.597 Y22.953 E1.29224
G1 X30.048 Y21.109 E1.35538
G1 X30.003 Y16.547 E1.50712
G1 X29.756 Y14.908 E1.56225
G1 X29.466 Y14.177 E1.58841
G1 X28.489 Y12.505 E1.65282
G1 X27.036 Y10.947 E1.72367
G1 X24.965 Y9.875 E1.80124
G1 X23.434 Y9.5 E1.85366
G1 F2700 E-3.14634
G0 F6000 X13.67 Y12.683
G1 F2700 E1.85366
G1 F1200 X15.147 Y11.306 E1.92083
G1 X16.726 Y10.378 E1.98174
G1 X17.413 Y10.105 E2.00633
G1 X19.008 Y9.865 E2.05998
G1 X23.072 Y9.824 E2.19515
G1 X24.826 Y10.253 E2.25521
G1 X26.789 Y11.269 E2.32873
G1 X28.166 Y12.746 E2.39589
G1 X29.094 Y14.325 E2.45681
G1 X29.367 Y15.012 E2.48139
G1 X29.607 Y16.607 E2.53504
G1 X29.647 Y21.061 E2.68319
G1 X29.219 Y22.814 E2.74321
G1 X28.203 Y24.777 E2.81672
G1 X26.726 Y26.154 E2.88388
G1 X25.147 Y27.082 E2.9448
G1 X24.46 Y27.355 E2.96939
G1 X22.865 Y27.595 E3.02304
G1 X18.801 Y27.636 E3.15821
G1 X17.047 Y27.207 E3.21827
G1 X15.084 Y26.191 E3.29179
G1 X13.707 Y24.714 E3.35895
G1 X12.779 Y23.135 E3.41987
G1 X12.506 Y22.448 E3.44445
G1 X12.266 Y20.853 E3.4981
G1 X12.226 Y16.399 E3.64625
G1 X12.654 Y14.646 E3.70626
G1 X13.67 Y12.683 E3.77978
G0 F6000 X13.992 Y12.93
G1 F1200 X15.391 Y11.626 E3.84339
G1 X16.874 Y10.75 E3.90068
G1 X17.518 Y10.494 E3.92373
G1 X19.067 Y10.261 E3.97583
G1 X23.024 Y10.225 E4.10744
G1 X24.687 Y10.631 E4.16438
G1 X26.542 Y11.591 E4.23385
G1 X27.846 Y12.99 E4.29746
G1 X28.722 Y14.473 E4.35475
G1 X28.978 Y15.117 E4.3778
G1 X29.211 Y16.666 E4.4299
G1 X29.247 Y21.013 E4.57448
G1 X28.841 Y22.675 E4.63139
G1 X27.881 Y24.53 E4.70086
G1 X26.482 Y25.834 E4.76447
G1 X24.999 Y26.71 E4.82175
G1 X24.355 Y26.966 E4.8448
G1 X22.806 Y27.199 E4.8969
G1 X18.849 Y27.235 E5.02852
G1 X17.186 Y26.829 E5.08545
G1 X15.331 Y25.869 E5.15492
G1 X14.027 Y24.47 E5.21853
G1 X13.151 Y22.987 E5.27582
G1 X12.895 Y22.343 E5.29887
G1 X12.662 Y20.794 E5.35097
G1 X12.626 Y16.447 E5.49556
G1 X13.032 Y14.785 E5.55246
G1 X13.992 Y12.93 E5.62193
G0 F6000 X14.314 Y13.177
G1 F1200 X15.632 Y11.949 E5.68185
G1 X17.022 Y11.122 E5.73564
G1 X17.623 Y10.883 E5.75715
G1 X19.126 Y10.657 E5.80771
G1 X22.976 Y10.625 E5.93576
G1 X24.548 Y11.009 E5.98958
G1 X26.295 Y11.913 E6.05501
G1 X27.523 Y13.231 E6.11492
G1 X28.35 Y14.621 E6.16872
G1 X28.589 Y15.222 E6.19023
G1 X28.815 Y16.725 E6.24078
G1 X28.847 Y20.965 E6.38181
G1 X28.463 Y22.536 E6.4356
G1 X27.559 Y24.283 E6.50102
G1 X26.241 Y25.511 E6.56094
G1 X24.851 Y26.338 E6.61473
G1 X24.25 Y26.577 E6.63625
G1 X22.747 Y26.803 E6.6868
G1 X18.897 Y26.835 E6.81485
G1 X17.325 Y26.451 E6.86868
G1 X15.578 Y25.547 E6.9341
G1 X14.35 Y24.229 E6.99402
G1 X13.523 Y22.839 E7.04781
G1 X13.284 Y22.238 E7.06932
G1 X13.058 Y20.735 E7.11988
G1 X13.026 Y16.495 E7.2609
G1 X13.41 Y14.924 E7.31469
G1 X14.314 Y13.177 E7.38012
G0 F6000 X14.636 Y13.424
G1 F1200 X15.874 Y12.271 E7.43638
G1 X17.227 Y11.466 E7.48875
G1 X17.727 Y11.272 E7.50659
G1 X19.185 Y11.053 E7.55562
G1 X22.928 Y11.025 E7.68012
G1 X24.409 Y11.387 E7.73083
G1 X26.048 Y12.235 E7.79221
G1 X27.201 Y13.473 E7.84847
G1 X28.006 Y14.826 E7.90084
G1 X28.2 Y15.326 E7.91867
G1 X28.419 Y16.784 E7.96771
G1 X28.447 Y20.917 E8.10518
G1 X28.085 Y22.397 E8.15586
G1 X27.237 Y24.036 E8.21723
G1 X25.999 Y25.189 E8.2735
G1 X24.646 Y25.994 E8.32587
G1 X24.146 Y26.188 E8.3437
G1 X22.688 Y26.407 E8.39274
G1 X18.945 Y26.435 E8.51724
G1 X17.464 Y26.073 E8.56794
G1 X15.825 Y25.225 E8.62932
G1 X14.672 Y23.987 E8.68559
G1 X13.867 Y22.634 E8.73795
G1 X13.673 Y22.134 E8.75579
G1 X13.454 Y20.676 E8.80483
G1 X13.426 Y16.543 E8.9423
G1 X13.788 Y15.063 E8.99297
G1 X14.636 Y13.424 E9.05435
G0 F6000 X14.958 Y13.671
G1 F1200 X16.116 Y12.593 E9.10697
G1 X17.432 Y11.81 E9.1579
G1 X17.83 Y11.661 E9.17204
G1 X19.244 Y11.449 E9.21959
G1 X22.88 Y11.425 E9.34053
G1 X24.27 Y11.765 E9.38812
G1 X25.801 Y12.557 E9.44546
G1 X26.879 Y13.715 E9.49808
G1 X27.662 Y15.031 E9.54901
G1 X27.811 Y15.429 E9.56314
G1 X28.023 Y16.843 E9.6107
G1 X28.047 Y20.868 E9.74457
G1 X27.707 Y22.258 E9.79217
G1 X26.915 Y23.789 E9.8495
G1 X25.757 Y24.867 E9.90212
G1 X24.441 Y25.65 E9.95305
G1 X24.043 Y25.799 E9.96719
G1 X22.629 Y26.011 E10.01474
G1 X18.993 Y26.035 E10.13568
G1 X17.603 Y25.695 E10.18327
G1 X16.072 Y24.903 E10.2406
G1 X14.994 Y23.745 E10.29323
G1 X14.211 Y22.429 E10.34416
G1 X14.062 Y22.031 E10.35829
G1 X13.85 Y20.617 E10.40585
G1 X13.826 Y16.592 E10.53972
G1 X14.166 Y15.202 E10.58732
G1 X14.958 Y13.671 E10.64465
G0 F6000 X15.281 Y13.916
G1 F1200 X16.355 Y12.917 E10.69343
G1 X17.637 Y12.154 E10.74305
G1 X17.928 Y12.051 E10.75332
G1 X19.303 Y11.845 E10.79956
G1 X22.831 Y11.825 E10.91691
G1 X24.131 Y12.143 E10.96142
G1 X25.556 Y12.88 E11.01478
G1 X26.555 Y13.954 E11.06357
G1 X27.318 Y15.236 E11.11319
G1 X27.421 Y15.527 E11.12345
G1 X27.627 Y16.902 E11.1697
G1 X27.647 Y20.819 E11.29998
G1 X27.329 Y22.119 E11.34449
G1 X26.592 Y23.544 E11.39785
G1 X25.518 Y24.543 E11.44664
G1 X24.236 Y25.306 E11.49626
G1 X23.945 Y25.409 E11.50652
G1 X22.57 Y25.615 E11.55277
G1 X19.042 Y25.635 E11.67011
G1 X17.742 Y25.317 E11.71462
G1 X16.317 Y24.58 E11.76798
G1 X15.318 Y23.506 E11.81677
G1 X14.555 Y22.224 E11.86639
G1 X14.452 Y21.933 E11.87665
G1 X14.246 Y20.558 E11.9229
G1 X14.226 Y16.641 E12.05318
G1 X14.544 Y15.341 E12.09769
G1 X15.281 Y13.916 E12.15105
G0 F6000 X15.604 Y14.161
G1 F1200 X16.594 Y13.241 E12.196
G1 X17.842 Y12.498 E12.24431
G1 X17.987 Y12.447 E12.24942
G1 X19.362 Y12.241 E12.29567
G1 X22.782 Y12.225 E12.40942
G1 X23.992 Y12.521 E12.45085
G1 X25.311 Y13.203 E12.50024
G1 X26.231 Y14.193 E12.54519
G1 X26.974 Y15.441 E12.59349
G1 X27.025 Y15.586 E12.59861
G1 X27.231 Y16.961 E12.64485
G1 X27.247 Y20.77 E12.77154
G1 X26.951 Y21.98 E12.81297
G1 X26.269 Y23.299 E12.86236
G1 X25.279 Y24.219 E12.90731
G1 X24.031 Y24.962 E12.95562
G1 X23.886 Y25.013 E12.96073
G1 X22.511 Y25.219 E13.00697
G1 X19.091 Y25.235 E13.12072
G1 X17.881 Y24.939 E13.16215
G1 X16.562 Y24.257 E13.21154
G1 X15.642 Y23.267 E13.25649
G1 X14.899 Y22.019 E13.3048
G1 X14.848 Y21.874 E13.30991
G1 X14.642 Y20.499 E13.35615
G1 X14.626 Y16.69 E13.48284
G1 X14.922 Y15.48 E13.52428
G1 X15.604 Y14.161 E13.57366
G0 F6000 X15.927 Y14.406
G1 F1200 X16.833 Y13.565 E13.61478
G1 X18.047 Y12.842 E13.66177
G1 X19.364 Y12.641 E13.70608
G1 X22.733 Y12.625 E13.81814
G1 X23.853 Y12.899 E13.85649
G1 X25.066 Y13.526 E13.9019
G1 X25.907 Y14.432 E13.94302
G1 X26.63 Y15.646 E13.99002
G1 X26.831 Y16.963 E14.03433
G1 X26.847 Y20.721 E14.15932
G1 X26.573 Y21.841 E14.19767
G1 X25.946 Y23.054 E14.24309
G1 X25.04 Y23.895 E14.2842
G1 X23.826 Y24.618 E14.3312
G1 X22.509 Y24.819 E14.37551
G1 X19.14 Y24.835 E14.48756
G1 X18.02 Y24.561 E14.52591
G1 X16.807 Y23.934 E14.57133
G1 X15.966 Y23.028 E14.61244
G1 X15.243 Y21.814 E14.65944
G1 X15.042 Y20.497 E14.70375
G1 X15.026 Y16.739 E14.82874
G1 X15.3 Y15.619 E14.86709
G1 X15.927 Y14.406 E14.91251
G0 F6000 X16.25 Y14.651
G1 F1200 X17.072 Y13.889 E14.94979
G1 X18.186 Y13.225 E14.99292
G1 X19.366 Y13.041 E15.03264
G1 X22.684 Y13.025 E15.143
G1 X23.714 Y13.277 E15.17827
G1 X24.821 Y13.849 E15.21971
G1 X25.583 Y14.671 E15.25699
G1 X26.247 Y15.785 E15.30013
G1 X26.431 Y16.965 E15.33985
G1 X26.447 Y20.672 E15.46315
G1 X26.195 Y21.702 E15.49841
G1 X25.623 Y22.809 E15.53986
G1 X24.801 Y23.571 E15.57714
G1 X23.687 Y24.235 E15.62027
G1 X22.507 Y24.419 E15.65999
G1 X19.189 Y24.435 E15.77035
G1 X18.159 Y24.183 E15.80562
G1 X17.052 Y23.611 E15.84706
G1 X16.29 Y22.789 E15.88434
G1 X15.626 Y21.675 E15.92748
G1 X15.442 Y20.495 E15.9672
G1 X15.426 Y16.788 E16.0905
G1 X15.678 Y15.758 E16.12576
G1 X16.25 Y14.651 E16.16721
G0 F6000 X16.572 Y14.898
G1 F1200 X17.314 Y14.211 E16.20084
G1 X18.325 Y13.608 E16.23999
G1 X19.368 Y13.441 E16.27513
G1 X22.635 Y13.425 E16.38379
G1 X23.575 Y13.655 E16.41597
G1 X24.574 Y14.171 E16.45337
G1 X25.261 Y14.913 E16.487
G1 X25.864 Y15.924 E16.52616
G1 X26.031 Y16.967 E16.56129
G1 X26.047 Y20.623 E16.68289
G1 X25.817 Y21.563 E16.71508
G1 X25.301 Y22.562 E16.75247
G1 X24.559 Y23.249 E16.78611
G1 X23.548 Y23.852 E16.82526
G1 X22.505 Y24.019 E16.86039
G1 X19.238 Y24.035 E16.96905
G1 X18.298 Y23.805 E17.00124
G1 X17.299 Y23.289 E17.03864
G1 X16.612 Y22.547 E17.07227
G1 X16.009 Y21.536 E17.11142
G1 X15.842 Y20.493 E17.14656
G1 X15.826 Y16.837 E17.26816
G1 X16.056 Y15.897 E17.30034
G1 X16.572 Y14.898 E17.33774
G0 F6000 X16.894 Y15.145
G1 F1200 X17.556 Y14.532 E17.36775
G1 X18.462 Y13.991 E17.40285
G1 X19.37 Y13.841 E17.43346
G1 X22.59 Y13.825 E17.54055
G1 X23.434 Y14.032 E17.56946
G1 X24.327 Y14.493 E17.60288
G1 X24.94 Y15.155 E17.63289
G1 X25.481 Y16.061 E17.66799
G1 X25.631 Y16.969 E17.6986
G1 X25.647 Y20.578 E17.81864
G1 X25.44 Y21.422 E17.84754
G1 X24.979 Y22.315 E17.88096
G1 X24.317 Y22.928 E17.91097
G1 X23.411 Y23.469 E17.94607
G1 X22.503 Y23.619 E17.97668
G1 X19.283 Y23.635 E18.08378
G1 X18.439 Y23.428 E18.11268
G1 X17.546 Y22.967 E18.14611
G1 X16.933 Y22.305 E18.17612
G1 X16.392 Y21.399 E18.21121
G1 X16.242 Y20.491 E18.24182
G1 X16.226 Y16.882 E18.36186
G1 X16.433 Y16.038 E18.39076
G1 X16.894 Y15.145 E18.42419
G0 F6000 X17.217 Y15.391
G1 F1200 X17.798 Y14.853 E18.45052
G1 X18.6 Y14.374 E18.4816
G1 X19.435 Y14.236 E18.50974
G1 X22.545 Y14.225 E18.61318
G1 X23.291 Y14.408 E18.63873
G1 X24.081 Y14.816 E18.6683
G1 X24.619 Y15.397 E18.69464
G1 X25.098 Y16.199 E18.72571
G1 X25.236 Y17.034 E18.75386
G1 X25.247 Y20.533 E18.87024
G1 X25.064 Y21.279 E18.89579
G1 X24.656 Y22.069 E18.92536
G1 X24.075 Y22.607 E18.95169
G1 X23.273 Y23.086 E18.98276
G1 X22.438 Y23.224 E19.01091
G1 X19.328 Y23.235 E19.11435
G1 X18.582 Y23.052 E19.1399
G1 X17.792 Y22.644 E19.16947
G1 X17.254 Y22.063 E19.19581
G1 X16.775 Y21.261 E19.22688
G1 X16.637 Y20.426 E19.25503
G1 X16.626 Y16.927 E19.37141
G1 X16.809 Y16.181 E19.39696
G1 X17.217 Y15.391 E19.42653
G0 F6000 X17.54 Y15.637
G1 F1200 X18.04 Y15.174 E19.44919
G1 X18.738 Y14.757 E19.47624
G1 X19.5 Y14.631 E19.50192
G1 X22.5 Y14.625 E19.6017
G1 X23.148 Y14.784 E19.6239
G1 X23.835 Y15.139 E19.64962
G1 X24.298 Y15.639 E19.67228
G1 X24.715 Y16.337 E19.69932
G1 X24.841 Y17.099 E19.72501
G1 X24.847 Y20.488 E19.83773
G1 X24.688 Y21.136 E19.85992
G1 X24.333 Y21.823 E19.88564
G1 X23.833 Y22.286 E19.90831
G1 X23.135 Y22.703 E19.93535
G1 X22.373 Y22.829 E19.96104
G1 X19.373 Y22.835 E20.06082
G1 X18.725 Y22.676 E20.08301
G1 X18.038 Y22.321 E20.10873
G1 X17.575 Y21.821 E20.1314
G1 X17.158 Y21.123 E20.15844
G1 X17.032 Y20.361 E20.18413
G1 X17.026 Y16.972 E20.29685
G1 X17.185 Y16.324 E20.31904
G1 X17.54 Y15.637 E20.34476
G0 F6000 X17.863 Y15.883
G1 F1200 X18.282 Y15.495 E20.36375
G1 X18.876 Y15.14 E20.38677
G1 X19.565 Y15.026 E20.41
G1 X22.45 Y15.025 E20.50595
G1 X23.009 Y15.162 E20.5251
G1 X23.589 Y15.462 E20.54681
G1 X23.977 Y15.881 E20.56581
G1 X24.332 Y16.475 E20.58882
G1 X24.446 Y17.164 E20.61205
G1 X24.447 Y20.438 E20.72094
G1 X24.31 Y20.997 E20.74009
G1 X24.01 Y21.577 E20.76181
G1 X23.591 Y21.965 E20.7808
G1 X22.997 Y22.32 E20.80382
G1 X22.308 Y22.434 E20.82704
G1 X19.423 Y22.435 E20.923
G1 X18.864 Y22.298 E20.94214
G1 X18.284 Y21.998 E20.96386
G1 X17.896 Y21.579 E20.98285
G1 X17.541 Y20.985 E21.00587
G1 X17.427 Y20.296 E21.0291
G1 X17.426 Y17.022 E21.13799
G1 X17.563 Y16.463 E21.15713
G1 X17.863 Y15.883 E21.17885
G0 F6000 X18.186 Y16.129
G1 F1200 X18.524 Y15.816 E21.19417
G1 X19.014 Y15.523 E21.21316
G1 X19.63 Y15.421 E21.23393
G1 X22.4 Y15.425 E21.32606
G1 X22.87 Y15.54 E21.34215
G1 X23.343 Y15.785 E21.35987
G1 X23.656 Y16.123 E21.37519
G1 X23.949 Y16.613 E21.39418
G1 X24.051 Y17.229 E21.41495
G1 X24.047 Y20.388 E21.52002
G1 X23.932 Y20.858 E21.53611
G1 X23.687 Y21.331 E21.55383
G1 X23.349 Y21.644 E21.56915
G1 X22.859 Y21.937 E21.58814
G1 X22.243 Y22.039 E21.60891
G1 X19.473 Y22.035 E21.70104
G1 X19.003 Y21.92 E21.71713
G1 X18.53 Y21.675 E21.73485
G1 X18.217 Y21.337 E21.75017
G1 X17.924 Y20.847 E21.76916
G1 X17.822 Y20.231 E21.78993
G1 X17.826 Y17.072 E21.89499
G1 X17.941 Y16.602 E21.91109
G1 X18.186 Y16.129 E21.92881
G0 F6000 X18.509 Y16.375
G1 F1200 X18.766 Y16.137 E21.94046
G1 X19.153 Y15.906 E21.95545
G1 X19.629 Y15.821 E21.97153
G1 X22.35 Y15.825 E22.06203
G1 X22.731 Y15.918 E22.07507
G1 X23.097 Y16.108 E22.08879
G1 X23.335 Y16.365 E22.10044
G1 X23.566 Y16.752 E22.11543
G1 X23.651 Y17.228 E22.13151
G1 X23.647 Y20.338 E22.23495
G1 X23.554 Y20.719 E22.24799
G1 X23.364 Y21.085 E22.26171
G1 X23.107 Y21.323 E22.27336
G1 X22.72 Y21.554 E22.28835
G1 X22.244 Y21.639 E22.30443
G1 X19.523 Y21.635 E22.39493
G1 X19.142 Y21.542 E22.40798
G1 X18.776 Y21.352 E22.42169
G1 X18.538 Y21.095 E22.43334
G1 X18.307 Y20.708 E22.44833
G1 X18.222 Y20.232 E22.46442
G1 X18.226 Y17.122 E22.56786
G1 X18.319 Y16.741 E22.5809
G1 X18.509 Y16.375 E22.59462
G0 F6000 X18.833 Y16.62
G1 F1200 X18.971 Y16.481 E22.60113
G1 X19.298 Y16.286 E22.61379
G1 X19.628 Y16.221 E22.62498
G1 X22.301 Y16.225 E22.71389
G1 X22.589 Y16.295 E22.72374
G1 X22.852 Y16.432 E22.73361
G1 X22.991 Y16.57 E22.74012
G1 X23.186 Y16.897 E22.75278
G1 X23.251 Y17.227 E22.76397
G1 X23.247 Y20.289 E22.86581
G1 X23.177 Y20.577 E22.87567
G1 X23.04 Y20.84 E22.88553
G1 X22.902 Y20.979 E22.89205
G1 X22.575 Y21.174 E22.90471
G1 X22.245 Y21.239 E22.9159
G1 X19.572 Y21.235 E23.0048
G1 X19.284 Y21.165 E23.01466
G1 X19.021 Y21.028 E23.02452
G1 X18.882 Y20.89 E23.03104
G1 X18.687 Y20.563 E23.0437
G1 X18.622 Y20.233 E23.05489
G1 X18.626 Y17.171 E23.15673
G1 X18.696 Y16.883 E23.16659
G1 X18.833 Y16.62 E23.17645
G0 F6000 X19.465 Y17.102
G1 F1200 X19.626 Y17.021 E23.18245
G1 X22.251 Y17.025 E23.26975
G1 X22.37 Y17.064 E23.27392
G1 X22.451 Y17.225 E23.27991
G1 X22.447 Y20.239 E23.38016
G1 X22.408 Y20.358 E23.38432
G1 X22.247 Y20.439 E23.39032
G1 X19.622 Y20.435 E23.47763
G1 X19.503 Y20.396 E23.48179
G1 X19.422 Y20.235 E23.48779
G1 X19.426 Y17.221 E23.58803
G1 X19.465 Y17.102 E23.5922
G0 F6000 X19.176 Y16.825
G1 F1200 X19.446 Y16.664 E23.60265
G1 X19.627 Y16.621 E23.60884
G1 X22.252 Y16.625 E23.69615
G1 X22.495 Y16.684 E23.70447
G1 X22.647 Y16.775 E23.71036
G1 X22.808 Y17.045 E23.72081
G1 X22.851 Y17.226 E23.727
G1 X22.847 Y20.24 E23.82725
G1 X22.788 Y20.483 E23.83556
G1 X22.697 Y20.635 E23.84146
G1 X22.427 Y20.796 E23.85191
G1 X22.246 Y20.839 E23.8581
G1 X19.621 Y20.835 E23.94541
G1 X19.378 Y20.776 E23.95373
G1 X19.226 Y20.685 E23.95962
G1 X19.065 Y20.415 E23.97007
G1 X19.022 Y20.234 E23.97626
G1 X19.026 Y17.22 E24.07651
G1 X19.085 Y16.977 E24.08482
G1 X19.176 Y16.825 E24.09072
G1 F2700 E19.09072
G0 F6000 X19.176 Y16.555
G0 X22.905 Y16.573
G0 X76.038 Y39.173
G1 F2700 E24.09072
G1 F1200 X76.448 Y38.124 E24.12818
G1 X77.344 Y36.483 E24.19036
G1 X78.534 Y34.903 E24.25615
G1 X79.735 Y33.703 E24.31262
G1 X80.984 Y32.742 E24.36503
G1 X82.53 Y31.838 E24.4246
