;FLAVOR:Marlin
;TIME:3133
;Filament used: 1.83018m
;Layer height: 0.2
;MINX:27.787
;MINY:27.609
;MINZ:0.2
;MAXX:151.186
;MAXY:169.288
;MAXZ:2
;TARGET_MACHINE.NAME:Creality Ender-3
;POSTPROCESSED
;Generated with Cura_SteamEngine 5.5.0
M140 S60
M105
M190 S60
M104 S220
M105
M109 S220
M82 ;absolute extrusion mode
; Ender 3 Custom Start G-code
G92 E0 ; Reset Extruder
G28 ; Home all axes
G1 Z2.0 F3000 ; Move Z Axis up little to prevent scratching of Heat Bed
G1 X0.1 Y20 Z0.3 F5000.0 ; Move to start position
G1 X0.1 Y200.0 Z0.3 F1500.0 E15 ; Draw the first line
G1 X0.4 Y200.0 Z0.3 F5000.0 ; Move to side a little
G1 X0.4 Y20 Z0.3 F1500.0 E30 ; Draw the second line
G92 E0 ; Reset Extruder
G1 Z2.0 F3000 ; Move Z Axis up little to prevent scratching of Heat Bed
G1 X5 Y20 Z0.3 F5000.0 ; Move over to prevent blob squish
G92 E0
G92 E0
G1 F2700 E-5
;LAYER_COUNT:10
;BEGIN FilamentChange plugin
M600
;END FilamentChange plugin
;LAYER:0
M117 Printing Layer 0 of 9 maskihkîwiyiniw_plaque_multicolour_mini_flat
M107
;MESH:rectPurge.stl
G0 F6000 X29.611 Y29.826 Z0.2
;TYPE:WALL-INNER
G1 F2700 E0
G1 F1200 X29.614 Y28.014 E0.06027
G1 X28.19 Y28.01 E0.10763
G1 X28.187 Y29.822 E0.1679
G1 X29.611 Y29.826 E0.21526
G0 F6000 X30.011 Y30.227
;TYPE:WALL-OUTER
G1 F1200 X30.014 Y27.614 E0.30217
G1 X27.79 Y27.609 E0.37614
G1 X27.787 Y30.222 E0.46305
G1 X30.011 Y30.227 E0.53702
G0 F6000 X29.742 Y29.956
G0 X29.174 Y29.724
G0 X29.175 Y29.389
;TYPE:SKIN
G1 F871.1 X28.623 Y29.387 E0.56231
G1 X28.626 Y28.447 E0.60538
G1 X29.178 Y28.449 E0.63067
G1 X29.175 Y29.389 E0.67373
G1 F2700 E-4.32627
;MESH:maskihk??wiyiniw_plaque_multicolour.stl
G0 F6000 X29.174 Y29.724
G0 X29.798 Y30.012
G0 X117.836 Y74.828
G0 X121.086 Y77.638
;TYPE:WALL-INNER
G1 F2700 E0.67373
G1 F1200 X120.29 Y77.542 E0.7004
G1 X119.572 Y77.278 E0.72585
G1 X118.934 Y76.833 E0.75172
G1 X118.444 Y76.26 E0.77679
G1 X118.13 Y75.584 E0.80158
G1 X118.018 Y74.83 E0.82694
G1 X118.127 Y74.081 E0.85211
G1 X118.452 Y73.376 E0.87793
G1 X118.934 Y72.817 E0.90248
G1 X119.562 Y72.374 E0.92804
G1 X120.287 Y72.101 E0.95381
G1 X121.078 Y72.004 E0.98032
G1 X121.85 Y72.094 E1.00617
G1 X122.585 Y72.365 E1.03222
G1 X123.218 Y72.808 E1.05792
G1 X123.714 Y73.38 E1.0831
G1 X124.032 Y74.076 E1.10855
G1 X124.144 Y74.81 E1.13325
G1 X124.034 Y75.565 E1.15862
G1 X123.714 Y76.256 E1.18395
G1 X123.224 Y76.835 E1.20918
G1 X122.589 Y77.273 E1.23484
G1 X121.87 Y77.539 E1.26033
G1 X121.086 Y77.638 E1.28662
G1 F2700 E-3.71338
G0 F6000 X122.559 Y154.477
G0 X122.566 Y160.762
G1 F2700 E1.28662
G1 F1200 X121.721 Y160.671 E1.31488
G1 X120.93 Y160.373 E1.343
G1 X120.238 Y159.894 E1.37099
G1 X119.71 Y159.286 E1.39777
G1 X119.351 Y158.514 E1.42609
G1 X119.234 Y157.725 E1.45262
G1 X119.35 Y156.911 E1.47997
G1 X119.694 Y156.168 E1.5072
G1 X120.225 Y155.539 E1.53458
G1 X120.915 Y155.058 E1.56255
G1 X121.711 Y154.76 E1.59082
G1 X122.557 Y154.659 E1.61916
G1 X123.408 Y154.758 E1.64766
G1 X124.195 Y155.049 E1.67556
G1 X124.892 Y155.535 E1.70382
G1 X125.429 Y156.167 E1.73141
G1 X125.763 Y156.886 E1.75778
G1 X125.887 Y157.71 E1.78549
G1 X125.768 Y158.515 E1.81256
G1 X125.417 Y159.277 E1.84046
G1 X124.892 Y159.886 E1.8672
G1 X124.205 Y160.364 E1.89504
G1 X123.417 Y160.664 E1.92308
G1 X122.566 Y160.762 E1.95158
G1 F2700 E-3.04842
G0 F6000 X121.749 Y160.775
G0 X120.846 Y160.534
G0 X120.86 Y168.638
G0 X93.138 Y168.888
G1 F2700 E1.95158
G1 F1200 X147.948 Y168.788 E3.77457
G1 X148.357 Y168.77 E3.78818
G1 X148.74 Y168.708 E3.80109
G1 X149.083 Y168.607 E3.81298
G1 X149.413 Y168.464 E3.82494
G1 X149.747 Y168.264 E3.83789
G1 X149.997 Y168.066 E3.8485
G1 X150.255 Y167.799 E3.86085
G1 X150.444 Y167.541 E3.87148
G1 X150.602 Y167.243 E3.8827
G1 X150.709 Y166.946 E3.8932
G1 X150.772 Y166.63 E3.90392
G1 X150.786 Y166.278 E3.91564
G1 X150.603 Y66.831 E7.22326
G1 X150.54 Y66.484 E7.23499
G1 X150.43 Y66.171 E7.24603
G1 X150.281 Y65.885 E7.25675
G1 X150.09 Y65.623 E7.26754
G1 X149.839 Y65.364 E7.27953
G1 X149.556 Y65.142 E7.2915
G1 X149.259 Y64.968 E7.30294
G1 X148.914 Y64.823 E7.31539
G1 X148.549 Y64.722 E7.32799
G1 X148.184 Y64.668 E7.34026
G1 X147.739 Y64.66 E7.35506
G1 X92.949 Y64.76 E9.17739
G1 X92.547 Y64.779 E9.19077
G1 X92.164 Y64.845 E9.2037
G1 X91.819 Y64.949 E9.21569
G1 X91.482 Y65.097 E9.22793
G1 X91.169 Y65.284 E9.24005
G1 X90.894 Y65.502 E9.25173
G1 X90.657 Y65.746 E9.26304
G1 X90.46 Y66.017 E9.27418
G1 X90.301 Y66.312 E9.28533
G1 X90.196 Y66.602 E9.29559
G1 X90.127 Y66.929 E9.3067
G1 X90.108 Y67.276 E9.31826
G1 X90.289 Y166.384 E12.61461
G1 X90.309 Y166.734 E12.62627
G1 X90.376 Y167.055 E12.63718
G1 X90.484 Y167.352 E12.64769
G1 X90.639 Y167.636 E12.65845
G1 X90.845 Y167.917 E12.67004
G1 X91.075 Y168.154 E12.68102
G1 X91.361 Y168.379 E12.69313
G1 X91.669 Y168.562 E12.70504
G1 X92.006 Y168.706 E12.71723
G1 X92.349 Y168.807 E12.72912
G1 X92.733 Y168.869 E12.74206
G1 X93.138 Y168.888 E12.75555
G0 F6000 X93.13 Y169.288
;TYPE:WALL-OUTER
G1 F1200 X147.957 Y169.188 E14.5791
G1 X148.397 Y169.169 E14.59375
G1 X148.829 Y169.099 E14.60831
G1 X149.22 Y168.984 E14.62186
G1 X149.596 Y168.82 E14.63551
G1 X149.974 Y168.594 E14.65015
G1 X150.266 Y168.364 E14.66252
G1 X150.562 Y168.057 E14.6767
G1 X150.784 Y167.754 E14.6892
G1 X150.969 Y167.405 E14.70233
G1 X151.095 Y167.054 E14.71474
G1 X151.17 Y166.678 E14.72749
G1 X151.186 Y166.286 E14.74054
G1 X151.003 Y67.01 E18.04248
G1 X150.994 Y66.747 E18.05123
G1 X150.928 Y66.382 E18.06357
G1 X150.798 Y66.012 E18.07661
G1 X150.622 Y65.673 E18.08931
G1 X150.397 Y65.365 E18.102
G1 X150.107 Y65.066 E18.11585
G1 X149.781 Y64.81 E18.12964
G1 X149.438 Y64.61 E18.14285
G1 X149.046 Y64.445 E18.15699
G1 X148.632 Y64.33 E18.17128
G1 X148.217 Y64.269 E18.18523
G1 X147.738 Y64.26 E18.20117
G1 X92.939 Y64.36 E20.02379
G1 X92.503 Y64.381 E20.03831
G1 X92.072 Y64.455 E20.05286
G1 X91.681 Y64.573 E20.06644
G1 X91.298 Y64.741 E20.08035
G1 X90.941 Y64.954 E20.09418
G1 X90.626 Y65.204 E20.10755
G1 X90.35 Y65.488 E20.12073
G1 X90.12 Y65.803 E20.1337
G1 X89.935 Y66.148 E20.14672
G1 X89.81 Y66.492 E20.15889
G1 X89.729 Y66.877 E20.17198
G1 X89.708 Y67.266 E20.18493
G1 X89.889 Y166.396 E23.48202
G1 X89.911 Y166.786 E23.49501
G1 X89.99 Y167.165 E23.50789
G1 X90.118 Y167.516 E23.52031
G1 X90.3 Y167.851 E23.53299
G1 X90.539 Y168.176 E23.54641
G1 X90.807 Y168.452 E23.55921
G1 X91.134 Y168.709 E23.57304
G1 X91.487 Y168.919 E23.5867
G1 X91.87 Y169.083 E23.60056
G1 X92.26 Y169.198 E23.61408
G1 X92.692 Y169.268 E23.62864
G1 X93.13 Y169.288 E23.64322
G1 F2700 E18.64322
G0 F6000 X93.121 Y168.787
G0 X122.544 Y168.635
G0 X122.566 Y160.942
G0 X122.565 Y160.362
G1 F2700 E23.64322
G1 F1200 X121.788 Y160.269 E23.66925
G1 X121.115 Y160.019 E23.69313
G1 X120.507 Y159.598 E23.71772
G1 X120.037 Y159.052 E23.74168
G1 X119.744 Y158.416 E23.76497
G1 X119.64 Y157.704 E23.78891
G1 X119.737 Y157.034 E23.81142
G1 X120.028 Y156.394 E23.83481
G1 X120.495 Y155.84 E23.85891
G1 X121.113 Y155.411 E23.88393
G1 X121.799 Y155.154 E23.90829
G1 X122.575 Y155.063 E23.93428
G1 X123.306 Y155.149 E23.95876
G1 X124.006 Y155.407 E23.98357
G1 X124.61 Y155.824 E24.00799
G1 X125.08 Y156.371 E24.03197
G1 X125.382 Y157.021 E24.05581
G1 X125.482 Y157.722 E24.07936
G1 X125.379 Y158.409 E24.10247
G1 X125.09 Y159.04 E24.12555
G1 X124.602 Y159.607 E24.15043
G1 X124.019 Y160.01 E24.17401
G1 X123.293 Y160.277 E24.19973
G1 X122.565 Y160.362 E24.22411
G1 F2700 E19.22411
G0 F6000 X122.53 Y160.662
G0 X121.758 Y160.511
G0 X121.001 Y160.231
G0 X120.345 Y159.778
G0 X119.834 Y159.182
G0 X119.51 Y158.478
G0 X119.397 Y157.719
G0 X119.506 Y156.959
G0 X119.829 Y156.254
G0 X120.337 Y155.656
G0 X120.868 Y155.287
G0 X122.559 Y154.477
G0 X121.078 Y77.819
G0 X121.064 Y77.234
G1 F2700 E24.22411
G1 F1200 X120.404 Y77.158 E24.24621
G1 X119.762 Y76.921 E24.26897
G1 X119.215 Y76.543 E24.29108
G1 X118.789 Y76.046 E24.31286
G1 X118.51 Y75.441 E24.33502
G1 X118.423 Y74.812 E24.35613
G1 X118.516 Y74.186 E24.37718
G1 X118.779 Y73.613 E24.39815
G1 X119.204 Y73.109 E24.42008
G1 X119.775 Y72.72 E24.44306
G1 X120.415 Y72.487 E24.46571
G1 X121.076 Y72.409 E24.48785
G1 X121.783 Y72.495 E24.51154
G1 X122.418 Y72.736 E24.53413
G1 X122.949 Y73.104 E24.55562
G1 X123.374 Y73.599 E24.57732
G1 X123.643 Y74.181 E24.59864
G1 X123.737 Y74.831 E24.62049
G1 X123.64 Y75.465 E24.64182
G1 X123.382 Y76.027 E24.66239
G1 X122.96 Y76.527 E24.68415
G1 X122.412 Y76.909 E24.70637
G1 X121.764 Y77.153 E24.7294
G1 X121.064 Y77.234 E24.75283
G1 F2700 E19.75283
G0 F6000 X121.029 Y77.531
G0 X120.254 Y77.724
G0 X120.419 Y168.639
G0 X93.155 Y168.528
;TYPE:SKIN
G1 F2700 E24.75283
G1 F1200 X92.768 Y168.509 E24.76572
G1 X92.421 Y168.454 E24.77741
G1 X92.134 Y168.37 E24.78735
G1 X91.836 Y168.241 E24.79815
G1 X91.568 Y168.082 E24.80852
G1 X91.316 Y167.884 E24.81918
G1 X91.121 Y167.683 E24.82849
G1 X90.943 Y167.441 E24.83848
G1 X90.812 Y167.2 E24.84761
G1 X90.726 Y166.964 E24.85596
G1 X90.667 Y166.681 E24.86558
G1 X90.649 Y166.365 E24.8761
G1 X90.468 Y67.295 E28.17119
G1 X90.486 Y66.975 E28.18185
G1 X90.544 Y66.698 E28.19126
G1 X90.631 Y66.457 E28.19978
G1 X90.762 Y66.214 E28.20897
G1 X90.934 Y65.977 E28.21871
G1 X91.137 Y65.769 E28.22837
G1 X91.372 Y65.583 E28.23834
G1 X91.652 Y65.415 E28.2492
G1 X91.941 Y65.289 E28.25969
G1 X92.241 Y65.198 E28.27011
G1 X92.591 Y65.137 E28.28193
G1 X92.965 Y65.12 E28.29438
G1 X147.711 Y65.02 E30.11525
G1 X148.158 Y65.028 E30.13012
G1 X148.47 Y65.074 E30.1406
G1 X148.796 Y65.164 E30.15185
G1 X149.103 Y65.294 E30.16294
G1 X149.345 Y65.435 E30.17226
G1 X149.602 Y65.636 E30.18311
G1 X149.815 Y65.857 E30.19332
G1 X149.975 Y66.075 E30.20231
G1 X150.094 Y66.305 E30.21092
G1 X150.193 Y66.584 E30.22077
G1 X150.243 Y66.86 E30.2301
G1 X150.425 Y166.264 E33.5363
G1 X150.413 Y166.587 E33.54705
G1 X150.334 Y166.983 E33.56048
G1 X150.137 Y167.349 E33.5743
G1 X149.982 Y167.561 E33.58304
G1 X149.66 Y167.894 E33.59844
G1 X149.236 Y168.149 E33.6149
G1 X148.957 Y168.271 E33.62503
G1 X148.669 Y168.355 E33.63501
G1 X148.322 Y168.41 E33.64669
G1 X147.934 Y168.428 E33.65961
G1 X93.155 Y168.528 E35.48157
G1 F2700 E30.48157
G0 F6000 X93.037 Y168.783
G0 X121.763 Y168.636
G0 X122.566 Y160.942
G0 X122.566 Y161.122
G1 F2700 E35.48157
G1 F1200 X123.513 Y161.016 E35.51326
G1 X124.42 Y160.661 E35.54566
G1 X125.134 Y160.154 E35.57478
G1 X125.719 Y159.478 E35.60452
G1 X126.111 Y158.643 E35.6352
G1 X126.247 Y157.721 E35.6662
G1 X126.119 Y156.806 E35.69693
G1 X125.727 Y155.958 E35.728
G1 X125.128 Y155.259 E35.75862
G1 X124.353 Y154.723 E35.78996
G1 X123.51 Y154.411 E35.81985
G1 X122.577 Y154.299 E35.85111
G1 X121.605 Y154.417 E35.88367
G1 X120.765 Y154.728 E35.91347
G1 X119.979 Y155.273 E35.94528
G1 X119.386 Y155.974 E35.97582
G1 X119.006 Y156.803 E36.00615
G1 X118.874 Y157.7 E36.0363
G1 X119.001 Y158.602 E36.0666
G1 X119.387 Y159.461 E36.09792
G1 X119.993 Y160.17 E36.12894
G1 X120.744 Y160.682 E36.15918
G1 X121.606 Y161.015 E36.18991
G1 X122.566 Y161.122 E36.22204
G1 F2700 E31.22204
G0 F6000 X121.749 Y160.775
G0 X120.345 Y159.778
G0 X119.834 Y159.182
G0 X119.51 Y158.478
G0 X119.397 Y157.719
G0 X119.506 Y156.959
G0 X119.829 Y156.254
G0 X120.337 Y155.656
G0 X120.868 Y155.287
G0 X122.559 Y154.477
G0 X121.078 Y77.819
G0 X121.06 Y77.997
G1 F2700 E36.22204
G1 F1200 X121.966 Y77.89 E36.25238
G1 X122.765 Y77.59 E36.28077
G1 X123.476 Y77.096 E36.30956
G1 X124.042 Y76.415 E36.33902
G1 X124.37 Y75.695 E36.36533
G1 X124.503 Y74.838 E36.39418
G1 X124.381 Y73.974 E36.4232
G1 X124.017 Y73.182 E36.45219
G1 X123.459 Y72.537 E36.48055
G1 X122.774 Y72.057 E36.50837
G1 X121.956 Y71.748 E36.53746
G1 X121.075 Y71.65 E36.56694
G1 X120.177 Y71.756 E36.59702
G1 X119.42 Y72.04 E36.62391
G1 X118.694 Y72.544 E36.6533
G1 X118.15 Y73.175 E36.68101
G1 X117.779 Y73.971 E36.71022
G1 X117.657 Y74.815 E36.73859
G1 X117.782 Y75.692 E36.76805
G1 X118.139 Y76.447 E36.79583
G1 X118.701 Y77.111 E36.82476
G1 X119.424 Y77.606 E36.8539
G1 X120.202 Y77.897 E36.88153
G1 X121.06 Y77.997 E36.91026
G1 F2700 E31.91026
G0 F6000 X121.078 Y77.739
G0 X122.516 Y77.128
G0 X123.116 Y76.712
G0 X123.494 Y76.266
G0 X124.324 Y74.818
G0 X124.306 Y64.902
G0 X148.425 Y65.27
G1 F2700 E36.91026
G1 F1200 X150.043 Y66.887 E36.98634
G0 F6000 X150.043 Y67.453
G1 F1200 X147.812 Y65.222 E37.09128
G0 F6000 X147.245 Y65.221
G1 F1200 X150.045 Y68.02 E37.22296
G0 F6000 X150.045 Y68.587
G1 F1200 X146.68 Y65.222 E37.38124
G0 F6000 X146.116 Y65.223
G1 F1200 X150.047 Y69.154 E37.56614
G0 F6000 X150.048 Y69.72
G1 F1200 X145.551 Y65.224 E37.77764
G0 F6000 X144.987 Y65.225
G1 F1200 X150.049 Y70.287 E38.01575
G0 F6000 X150.05 Y70.854
G1 F1200 X144.422 Y65.226 E38.28047
G0 F6000 X143.857 Y65.227
G1 F1200 X150.051 Y71.421 E38.57182
G0 F6000 X150.052 Y71.987
G1 F1200 X143.293 Y65.228 E38.88974
G0 F6000 X142.728 Y65.229
G1 F1200 X150.053 Y72.554 E39.23428
G0 F6000 X150.054 Y73.121
G1 F1200 X142.163 Y65.23 E39.60545
G0 F6000 X141.598 Y65.231
G1 F1200 X150.055 Y73.687 E40.00322
G0 F6000 X150.056 Y74.254
G1 F1200 X141.034 Y65.232 E40.42759
G0 F6000 X140.469 Y65.233
G1 F1200 X150.057 Y74.821 E40.87858
G0 F6000 X150.058 Y75.388
G1 F1200 X139.905 Y65.234 E41.35617
G0 F6000 X139.34 Y65.235
G1 F1200 X150.059 Y75.954 E41.86036
G0 F6000 X150.06 Y76.521
G1 F1200 X138.776 Y65.236 E42.39114
G0 F6000 X138.211 Y65.237
G1 F1200 X150.061 Y77.088 E42.94856
G0 F6000 X150.062 Y77.655
G1 F1200 X137.646 Y65.238 E43.53259
G0 F6000 X137.081 Y65.239
G1 F1200 X150.063 Y78.221 E44.14322
G0 F6000 X150.065 Y78.788
G1 F1200 X136.516 Y65.24 E44.7805
G0 F6000 X135.952 Y65.241
G1 F1200 X150.065 Y79.355 E45.44436
G0 F6000 X150.067 Y79.922
G1 F1200 X135.387 Y65.242 E46.13486
G0 F6000 X134.823 Y65.244
G1 F1200 X150.067 Y80.488 E46.85189
G0 F6000 X150.069 Y81.055
G1 F1200 X134.258 Y65.244 E47.59559
G0 F6000 X133.694 Y65.246
G1 F1200 X150.069 Y81.622 E48.36585
G0 F6000 X150.071 Y82.189
G1 F1200 X133.129 Y65.246 E49.16277
G0 F6000 X132.564 Y65.248
G1 F1200 X150.072 Y82.755 E49.98627
G0 F6000 X150.072 Y83.321
G1 F1200 X131.999 Y65.248 E50.83637
G0 F6000 X131.434 Y65.249
G1 F1200 X150.074 Y83.889 E51.71314
G0 F6000 X150.074 Y84.455
G1 F1200 X130.87 Y65.251 E52.61643
G0 F6000 X130.305 Y65.251
G1 F1200 X150.076 Y85.022 E53.5464
G0 F6000 X150.077 Y85.588
G1 F1200 X129.741 Y65.253 E54.50292
G0 F6000 X129.176 Y65.253
G1 F1200 X150.078 Y86.156 E55.48611
G0 F6000 X150.079 Y86.722
G1 F1200 X128.612 Y65.255 E56.49585
G0 F6000 X128.047 Y65.256
G1 F1200 X150.08 Y87.289 E57.53222
G0 F6000 X150.081 Y87.855
G1 F1200 X127.482 Y65.257 E58.59518
G0 F6000 X126.917 Y65.258
G1 F1200 X150.082 Y88.422 E59.68477
G0 F6000 X150.083 Y88.989
G1 F1200 X126.353 Y65.259 E60.80095
G0 F6000 X125.788 Y65.26
G1 F1200 X150.084 Y89.556 E61.94376
G0 F6000 X150.085 Y90.122
G1 F1200 X125.223 Y65.261 E63.11317
G0 F6000 X124.659 Y65.262
G1 F1200 X150.086 Y90.689 E64.30918
G0 F6000 X150.087 Y91.256
G1 F1200 X124.094 Y65.263 E65.53181
G0 F6000 X123.53 Y65.264
G1 F1200 X150.088 Y91.822 E66.78102
G0 F6000 X150.089 Y92.389
G1 F1200 X122.965 Y65.265 E68.05685
G0 F6000 X122.4 Y65.266
G1 F1200 X150.09 Y92.956 E69.3593
G0 F6000 X150.091 Y93.523
G1 F1200 X121.835 Y65.267 E70.68838
G0 F6000 X121.271 Y65.268
G1 F1200 X150.092 Y94.089 E72.04403
G0 F6000 X150.094 Y94.656
G1 F1200 X120.706 Y65.269 E73.42633
G0 F6000 X120.142 Y65.27
G1 F1200 X150.094 Y95.223 E74.8352
G0 F6000 X150.096 Y95.79
G1 F1200 X119.577 Y65.271 E76.27072
G0 F6000 X119.012 Y65.272
G1 F1200 X150.096 Y96.356 E77.73282
G0 F6000 X150.098 Y96.923
G1 F1200 X118.448 Y65.273 E79.22153
G0 F6000 X117.883 Y65.274
G1 F1200 X150.098 Y97.49 E80.73685
G0 F6000 X150.1 Y98.057
G1 F1200 X117.318 Y65.275 E82.27882
G0 F6000 X116.753 Y65.276
G1 F1200 X150.101 Y98.623 E83.84738
G0 F6000 X150.102 Y99.19
G1 F1200 X124.355 Y73.443 E85.05844
G0 F6000 X124.628 Y74.282
G1 F1200 X150.103 Y99.757 E86.25671
G0 F6000 X150.104 Y100.324
G1 F1200 X124.692 Y74.912 E87.45201
G0 F6000 X124.619 Y75.404
G1 F1200 X150.105 Y100.89 E88.65079
G0 F6000 X150.106 Y101.457
G1 F1200 X124.511 Y75.862 E89.8547
G0 F6000 X124.332 Y76.249
G1 F1200 X150.107 Y102.024 E91.06708
G0 F6000 X150.108 Y102.59
G1 F1200 X124.135 Y76.617 E92.28877
G0 F6000 X123.877 Y76.925
G1 F1200 X150.109 Y103.157 E93.52264
