;FLAVOR:Marlin
;TIME:16963
;Filament used: 16.8285m
;Layer height: 0.2
;MINX:61.464
;MINY:18.733
;MINZ:0.2
;MAXX:189.505
;MAXY:205.064
;MAXZ:10
;TARGET_MACHINE.NAME:Creality Ender-3
;POSTPROCESSED
;Generated with Cura_SteamEngine 5.5.0
M140 S60
M105
M190 S60
M104 S220
M105
M109 S220
M82 ;absolute extrusion mode
; Ender 3 Custom Start G-code
G92 E0 ; Reset Extruder
G28 ; Home all axes
G1 Z2.0 F3000 ; Move Z Axis up little to prevent scratching of Heat Bed
G1 X0.1 Y20 Z0.3 F5000.0 ; Move to start position
G1 X0.1 Y200.0 Z0.3 F1500.0 E15 ; Draw the first line
G1 X0.4 Y200.0 Z0.3 F5000.0 ; Move to side a little
G1 X0.4 Y20 Z0.3 F1500.0 E30 ; Draw the second line
G92 E0 ; Reset Extruder
G1 Z2.0 F3000 ; Move Z Axis up little to prevent scratching of Heat Bed
G1 X5 Y20 Z0.3 F5000.0 ; Move over to prevent blob squish
G92 E0
G92 E0
G1 F2700 E-5
;LAYER_COUNT:50
;LAYER:0
M117 Printing Layer 0 of 49 CE3E3V2_kahkakiw_plaque
M107
G0 F6000 X67.796 Y26.508 Z0.2
;TYPE:SKIRT
G1 F2700 E0
G1 F1200 X68.553 Y24.985 E0.05657
G1 X69.658 Y23.372 E0.1216
G1 X70.299 Y22.646 E0.15381
G1 X72.041 Y21.14 E0.2304
G1 X73.693 Y20.112 E0.29511
G1 X74.91 Y19.574 E0.33937
G1 X76.755 Y19.028 E0.40337
G1 X78.654 Y18.757 E0.46717
G1 X79.576 Y18.733 E0.49784
G1 X160.174 Y18.748 E3.17854
G1 X161.193 Y18.819 E3.21252
G1 X163.364 Y19.252 E3.28615
G1 X164.599 Y19.684 E3.32966
G1 X166.564 Y20.69 E3.40309
G1 X167.693 Y21.493 E3.44917
G1 X169.262 Y22.95 E3.52038
G1 X169.942 Y23.769 E3.55579
G1 X170.912 Y25.274 E3.61534
G1 X171.758 Y27.12 E3.68288
G1 X172.21 Y28.635 E3.73546
G1 X172.404 Y29.7 E3.77147
G1 X172.532 Y31.522 E3.83222
G1 X172.532 Y59.439 E4.76074
G1 X173.977 Y59.504 E4.80885
G1 X176.189 Y60.145 E4.88545
G1 X177.07 Y60.757 E4.92113
G1 X178.738 Y61.661 E4.98423
G1 X180.087 Y62.871 E5.0445
G1 X180.985 Y63.895 E5.0898
G1 X181.675 Y65.481 E5.14733
G1 X182.175 Y67.138 E5.20489
G1 X182.163 Y67.838 E5.22818
G1 X182.565 Y67.838 E5.24155
G1 X184.473 Y68.338 E5.30715
G1 X185.334 Y68.681 E5.33798
G1 X187.026 Y69.928 E5.40789
G1 X188.386 Y71.549 E5.47827
G1 X188.967 Y72.91 E5.52748
G1 X189.387 Y74.293 E5.57556
G1 X189.505 Y75.501 E5.61593
G1 X189.304 Y77.45 E5.68109
G1 X187.668 Y81.891 E5.83851
G1 X187.562 Y82.591 E5.86205
G1 X187.052 Y84.708 E5.93448
G1 X186.377 Y86.506 E5.99836
G1 X184.547 Y88.983 E6.10079
G1 X182.201 Y91.374 E6.2122
G1 X180.141 Y92.999 E6.29947
G1 X178.221 Y96.056 E6.41953
G1 X177.409 Y97.056 E6.46238
G1 X172.532 Y100.731 E6.66549
G1 X172.511 Y192.846 E9.72924
G1 X172.379 Y194.296 E9.77767
G1 X172.132 Y195.48 E9.8179
G1 X171.504 Y197.328 E9.88281
G1 X170.678 Y198.928 E9.9427
G1 X169.496 Y200.585 E10.0104
G1 X168.788 Y201.35 E10.04507
G1 X167.091 Y202.772 E10.11871
G1 X166.129 Y203.376 E10.15649
G1 X164 Y204.356 E10.23444
G1 X163.148 Y204.616 E10.26407
G1 X160.713 Y205.032 E10.34623
G1 X159.782 Y205.064 E10.37721
G1 X79.053 Y205.046 E13.06227
G1 X77.772 Y204.936 E13.10503
G1 X75.941 Y204.546 E13.1673
G1 X74.883 Y204.177 E13.20457
G1 X72.914 Y203.2 E13.27768
G1 X71.544 Y202.247 E13.33318
G1 X70.728 Y201.521 E13.36951
G1 X69.216 Y199.764 E13.44661
G1 X68.317 Y198.321 E13.50315
G1 X67.69 Y196.938 E13.55366
G1 X67.178 Y195.263 E13.61191
G1 X66.861 Y193.271 E13.679
G1 X66.832 Y192.615 E13.70084
G1 X66.832 Y138.259 E15.50873
G1 X66.183 Y137.543 E15.54087
G1 X65.53 Y136.626 E15.57831
G1 X64.891 Y134.786 E15.6431
G1 X64.686 Y133.898 E15.67341
G1 X63.693 Y132.57 E15.72856
G1 X62.951 Y130.53 E15.80076
G1 X62.903 Y130.206 E15.81165
G1 X62.456 Y129.138 E15.85016
G1 X62.374 Y128.303 E15.87807
G1 X61.464 Y125.448 E15.97773
G1 X61.714 Y119.08 E16.1897
G1 X62.985 Y114.853 E16.3365
G1 X64.238 Y111.417 E16.45815
G1 X65.105 Y109.75 E16.52064
G1 X66.832 Y108.092 E16.60027
G1 X66.832 Y31.302 E19.15432
G1 X66.853 Y30.587 E19.17811
G1 X67.323 Y27.866 E19.26995
G1 X67.796 Y26.508 E19.31778
G0 F6000 X68.174 Y26.64
G1 F1200 X68.883 Y25.211 E19.37083
G1 X69.959 Y23.636 E19.43428
G1 X70.561 Y22.949 E19.46466
G1 X72.303 Y21.443 E19.54125
G1 X73.904 Y20.452 E19.60387
G1 X75.024 Y19.958 E19.64459
G1 X76.869 Y19.412 E19.70858
G1 X78.665 Y19.157 E19.76892
G1 X79.576 Y19.133 E19.79923
G1 X160.146 Y19.147 E22.479
G1 X161.165 Y19.218 E22.51297
G1 X163.232 Y19.63 E22.58307
G1 X164.467 Y20.062 E22.62659
G1 X166.332 Y21.016 E22.69626
G1 X167.461 Y21.819 E22.74234
G1 X168.954 Y23.206 E22.81012
G1 X169.634 Y24.025 E22.84553
G1 X170.548 Y25.441 E22.90158
G1 X171.394 Y27.287 E22.96912
G1 X171.816 Y28.707 E23.01839
G1 X172.01 Y29.772 E23.0544
G1 X172.132 Y31.522 E23.11274
G1 X172.132 Y59.794 E24.05307
G1 X172.761 Y59.85 E24.07408
G1 X173.914 Y59.902 E24.11247
G1 X176.016 Y60.511 E24.18525
G1 X176.868 Y61.103 E24.21976
G1 X178.507 Y61.991 E24.28176
G1 X179.786 Y63.135 E24.33883
G1 X180.643 Y64.112 E24.38206
G1 X181.292 Y65.597 E24.43596
G1 X181.774 Y67.194 E24.49144
G1 X181.756 Y68.238 E24.52617
G1 X182.514 Y68.238 E24.55138
G1 X184.325 Y68.71 E24.61363
G1 X185.14 Y69.035 E24.64281
G1 X186.751 Y70.222 E24.70937
G1 X188.04 Y71.758 E24.77606
G1 X188.584 Y73.026 E24.82195
G1 X188.993 Y74.373 E24.86877
G1 X189.103 Y75.499 E24.9064
G1 X188.911 Y77.361 E24.96866
G1 X187.278 Y81.795 E25.12582
G1 X187.173 Y82.497 E25.14943
G1 X186.663 Y84.614 E25.22186
G1 X186.023 Y86.311 E25.28218
G1 X184.225 Y88.745 E25.38283
G1 X181.953 Y91.06 E25.49071
G1 X179.838 Y92.728 E25.5803
G1 X177.882 Y95.843 E25.70264
G1 X177.128 Y96.767 E25.7423
G1 X172.132 Y100.532 E25.95037
G1 X172.113 Y192.81 E29.01955
G1 X171.987 Y194.214 E29.06644
G1 X171.74 Y195.398 E29.10666
G1 X171.125 Y197.199 E29.16996
G1 X170.352 Y198.696 E29.226
G1 X169.202 Y200.313 E29.29199
G1 X168.494 Y201.078 E29.32666
G1 X166.878 Y202.433 E29.39681
G1 X165.916 Y203.037 E29.43459
G1 X163.883 Y203.973 E29.50903
G1 X163.031 Y204.233 E29.53865
G1 X160.699 Y204.632 E29.61734
G1 X159.782 Y204.664 E29.64786
G1 X79.087 Y204.647 E32.33179
G1 X77.806 Y204.537 E32.37455
G1 X76.073 Y204.168 E32.43348
G1 X75.015 Y203.799 E32.47075
G1 X73.142 Y202.871 E32.54027
G1 X71.809 Y201.947 E32.59422
G1 X71.031 Y201.259 E32.62876
G1 X69.556 Y199.552 E32.7038
G1 X68.657 Y198.109 E32.76034
G1 X68.073 Y196.821 E32.80738
G1 X67.561 Y195.146 E32.86564
G1 X67.261 Y193.253 E32.92938
G1 X67.232 Y192.597 E32.95122
G1 X67.232 Y138.105 E34.76363
G1 X66.479 Y137.274 E34.80093
G1 X65.89 Y136.443 E34.83481
G1 X65.281 Y134.696 E34.89635
G1 X65.057 Y133.726 E34.92946
G1 X64.049 Y132.378 E34.98544
G1 X63.341 Y130.432 E35.05432
G1 X63.292 Y130.098 E35.06554
G1 X62.848 Y129.038 E35.10377
G1 X62.768 Y128.223 E35.131
G1 X61.867 Y125.395 E35.22972
G1 X62.112 Y119.145 E35.43776
G1 X63.361 Y114.99 E35.58206
G1 X64.593 Y111.602 E35.70197
G1 X65.43 Y109.993 E35.76229
G1 X67.232 Y108.263 E35.84537
G1 X67.232 Y31.314 E38.40471
G1 X67.253 Y30.599 E38.4285
G1 X67.701 Y27.998 E38.51628
G1 X68.174 Y26.64 E38.56411
G0 F6000 X68.533 Y26.817
G1 F1200 X69.214 Y25.436 E38.61533
G1 X70.26 Y23.9 E38.67713
G1 X70.862 Y23.213 E38.70751
G1 X72.514 Y21.783 E38.78019
G1 X74.115 Y20.792 E38.84281
G1 X75.138 Y20.342 E38.87998
G1 X76.983 Y19.796 E38.94398
G1 X78.676 Y19.557 E39.00085
G1 X79.576 Y19.533 E39.03079
G1 X160.118 Y19.546 E41.70963
G1 X161.137 Y19.617 E41.7436
G1 X163.1 Y20.008 E41.81018
G1 X164.335 Y20.44 E41.85369
G1 X166.101 Y21.343 E41.91966
G1 X167.189 Y22.113 E41.964
G1 X168.646 Y23.462 E42.03004
G1 X169.326 Y24.281 E42.06544
G1 X170.184 Y25.608 E42.118
G1 X171.03 Y27.454 E42.18554
G1 X171.422 Y28.779 E42.2315
G1 X171.616 Y29.844 E42.2675
G1 X171.732 Y31.522 E42.32345
G1 X171.732 Y60.173 E43.27638
G1 X172.009 Y60.182 E43.2856
G1 X172.198 Y60.207 E43.29194
G1 X172.743 Y60.25 E43.31012
G1 X173.851 Y60.3 E43.34701
G1 X175.84 Y60.876 E43.41589
G1 X176.659 Y61.445 E43.44906
G1 X178.279 Y62.323 E43.51034
G1 X179.485 Y63.399 E43.5641
G1 X180.301 Y64.329 E43.60525
G1 X180.925 Y65.757 E43.65708
G1 X181.373 Y67.249 E43.70889
G1 X181.349 Y68.638 E43.7551
G1 X182.463 Y68.638 E43.79215
G1 X184.224 Y69.097 E43.85268
G1 X184.944 Y69.387 E43.8785
G1 X186.476 Y70.516 E43.94179
G1 X187.696 Y71.97 E44.00492
G1 X188.201 Y73.142 E44.04737
G1 X188.599 Y74.453 E44.09294
G1 X188.701 Y75.497 E44.12782
G1 X188.518 Y77.272 E44.18717
G1 X186.888 Y81.699 E44.34408
G1 X186.784 Y82.403 E44.36775
G1 X186.274 Y84.52 E44.44018
G1 X185.669 Y86.117 E44.49698
G1 X183.903 Y88.507 E44.59581
G1 X181.705 Y90.746 E44.70017
G1 X179.654 Y92.371 E44.7872
G1 X179.545 Y92.442 E44.79153
G1 X177.543 Y95.63 E44.91674
G1 X176.848 Y96.477 E44.95318
G1 X171.732 Y100.333 E45.16626
G1 X171.715 Y192.775 E48.24089
G1 X171.595 Y194.133 E48.28623
G1 X171.361 Y195.269 E48.32481
G1 X170.746 Y197.07 E48.38811
G1 X170.026 Y198.465 E48.44032
G1 X168.908 Y200.041 E48.50459
G1 X168.2 Y200.806 E48.53926
G1 X166.664 Y202.095 E48.60595
G1 X165.748 Y202.674 E48.64199
G1 X163.765 Y203.591 E48.71466
G1 X162.963 Y203.839 E48.74258
G1 X160.685 Y204.232 E48.81946
G1 X159.782 Y204.264 E48.84952
G1 X79.121 Y204.248 E51.53231
G1 X77.84 Y204.138 E51.57508
G1 X76.205 Y203.79 E51.63067
G1 X75.147 Y203.421 E51.66794
G1 X73.32 Y202.513 E51.7358
G1 X72.073 Y201.646 E51.78631
G1 X71.334 Y200.997 E51.81903
G1 X69.859 Y199.29 E51.89406
G1 X69.021 Y197.943 E51.94682
G1 X68.456 Y196.704 E51.99212
G1 X67.944 Y195.029 E52.05037
G1 X67.661 Y193.235 E52.11078
G1 X67.632 Y192.579 E52.13262
G1 X67.632 Y137.951 E53.94955
G1 X66.775 Y137.005 E53.99201
G1 X66.25 Y136.26 E54.02232
G1 X65.671 Y134.606 E54.08061
G1 X65.428 Y133.554 E54.11652
G1 X64.405 Y132.186 E54.17333
G1 X63.717 Y130.295 E54.24026
G1 X63.684 Y129.997 E54.25023
G1 X63.24 Y128.938 E54.28843
G1 X63.162 Y128.143 E54.315
G1 X62.27 Y125.342 E54.41277
G1 X62.51 Y119.21 E54.61687
G1 X63.737 Y115.126 E54.75871
G1 X64.948 Y111.787 E54.87684
G1 X65.755 Y110.236 E54.93499
G1 X67.632 Y108.434 E55.02154
G1 X67.632 Y31.326 E57.58616
G1 X67.653 Y30.611 E57.60995
G1 X68.079 Y28.129 E57.69371
G1 X68.533 Y26.817 E57.73988
G0 F6000 X68.892 Y26.994
G1 F1200 X69.573 Y25.613 E57.7911
G1 X70.561 Y24.164 E57.84943
G1 X71.163 Y23.477 E57.87981
G1 X72.775 Y22.086 E57.95063
G1 X74.277 Y21.158 E58.00935
G1 X75.252 Y20.726 E58.04482
G1 X77.097 Y20.18 E58.10881
G1 X78.687 Y19.957 E58.16221
G1 X79.576 Y19.933 E58.19179
G1 X160.09 Y19.945 E60.8697
G1 X161.109 Y20.016 E60.90367
G1 X162.969 Y20.386 E60.96675
G1 X164.154 Y20.797 E61.00847
G1 X165.87 Y21.67 E61.0725
G1 X166.958 Y22.44 E61.11684
G1 X168.338 Y23.718 E61.17939
G1 X169.018 Y24.537 E61.2148
G1 X169.82 Y25.775 E61.26386
G1 X170.666 Y27.621 E61.3314
G1 X171.028 Y28.851 E61.37404
G1 X171.222 Y29.916 E61.41005
G1 X171.332 Y31.522 E61.46359
G1 X171.332 Y60.563 E62.4295
G1 X171.957 Y60.579 E62.45029
G1 X172.154 Y60.605 E62.4569
G1 X172.722 Y60.65 E62.47585
G1 X173.788 Y60.698 E62.51134
G1 X175.664 Y61.241 E62.5763
G1 X176.45 Y61.787 E62.60813
G1 X178.048 Y62.653 E62.66858
G1 X179.184 Y63.663 E62.71914
G1 X179.959 Y64.546 E62.75822
G1 X180.558 Y65.917 E62.80798
G1 X180.972 Y67.303 E62.85609
G1 X180.942 Y69.038 E62.91381
G1 X182.413 Y69.038 E62.96273
G1 X184.074 Y69.468 E63.0198
G1 X184.749 Y69.74 E63.044
G1 X186.201 Y70.81 E63.10399
G1 X187.351 Y72.181 E63.16351
G1 X187.818 Y73.258 E63.20255
G1 X188.205 Y74.533 E63.24687
G1 X188.299 Y75.495 E63.27902
G1 X188.125 Y77.183 E63.33546
G1 X186.498 Y81.603 E63.49211
G1 X186.395 Y82.309 E63.51584
G1 X185.885 Y84.426 E63.58827
G1 X185.315 Y85.922 E63.64152
G1 X183.581 Y88.269 E63.73857
G1 X181.457 Y90.432 E63.8394
G1 X179.406 Y92.057 E63.92643
G1 X179.255 Y92.152 E63.93237
G1 X177.204 Y95.417 E64.06061
G1 X176.569 Y96.187 E64.0938
G1 X171.332 Y100.134 E64.31192
G1 X171.316 Y192.741 E67.39204
G1 X171.203 Y194.053 E67.43584
G1 X170.982 Y195.14 E67.47273
G1 X170.367 Y196.941 E67.53603
G1 X169.699 Y198.234 E67.58443
G1 X168.614 Y199.769 E67.64696
G1 X167.906 Y200.534 E67.68162
G1 X166.449 Y201.758 E67.74491
G1 X165.58 Y202.311 E67.77917
G1 X163.645 Y203.209 E67.85013
G1 X162.894 Y203.445 E67.87631
G1 X160.671 Y203.832 E67.95136
G1 X159.782 Y203.864 E67.98094
G1 X79.155 Y203.849 E70.66261
G1 X77.874 Y203.739 E70.70537
G1 X76.336 Y203.412 E70.75767
G1 X75.324 Y203.062 E70.79329
G1 X73.548 Y202.184 E70.85918
G1 X72.336 Y201.344 E70.90823
G1 X71.637 Y200.735 E70.93906
G1 X70.162 Y199.028 E71.0141
G1 X69.385 Y197.776 E71.0631
G1 X68.839 Y196.587 E71.10662
G1 X68.327 Y194.912 E71.16488
G1 X68.061 Y193.217 E71.22194
G1 X68.032 Y192.561 E71.24378
G1 X68.032 Y137.796 E73.06527
G1 X67.102 Y136.774 E73.11123
G1 X66.607 Y136.072 E73.1398
G1 X66.061 Y134.516 E73.19465
G1 X65.791 Y133.344 E73.23465
G1 X65.676 Y133.217 E73.24035
G1 X64.761 Y131.994 E73.29115
G1 X64.11 Y130.204 E73.3545
G1 X64.076 Y129.896 E73.36481
G1 X63.632 Y128.838 E73.40297
G1 X63.556 Y128.063 E73.42887
G1 X62.673 Y125.289 E73.5257
G1 X62.908 Y119.275 E73.72587
G1 X64.113 Y115.262 E73.86523
G1 X65.303 Y111.972 E73.9816
G1 X66.08 Y110.479 E74.03758
G1 X68.032 Y108.605 E74.12758
G1 X68.032 Y31.338 E76.69749
G1 X68.053 Y30.623 E76.72128
G1 X68.457 Y28.259 E76.80105
G1 X68.892 Y26.994 E76.84554
G0 F6000 X69.251 Y27.171
G1 F1200 X69.932 Y25.79 E76.89675
G1 X70.862 Y24.428 E76.95161
G1 X71.464 Y23.741 E76.98199
G1 X73.036 Y22.389 E77.05095
G1 X74.44 Y21.523 E77.10582
G1 X75.366 Y21.11 E77.13954
G1 X77.211 Y20.564 E77.20353
G1 X78.698 Y20.357 E77.25347
G1 X79.576 Y20.333 E77.28268
G1 X160.062 Y20.344 E79.95966
G1 X161.081 Y20.415 E79.99363
G1 X162.839 Y20.764 E80.05324
G1 X163.973 Y21.154 E80.09313
G1 X165.639 Y21.997 E80.15523
G1 X166.727 Y22.767 E80.19956
G1 X168.03 Y23.974 E80.25864
G1 X168.71 Y24.793 E80.29404
G1 X169.457 Y25.942 E80.33963
G1 X170.282 Y27.735 E80.40527
G1 X170.634 Y28.923 E80.44648
G1 X170.828 Y29.988 E80.48249
G1 X170.932 Y31.522 E80.53363
G1 X170.932 Y60.954 E81.51254
G1 X171.905 Y60.976 E81.54491
G1 X172.11 Y61.003 E81.55179
G1 X172.701 Y61.05 E81.5715
G1 X173.725 Y61.096 E81.6056
G1 X175.491 Y61.607 E81.66674
G1 X176.248 Y62.133 E81.6974
G1 X177.82 Y62.985 E81.75687
G1 X178.883 Y63.927 E81.80411
G1 X179.617 Y64.763 E81.84112
G1 X180.191 Y66.077 E81.88881
G1 X180.571 Y67.357 E81.93322
G1 X180.541 Y69.088 E81.9908
G1 X180.444 Y69.438 E82.00288
G1 X182.363 Y69.438 E82.06671
G1 X183.924 Y69.839 E82.12031
G1 X184.554 Y70.093 E82.1429
G1 X185.926 Y71.104 E82.19959
G1 X187.006 Y72.391 E82.25547
G1 X187.435 Y73.374 E82.29114
G1 X187.811 Y74.613 E82.33421
G1 X187.897 Y75.493 E82.36361
G1 X187.732 Y77.094 E82.41714
G1 X186.108 Y81.507 E82.57355
G1 X186.006 Y82.216 E82.59737
G1 X185.511 Y84.284 E82.66809
G1 X184.961 Y85.727 E82.71946
G1 X183.259 Y88.031 E82.81473
G1 X181.208 Y90.119 E82.91208
G1 X179.192 Y91.719 E82.99768
G1 X178.964 Y91.863 E83.00665
G1 X176.895 Y95.162 E83.13617
G1 X176.288 Y95.898 E83.1679
G1 X170.932 Y99.935 E83.39098
G1 X170.917 Y192.707 E86.47658
G1 X170.804 Y194.019 E86.52038
G1 X170.603 Y195.011 E86.55405
G1 X169.988 Y196.812 E86.61735
G1 X169.372 Y198.004 E86.66197
G1 X168.32 Y199.497 E86.72272
G1 X167.612 Y200.262 E86.75739
G1 X166.233 Y201.421 E86.8173
G1 X165.411 Y201.948 E86.84978
G1 X163.525 Y202.827 E86.91898
G1 X162.774 Y203.063 E86.94517
G1 X160.656 Y203.432 E87.01667
G1 X159.782 Y203.464 E87.04576
G1 X79.189 Y203.45 E89.7263
G1 X77.908 Y203.34 E89.76906
G1 X76.467 Y203.034 E89.81806
G1 X75.455 Y202.684 E89.85367
G1 X73.726 Y201.826 E89.91787
G1 X72.599 Y201.042 E89.96353
G1 X71.9 Y200.433 E89.99437
G1 X70.465 Y198.767 E90.0675
G1 X69.748 Y197.608 E90.11283
G1 X69.222 Y196.47 E90.15453
G1 X68.71 Y194.795 E90.21278
G1 X68.461 Y193.199 E90.26651
G1 X68.432 Y192.543 E90.28835
G1 X68.432 Y137.641 E92.11439
G1 X67.429 Y136.543 E92.16386
G1 X66.965 Y135.885 E92.19064
G1 X66.451 Y134.426 E92.24209
G1 X66.207 Y133.367 E92.27823
G1 X66.13 Y133.118 E92.2869
G1 X65.996 Y132.977 E92.29337
G1 X65.117 Y131.802 E92.34218
G1 X64.503 Y130.113 E92.40195
G1 X64.468 Y129.795 E92.41259
G1 X64.024 Y128.738 E92.45072
G1 X63.95 Y127.983 E92.47595
G1 X63.076 Y125.236 E92.57183
G1 X63.306 Y119.34 E92.76808
G1 X64.489 Y115.398 E92.90497
G1 X65.658 Y112.157 E93.01956
G1 X66.405 Y110.722 E93.07337
G1 X68.432 Y108.776 E93.16683
G1 X68.432 Y31.35 E95.74203
G1 X68.453 Y30.635 E95.76582
G1 X68.836 Y28.388 E95.84163
G1 X69.251 Y27.171 E95.8844
G0 F6000 X69.61 Y27.348
