;FLAVOR:Marlin
;TIME:32886
;Filament used: 39.9321m
;Layer height: 0.2
;MINX:65.825
;MINY:21.594
;MINZ:0.2
;MAXX:172.09
;MAXY:208.207
;MAXZ:13
;TARGET_MACHINE.NAME:Creality Ender-3
;POSTPROCESSED
;Generated with Cura_SteamEngine 5.5.0
M140 S60
M105
M190 S60
M104 S220
M105
M109 S220
M82 ;absolute extrusion mode
; Ender 3 Custom Start G-code
G92 E0 ; Reset Extruder
G28 ; Home all axes
G1 Z2.0 F3000 ; Move Z Axis up little to prevent scratching of Heat Bed
G1 X0.1 Y20 Z0.3 F5000.0 ; Move to start position
G1 X0.1 Y200.0 Z0.3 F1500.0 E15 ; Draw the first line
G1 X0.4 Y200.0 Z0.3 F5000.0 ; Move to side a little
G1 X0.4 Y20 Z0.3 F1500.0 E30 ; Draw the second line
G92 E0 ; Reset Extruder
G1 Z2.0 F3000 ; Move Z Axis up little to prevent scratching of Heat Bed
G1 X5 Y20 Z0.3 F5000.0 ; Move over to prevent blob squish
G92 E0
G92 E0
G1 F2700 E-5
;LAYER_COUNT:65
;LAYER:0
M107
G0 F6000 X67.495 Y29.024 Z0.2
;TYPE:SKIRT
G1 F2700 E0
G1 F1200 X67.832 Y28.333 E0.02557
G1 X69.28 Y26.15 E0.1127
G1 X69.751 Y25.613 E0.13646
G1 X71.903 Y23.762 E0.23087
G1 X72.599 Y23.324 E0.25822
G1 X74.703 Y22.355 E0.33526
G1 X76.283 Y21.897 E0.38998
G1 X78.209 Y21.62 E0.45469
G1 X79.218 Y21.594 E0.48826
G1 X159.921 Y21.901 E3.17248
G1 X161.376 Y22.041 E3.22109
G1 X162.509 Y22.281 E3.25961
G1 X164.295 Y22.887 E3.32234
G1 X165.824 Y23.658 E3.3793
G1 X167.385 Y24.745 E3.44256
G1 X168.838 Y26.111 E3.50889
G1 X169.442 Y26.838 E3.54033
G1 X170.488 Y28.45 E3.60424
G1 X171.34 Y30.33 E3.67289
G1 X171.733 Y31.659 E3.71899
G1 X172.059 Y33.741 E3.78908
G1 X172.09 Y34.714 E3.82146
G1 X171.504 Y196.003 E9.18599
G1 X171.419 Y197.055 E9.22109
G1 X170.973 Y199.182 E9.29337
G1 X170.649 Y200.111 E9.3261
G1 X169.644 Y202.137 E9.40132
G1 X169.028 Y203.05 E9.43795
G1 X167.33 Y204.924 E9.52206
G1 X166.434 Y205.66 E9.56063
G1 X164.694 Y206.754 E9.62899
G1 X163.267 Y207.39 E9.68095
G1 X161.805 Y207.837 E9.7318
G1 X159.647 Y208.178 E9.80446
G1 X158.699 Y208.207 E9.83601
G1 X78.187 Y207.919 E12.51387
G1 X77.143 Y207.842 E12.54869
G1 X75.018 Y207.425 E12.62071
G1 X73.693 Y206.968 E12.66733
G1 X72.088 Y206.166 E12.727
G1 X70.576 Y205.122 E12.78812
G1 X69.195 Y203.844 E12.8507
G1 X68.285 Y202.732 E12.89849
G1 X67.195 Y200.96 E12.96768
G1 X66.627 Y199.672 E13.0145
G1 X66.3 Y198.659 E13.04991
G1 X65.85 Y196.012 E13.13921
G1 X65.825 Y195.087 E13.16999
G1 X66.404 Y33.977 E18.52856
G1 X66.505 Y32.456 E18.57926
G1 X66.623 Y31.748 E18.60314
G1 X67.495 Y29.024 E18.69827
G0 F6000 X67.855 Y29.199
G1 F1200 X68.192 Y28.508 E18.72384
G1 X69.581 Y26.414 E18.80741
G1 X70.052 Y25.877 E18.83117
G1 X72.116 Y24.101 E18.92173
G1 X72.812 Y23.663 E18.94909
G1 X74.815 Y22.739 E19.02245
G1 X76.341 Y22.293 E19.07533
G1 X78.219 Y22.02 E19.13845
G1 X79.216 Y21.994 E19.17162
G1 X159.883 Y22.299 E21.85464
G1 X161.294 Y22.433 E21.90178
G1 X162.38 Y22.66 E21.93868
G1 X164.166 Y23.266 E22.00141
G1 X165.595 Y23.986 E22.05463
G1 X167.156 Y25.073 E22.1179
G1 X168.53 Y26.367 E22.18067
G1 X169.134 Y27.094 E22.21211
G1 X170.152 Y28.667 E22.27443
G1 X170.956 Y30.443 E22.33927
G1 X171.349 Y31.772 E22.38536
G1 X171.659 Y33.754 E22.45208
G1 X171.69 Y34.713 E22.484
G1 X171.105 Y195.971 E27.8475
G1 X171.02 Y197.023 E27.8826
G1 X170.595 Y199.05 E27.95148
G1 X170.271 Y199.979 E27.98421
G1 X169.312 Y201.913 E28.05601
G1 X168.696 Y202.826 E28.09264
G1 X167.075 Y204.616 E28.17296
G1 X166.221 Y205.321 E28.20979
G1 X164.481 Y206.415 E28.27815
G1 X163.15 Y207.007 E28.3266
G1 X161.688 Y207.454 E28.37745
G1 X159.635 Y207.778 E28.44658
G1 X158.7 Y207.807 E28.47769
G1 X78.215 Y207.52 E31.15465
G1 X77.22 Y207.449 E31.18783
G1 X75.095 Y207.032 E31.25986
G1 X73.872 Y206.61 E31.30289
G1 X72.267 Y205.808 E31.36256
G1 X70.848 Y204.828 E31.41992
G1 X69.467 Y203.55 E31.4825
G1 X68.626 Y202.522 E31.52668
G1 X67.536 Y200.75 E31.59587
G1 X67.008 Y199.549 E31.63951
G1 X66.681 Y198.536 E31.67491
G1 X66.25 Y196.001 E31.76044
G1 X66.225 Y195.088 E31.79081
G1 X66.803 Y34.003 E37.14856
G1 X66.9 Y32.522 E37.19792
G1 X67.018 Y31.814 E37.22179
G1 X67.855 Y29.199 E37.31312
G0 F6000 X68.215 Y29.374
G1 F1200 X68.552 Y28.683 E37.33869
G1 X69.882 Y26.678 E37.41871
G1 X70.353 Y26.141 E37.44247
G1 X72.329 Y24.44 E37.52919
G1 X73.025 Y24.002 E37.55654
G1 X74.928 Y23.123 E37.62626
G1 X76.399 Y22.689 E37.67727
G1 X78.277 Y22.416 E37.74039
G1 X79.214 Y22.394 E37.77156
G1 X159.846 Y22.697 E40.45341
G1 X161.213 Y22.825 E40.49908
G1 X162.251 Y23.039 E40.53433
G1 X164.037 Y23.645 E40.59706
G1 X165.414 Y24.343 E40.6484
G1 X166.882 Y25.365 E40.7079
G1 X168.222 Y26.623 E40.76903
G1 X168.826 Y27.35 E40.80046
G1 X169.816 Y28.884 E40.86119
G1 X170.572 Y30.556 E40.92222
G1 X170.965 Y31.885 E40.96831
G1 X171.259 Y33.767 E41.03167
G1 X171.29 Y34.712 E41.06312
G1 X170.706 Y195.939 E46.42558
G1 X170.621 Y196.991 E46.46069
G1 X170.217 Y198.919 E46.52621
G1 X169.912 Y199.802 E46.55728
G1 X168.98 Y201.689 E46.62728
G1 X168.364 Y202.602 E46.66391
G1 X166.819 Y204.308 E46.74046
G1 X166.008 Y204.982 E46.77553
G1 X164.268 Y206.076 E46.84389
G1 X163.033 Y206.624 E46.88883
G1 X161.571 Y207.071 E46.93968
G1 X159.622 Y207.378 E47.0053
G1 X158.701 Y207.407 E47.03595
G1 X78.242 Y207.121 E49.71205
G1 X77.297 Y207.056 E49.74355
G1 X75.172 Y206.639 E49.81558
G1 X74.05 Y206.252 E49.85505
G1 X72.494 Y205.478 E49.91286
G1 X71.12 Y204.534 E49.9683
G1 X69.739 Y203.256 E50.03088
G1 X68.966 Y202.312 E50.07146
G1 X67.902 Y200.589 E50.13882
G1 X67.389 Y199.426 E50.1811
G1 X67.062 Y198.413 E50.2165
G1 X66.65 Y195.99 E50.29825
G1 X66.625 Y195.089 E50.32822
G1 X67.202 Y34.029 E55.68514
G1 X67.295 Y32.588 E55.73316
G1 X67.413 Y31.88 E55.75704
G1 X68.215 Y29.374 E55.84455
G0 F6000 X68.575 Y29.549
G1 F1200 X68.912 Y28.858 E55.87012
G1 X70.183 Y26.942 E55.94659
G1 X70.654 Y26.405 E55.97035
G1 X72.542 Y24.779 E56.05323
G1 X73.238 Y24.341 E56.08058
G1 X75.041 Y23.507 E56.14665
G1 X76.512 Y23.073 E56.19766
G1 X78.287 Y22.816 E56.25731
G1 X79.213 Y22.794 E56.28812
G1 X159.809 Y23.095 E58.96877
G1 X161.132 Y23.217 E59.01296
G1 X162.17 Y23.431 E59.04821
G1 X163.856 Y24.002 E59.10742
G1 X165.233 Y24.7 E59.15876
G1 X166.653 Y25.693 E59.2164
G1 X167.914 Y26.879 E59.27397
G1 X168.518 Y27.606 E59.30541
G1 X169.452 Y29.05 E59.36261
G1 X170.188 Y30.669 E59.42176
G1 X170.581 Y31.998 E59.46785
G1 X170.859 Y33.78 E59.52784
G1 X170.89 Y34.711 E59.55882
G1 X170.307 Y195.907 E64.92026
G1 X170.222 Y196.959 E64.95536
G1 X169.838 Y198.79 E65.01759
G1 X169.553 Y199.625 E65.04693
G1 X168.648 Y201.465 E65.11513
G1 X168.032 Y202.378 E65.15176
G1 X166.563 Y204 E65.22455
G1 X165.752 Y204.674 E65.25962
G1 X164.105 Y205.711 E65.32436
G1 X162.916 Y206.241 E65.36765
G1 X161.454 Y206.688 E65.4185
G1 X159.609 Y206.978 E65.48062
G1 X158.702 Y207.007 E65.5108
G1 X78.268 Y206.722 E68.18606
G1 X77.374 Y206.663 E68.21586
G1 X75.249 Y206.246 E68.28789
G1 X74.182 Y205.874 E68.32547
G1 X72.72 Y205.148 E68.37977
G1 X71.392 Y204.24 E68.43327
G1 X70.011 Y202.962 E68.49585
G1 X69.306 Y202.101 E68.53287
G1 X68.268 Y200.427 E68.59838
G1 X67.77 Y199.303 E68.63927
G1 X67.443 Y198.29 E68.67467
G1 X67.05 Y195.979 E68.75264
G1 X67.025 Y195.09 E68.78222
G1 X67.601 Y34.054 E74.13833
G1 X67.69 Y32.654 E74.18499
G1 X67.808 Y31.946 E74.20887
G1 X68.575 Y29.549 E74.29257
G0 F6000 X68.935 Y29.724
G1 F1200 X69.272 Y29.033 E74.31814
G1 X70.484 Y27.206 E74.39106
G1 X70.955 Y26.669 E74.41482
G1 X72.755 Y25.118 E74.49385
G1 X73.451 Y24.68 E74.5212
G1 X75.154 Y23.891 E74.58363
G1 X76.625 Y23.457 E74.63464
G1 X78.297 Y23.216 E74.69082
G1 X79.212 Y23.194 E74.72126
G1 X159.773 Y23.493 E77.40075
G1 X161.051 Y23.609 E77.44343
G1 X162.089 Y23.823 E77.47868
G1 X163.675 Y24.359 E77.53436
G1 X165.052 Y25.057 E77.58571
G1 X166.423 Y26.02 E77.64144
G1 X167.606 Y27.135 E77.69551
G1 X168.21 Y27.862 E77.72694
G1 X169.116 Y29.267 E77.78255
G1 X169.804 Y30.782 E77.83789
G1 X170.197 Y32.111 E77.88398
G1 X170.459 Y33.794 E77.94063
G1 X170.49 Y34.71 E77.97112
G1 X169.908 Y195.875 E83.33152
G1 X169.823 Y196.927 E83.36663
G1 X169.459 Y198.661 E83.42556
G1 X169.174 Y199.496 E83.4549
G1 X168.316 Y201.241 E83.51958
G1 X167.7 Y202.154 E83.55621
G1 X166.307 Y203.692 E83.62522
G1 X165.496 Y204.366 E83.6603
G1 X163.941 Y205.346 E83.72143
G1 X162.799 Y205.858 E83.76306
G1 X161.337 Y206.305 E83.81391
G1 X159.596 Y206.578 E83.87252
G1 X158.703 Y206.607 E83.90224
G1 X78.293 Y206.323 E86.5767
G1 X77.45 Y206.27 E86.60479
G1 X75.381 Y205.868 E86.6749
G1 X74.314 Y205.496 E86.71248
G1 X72.899 Y204.79 E86.76508
G1 X71.663 Y203.946 E86.81486
G1 X70.32 Y202.707 E86.87563
G1 X69.646 Y201.89 E86.91086
G1 X68.608 Y200.216 E86.97637
G1 X68.151 Y199.18 E87.01403
G1 X67.824 Y198.167 E87.04943
G1 X67.45 Y195.968 E87.12362
G1 X67.425 Y195.091 E87.1528
G1 X68 Y34.079 E92.50812
G1 X68.085 Y32.72 E92.55341
G1 X68.203 Y32.012 E92.57728
G1 X68.935 Y29.724 E92.65718
G0 F6000 X69.295 Y29.899
G1 F1200 X69.632 Y29.208 E92.68275
G1 X70.785 Y27.47 E92.75212
G1 X71.256 Y26.933 E92.77588
G1 X72.97 Y25.456 E92.85113
G1 X73.62 Y25.043 E92.87675
G1 X75.267 Y24.275 E92.93719
G1 X76.738 Y23.841 E92.9882
G1 X78.307 Y23.616 E93.04092
G1 X79.211 Y23.594 E93.07099
G1 X159.737 Y23.891 E95.74932
G1 X160.97 Y24.001 E95.79049
G1 X162.008 Y24.215 E95.82574
G1 X163.494 Y24.716 E95.8779
G1 X164.871 Y25.414 E95.92925
G1 X166.149 Y26.312 E95.9812
G1 X167.298 Y27.391 E96.03362
G1 X167.902 Y28.118 E96.06506
G1 X168.779 Y29.483 E96.11902
G1 X169.421 Y30.896 E96.17064
G1 X169.802 Y32.173 E96.21496
G1 X170.059 Y33.808 E96.27001
G1 X170.09 Y34.709 E96.3
G1 X169.509 Y195.843 E101.65937
G1 X169.424 Y196.895 E101.69447
G1 X169.08 Y198.532 E101.75011
G1 X168.795 Y199.367 E101.77946
G1 X167.984 Y201.017 E101.84061
G1 X167.368 Y201.93 E101.87724
G1 X166.051 Y203.384 E101.94249
G1 X165.24 Y204.058 E101.97756
G1 X163.776 Y204.981 E102.03512
G1 X162.682 Y205.475 E102.07505
G1 X161.22 Y205.922 E102.1259
G1 X159.583 Y206.178 E102.181
G1 X158.704 Y206.207 E102.21026
G1 X78.317 Y205.924 E104.88395
G1 X77.526 Y205.877 E104.91031
G1 X75.513 Y205.49 E104.97849
G1 X74.446 Y205.118 E105.01607
G1 X73.124 Y204.459 E105.0652
G1 X71.934 Y203.651 E105.11304
G1 X70.628 Y202.451 E105.17203
G1 X69.986 Y201.679 E105.20543
G1 X68.974 Y200.054 E105.2691
G1 X68.532 Y199.057 E105.30537
G1 X68.205 Y198.044 E105.34078
G1 X67.85 Y195.956 E105.41122
G1 X67.825 Y195.092 E105.43997
G1 X68.399 Y34.104 E110.79449
G1 X68.48 Y32.786 E110.83841
G1 X68.598 Y32.078 E110.86228
G1 X69.295 Y29.899 E110.93837
G0 F6000 X69.655 Y30.074
G1 F1200 X69.992 Y29.383 E110.96394
G1 X71.086 Y27.734 E111.02976
G1 X71.557 Y27.197 E111.05352
G1 X73.185 Y25.794 E111.125
G1 X73.835 Y25.381 E111.15061
G1 X75.38 Y24.659 E111.20733
G1 X76.851 Y24.225 E111.25834
G1 X78.317 Y24.016 E111.3076
G1 X79.21 Y23.994 E111.33731
G1 X159.702 Y24.29 E114.0145
G1 X160.889 Y24.393 E114.05413
G1 X161.927 Y24.607 E114.08938
G1 X163.366 Y25.095 E114.13992
G1 X164.689 Y25.77 E114.18931
G1 X165.876 Y26.604 E114.23757
G1 X166.99 Y27.647 E114.28832
G1 X167.594 Y28.374 E114.31976
G1 X168.442 Y29.699 E114.37208
G1 X169.038 Y31.011 E114.42001
G1 X169.407 Y32.236 E114.46256
G1 X169.659 Y33.822 E114.51597
G1 X169.69 Y34.708 E114.54546
G1 X169.11 Y195.811 E119.9038
G1 X169.025 Y196.863 E119.93891
G1 X168.701 Y198.403 E119.99125
G1 X168.416 Y199.238 E120.02059
G1 X167.652 Y200.793 E120.07822
G1 X167.036 Y201.706 E120.11485
G1 X165.795 Y203.076 E120.17633
G1 X164.984 Y203.75 E120.21141
G1 X163.61 Y204.617 E120.26544
G1 X162.565 Y205.092 E120.30362
G1 X161.103 Y205.539 E120.35447
G1 X159.57 Y205.778 E120.40607
G1 X158.705 Y205.807 E120.43486
G1 X78.339 Y205.525 E123.10786
G1 X77.601 Y205.484 E123.13244
G1 X75.645 Y205.112 E123.19867
G1 X74.578 Y204.74 E123.23625
G1 X73.349 Y204.128 E123.28191
G1 X72.159 Y203.32 E123.32976
G1 X70.936 Y202.195 E123.38502
G1 X70.294 Y201.423 E123.41842
G1 X69.339 Y199.891 E123.47846
G1 X68.913 Y198.934 E123.51331
G1 X68.586 Y197.921 E123.54871
G1 X68.25 Y195.944 E123.61541
G1 X68.225 Y195.093 E123.64372
G1 X68.798 Y34.128 E128.99748
G1 X68.875 Y32.852 E129.03999
G1 X68.993 Y32.144 E129.06387
G1 X69.655 Y30.074 E129.13615
G0 F6000 X70.015 Y30.249
G1 F1200 X70.352 Y29.558 E129.16172
G1 X71.387 Y27.998 E129.22399
G1 X71.858 Y27.461 E129.24774
G1 X73.4 Y26.132 E129.31545
G1 X74.05 Y25.719 E129.34107
G1 X75.493 Y25.043 E129.39407
G1 X76.964 Y24.609 E129.44508
G1 X78.327 Y24.416 E129.49086
G1 X79.209 Y24.394 E129.52021
G1 X159.668 Y24.689 E132.1963
G1 X160.809 Y24.785 E132.23439
G1 X161.799 Y24.986 E132.26798
G1 X163.238 Y25.474 E132.31852
G1 X164.46 Y26.098 E132.36416
G1 X165.603 Y26.897 E132.41054
G1 X166.682 Y27.903 E132.45961
G1 X167.286 Y28.63 E132.49105
G1 X168.105 Y29.914 E132.5417
G1 X168.655 Y31.128 E132.58603
G1 X169.012 Y32.3 E132.62678
G1 X169.259 Y33.836 E132.67852
G1 X169.29 Y34.707 E132.70751
G1 X168.711 Y195.779 E138.06482
G1 X168.626 Y196.831 E138.09992
G1 X168.322 Y198.274 E138.14897
G1 X168.037 Y199.109 E138.17832
G1 X167.32 Y200.569 E138.23242
G1 X166.704 Y201.482 E138.26905
G1 X165.539 Y202.768 E138.32676
G1 X164.728 Y203.442 E138.36184
G1 X163.443 Y204.253 E138.41238
G1 X162.448 Y204.709 E138.44878
G1 X160.986 Y205.156 E138.49963
G1 X159.556 Y205.378 E138.54776
G1 X158.706 Y205.407 E138.57605
G1 X78.359 Y205.125 E141.24842
G1 X77.675 Y205.091 E141.27119
G1 X75.777 Y204.734 E141.33543
G1 X74.71 Y204.362 E141.37301
G1 X73.574 Y203.797 E141.41521
G1 X72.384 Y202.989 E141.46305
G1 X71.244 Y201.939 E141.5146
G1 X70.602 Y201.167 E141.548
G1 X69.704 Y199.728 E141.60441
G1 X69.294 Y198.811 E141.63782
G1 X68.967 Y197.798 E141.67323
G1 X68.65 Y195.932 E141.73618
G1 X68.625 Y195.094 E141.76406
G1 X69.197 Y34.152 E147.11705
G1 X69.27 Y32.918 E147.15816
G1 X69.388 Y32.21 E147.18204
G1 X70.015 Y30.249 E147.25051
G0 F6000 X70.375 Y30.424
G1 F1200 X70.712 Y29.733 E147.27608
G1 X71.688 Y28.262 E147.3348
G1 X72.159 Y27.725 E147.35856
G1 X73.615 Y26.47 E147.42249
G1 X74.265 Y26.057 E147.4481
G1 X75.606 Y25.427 E147.49738
G1 X77.077 Y24.993 E147.54839
G1 X78.337 Y24.816 E147.59071
G1 X79.208 Y24.794 E147.61969
G1 X159.634 Y25.088 E150.29469
G1 X160.775 Y25.184 E150.33277
G1 X161.671 Y25.365 E150.36318
G1 X163.11 Y25.853 E150.41371
G1 X164.231 Y26.426 E150.45559
G1 X165.374 Y27.225 E150.50197
G1 X166.374 Y28.159 E150.54748
G1 X166.978 Y28.886 E150.57892
G1 X167.741 Y30.08 E150.62605
G1 X168.272 Y31.245 E150.66863
G1 X168.629 Y32.417 E150.70938
G1 X168.859 Y33.85 E150.75765
G1 X168.89 Y34.706 E150.78614
G1 X168.312 Y195.747 E156.14242
G1 X168.227 Y196.799 E156.17752
G1 X167.943 Y198.145 E156.22328
G1 X167.658 Y198.98 E156.25262
G1 X166.988 Y200.345 E156.3032
G1 X166.372 Y201.258 E156.33983
G1 X165.283 Y202.46 E156.39378
G1 X164.472 Y203.134 E156.42885
G1 X163.275 Y203.89 E156.47594
G1 X162.331 Y204.326 E156.51052
G1 X160.869 Y204.773 E156.56137
G1 X159.542 Y204.978 E156.60603
G1 X158.707 Y205.007 E156.63382
G1 X78.379 Y204.725 E159.30556
G1 X77.695 Y204.691 E159.32833
G1 X75.909 Y204.356 E159.38877
G1 X74.842 Y203.984 E159.42636
G1 X73.799 Y203.466 E159.46509
G1 X72.609 Y202.658 E159.51293
G1 X71.552 Y201.683 E159.56076
G1 X70.91 Y200.911 E159.59415
G1 X70.069 Y199.564 E159.64697
G1 X69.675 Y198.688 E159.67892
G1 X69.348 Y197.675 E159.71432
G1 X69.05 Y195.92 E159.77353
G1 X69.025 Y195.095 E159.80098
G1 X69.596 Y34.175 E165.15324
G1 X69.665 Y32.984 E165.19291
G1 X69.783 Y32.276 E165.21679
G1 X70.375 Y30.424 E165.28146
G0 F6000 X70.735 Y30.599
G1 F1200 X71.072 Y29.908 E165.30703
G1 X71.989 Y28.526 E165.36219
G1 X72.46 Y27.989 E165.38595
G1 X73.83 Y26.808 E165.44611
G1 X74.48 Y26.395 E165.47172
G1 X75.719 Y25.811 E165.51728
G1 X77.19 Y25.377 E165.56829
G1 X78.347 Y25.216 E165.60714
G1 X79.207 Y25.194 E165.63576
G1 X159.6 Y25.487 E168.30966
G1 X160.741 Y25.583 E168.34774
G1 X161.543 Y25.744 E168.37495
G1 X162.982 Y26.232 E168.42548
G1 X164.002 Y26.754 E168.46359
G1 X165.145 Y27.553 E168.50998
G1 X166.066 Y28.415 E168.55193
G1 X166.67 Y29.142 E168.58337
G1 X167.377 Y30.247 E168.627
G1 X167.889 Y31.362 E168.66781
G1 X168.246 Y32.534 E168.70856
G1 X168.459 Y33.865 E168.75339
G1 X168.49 Y34.705 E168.78135
G1 X167.913 Y195.715 E174.1366
G1 X167.828 Y196.767 E174.1717
G1 X167.564 Y198.016 E174.21416
