;FLAVOR:Marlin
;TIME:8639
;Filament used: 7.9589m
;Layer height: 0.2
;MINX:61.464
;MINY:18.733
;MINZ:0.2
;MAXX:189.505
;MAXY:205.064
;MAXZ:2
;TARGET_MACHINE.NAME:Creality Ender-3
;POSTPROCESSED
;Generated with Cura_SteamEngine 5.5.0
M140 S60
M105
M190 S60
M104 S220
M105
M109 S220
M82 ;absolute extrusion mode
; Ender 3 Custom Start G-code
G92 E0 ; Reset Extruder
G28 ; Home all axes
G1 Z2.0 F3000 ; Move Z Axis up little to prevent scratching of Heat Bed
G1 X0.1 Y20 Z0.3 F5000.0 ; Move to start position
G1 X0.1 Y200.0 Z0.3 F1500.0 E15 ; Draw the first line
G1 X0.4 Y200.0 Z0.3 F5000.0 ; Move to side a little
G1 X0.4 Y20 Z0.3 F1500.0 E30 ; Draw the second line
G92 E0 ; Reset Extruder
G1 Z2.0 F3000 ; Move Z Axis up little to prevent scratching of Heat Bed
G1 X5 Y20 Z0.3 F5000.0 ; Move over to prevent blob squish
G92 E0
G92 E0
G1 F2700 E-5
;LAYER_COUNT:10
;LAYER:0
M117 Printing Layer 0 of 9 CE3E3V2_kahkakiw_plaque_flat
M107
G0 F6000 X67.796 Y26.508 Z0.2
;TYPE:SKIRT
G1 F2700 E0
G1 F1200 X68.553 Y24.985 E0.05657
G1 X69.659 Y23.371 E0.12164
G1 X70.34 Y22.605 E0.15573
G1 X72.092 Y21.101 E0.23253
G1 X73.593 Y20.164 E0.29138
G1 X74.856 Y19.594 E0.33747
G1 X76.808 Y19.016 E0.40518
G1 X78.6 Y18.761 E0.46538
G1 X79.617 Y18.733 E0.49922
G1 X160.27 Y18.752 E3.18175
G1 X161.207 Y18.819 E3.213
G1 X163.364 Y19.252 E3.28617
G1 X164.599 Y19.684 E3.32969
G1 X166.564 Y20.69 E3.40311
G1 X167.693 Y21.493 E3.44919
G1 X169.262 Y22.95 E3.52041
G1 X169.942 Y23.769 E3.55581
G1 X170.912 Y25.274 E3.61536
G1 X171.758 Y27.12 E3.6829
G1 X172.21 Y28.635 E3.73549
G1 X172.404 Y29.7 E3.77149
G1 X172.532 Y31.522 E3.83224
G1 X172.532 Y59.467 E4.7617
G1 X173.689 Y59.467 E4.80018
G1 X175.925 Y60.004 E4.87666
G1 X176.984 Y60.708 E4.91896
G1 X178.866 Y61.73 E4.99019
G1 X180.325 Y63.096 E5.05666
G1 X180.994 Y63.927 E5.09214
G1 X181.691 Y65.519 E5.14995
G1 X182.174 Y67.103 E5.20503
G1 X182.162 Y67.838 E5.22948
G1 X182.565 Y67.838 E5.24288
G1 X184.473 Y68.338 E5.30848
G1 X185.334 Y68.681 E5.33931
G1 X187.026 Y69.928 E5.40922
G1 X188.386 Y71.549 E5.47959
G1 X188.967 Y72.91 E5.52881
G1 X189.387 Y74.293 E5.57689
G1 X189.505 Y75.494 E5.61702
G1 X189.304 Y77.494 E5.68388
G1 X187.726 Y81.721 E5.83395
G1 X187.688 Y82.062 E5.84536
G1 X186.959 Y85.146 E5.95076
G1 X186.269 Y86.654 E6.00592
G1 X184.254 Y89.329 E6.11731
G1 X182.754 Y90.873 E6.1889
G1 X180.191 Y92.932 E6.29825
G1 X178.384 Y95.84 E6.41212
G1 X177.441 Y97.043 E6.46296
G1 X172.532 Y100.718 E6.66692
G1 X172.511 Y192.846 E9.73111
G1 X172.379 Y194.296 E9.77954
G1 X172.132 Y195.48 E9.81976
G1 X171.504 Y197.328 E9.88468
G1 X170.678 Y198.928 E9.94457
G1 X169.496 Y200.585 E10.01227
G1 X168.788 Y201.35 E10.04694
G1 X167.091 Y202.772 E10.12057
G1 X166.129 Y203.376 E10.15835
G1 X164 Y204.356 E10.23631
G1 X163.148 Y204.616 E10.26594
G1 X160.713 Y205.032 E10.3481
G1 X159.782 Y205.064 E10.37908
G1 X79.07 Y205.046 E13.06357
G1 X77.772 Y204.936 E13.1069
G1 X75.941 Y204.546 E13.16916
G1 X74.883 Y204.177 E13.20643
G1 X72.914 Y203.2 E13.27954
G1 X71.544 Y202.247 E13.33505
G1 X70.728 Y201.521 E13.37137
G1 X69.216 Y199.764 E13.44847
G1 X68.317 Y198.321 E13.50502
G1 X67.69 Y196.938 E13.55552
G1 X67.178 Y195.263 E13.61378
G1 X66.861 Y193.271 E13.68087
G1 X66.832 Y192.615 E13.70271
G1 X66.832 Y138.257 E15.51066
G1 X66.16 Y137.495 E15.54445
G1 X65.407 Y136.408 E15.58843
G1 X64.852 Y134.587 E15.65175
G1 X64.73 Y133.94 E15.67365
G1 X63.69 Y132.571 E15.73083
G1 X62.985 Y130.614 E15.80002
G1 X62.922 Y130.34 E15.80937
G1 X62.574 Y129.556 E15.8379
G1 X62.378 Y128.318 E15.87959
G1 X61.464 Y125.46 E15.97939
G1 X61.714 Y119.08 E16.19175
G1 X62.985 Y114.853 E16.33856
G1 X64.238 Y111.417 E16.4602
G1 X65.105 Y109.75 E16.5227
G1 X66.832 Y108.092 E16.60232
G1 X66.832 Y31.302 E19.15637
G1 X66.853 Y30.587 E19.18016
G1 X67.323 Y27.866 E19.272
G1 X67.796 Y26.508 E19.31983
G0 F6000 X68.174 Y26.64
G1 F1200 X68.883 Y25.211 E19.37289
G1 X69.959 Y23.636 E19.43633
G1 X70.601 Y22.909 E19.46859
G1 X72.353 Y21.405 E19.54539
G1 X73.758 Y20.528 E19.60047
G1 X74.97 Y19.978 E19.64474
G1 X76.922 Y19.4 E19.71245
G1 X78.611 Y19.161 E19.76919
G1 X79.617 Y19.133 E19.80266
G1 X160.241 Y19.151 E22.48422
G1 X161.178 Y19.218 E22.51547
G1 X163.232 Y19.63 E22.58515
G1 X164.467 Y20.062 E22.62866
G1 X166.332 Y21.016 E22.69834
G1 X167.461 Y21.819 E22.74442
G1 X168.954 Y23.206 E22.8122
G1 X169.634 Y24.025 E22.8476
G1 X170.548 Y25.441 E22.90366
G1 X171.394 Y27.287 E22.9712
G1 X171.816 Y28.707 E23.02047
G1 X172.01 Y29.772 E23.05647
G1 X172.132 Y31.522 E23.11482
G1 X172.132 Y59.78 E24.05468
G1 X172.563 Y59.867 E24.06931
G1 X173.642 Y59.867 E24.1052
G1 X175.762 Y60.376 E24.17771
G1 X176.78 Y61.053 E24.21837
G1 X178.63 Y62.057 E24.28838
G1 X180.013 Y63.347 E24.35128
G1 X180.65 Y64.138 E24.38506
G1 X181.308 Y65.636 E24.43948
G1 X181.773 Y67.161 E24.49251
G1 X181.755 Y68.238 E24.52834
G1 X182.514 Y68.238 E24.55358
G1 X184.325 Y68.71 E24.61583
G1 X185.14 Y69.035 E24.64501
G1 X186.751 Y70.222 E24.71156
G1 X188.04 Y71.758 E24.77826
G1 X188.584 Y73.026 E24.82415
G1 X188.993 Y74.373 E24.87097
G1 X189.103 Y75.493 E24.9084
G1 X188.911 Y77.401 E24.97218
G1 X187.333 Y81.629 E25.12228
G1 X187.299 Y81.97 E25.13368
G1 X186.579 Y85.014 E25.23772
G1 X185.924 Y86.446 E25.29009
G1 X183.934 Y89.088 E25.4001
G1 X182.503 Y90.561 E25.46841
G1 X179.888 Y92.662 E25.57998
G1 X178.069 Y95.593 E25.69471
G1 X177.158 Y96.755 E25.74382
G1 X172.132 Y100.518 E25.95265
G1 X172.113 Y192.81 E29.02229
G1 X171.987 Y194.214 E29.06918
G1 X171.74 Y195.398 E29.1094
G1 X171.125 Y197.199 E29.1727
G1 X170.352 Y198.696 E29.22874
G1 X169.202 Y200.313 E29.29473
G1 X168.494 Y201.078 E29.3294
G1 X166.878 Y202.433 E29.39955
G1 X165.916 Y203.037 E29.43733
G1 X163.883 Y203.973 E29.51177
G1 X163.031 Y204.233 E29.54139
G1 X160.699 Y204.632 E29.62008
G1 X159.782 Y204.664 E29.6506
G1 X79.104 Y204.647 E32.33396
G1 X77.806 Y204.537 E32.37729
G1 X76.073 Y204.168 E32.43622
G1 X75.015 Y203.799 E32.47349
G1 X73.142 Y202.871 E32.54301
G1 X71.809 Y201.947 E32.59696
G1 X71.031 Y201.259 E32.6315
G1 X69.556 Y199.552 E32.70653
G1 X68.657 Y198.109 E32.76308
G1 X68.073 Y196.821 E32.81012
G1 X67.561 Y195.146 E32.86837
G1 X67.261 Y193.253 E32.93212
G1 X67.232 Y192.597 E32.95396
G1 X67.232 Y138.106 E34.76634
G1 X66.489 Y137.267 E34.80361
G1 X65.77 Y136.229 E34.84561
G1 X65.245 Y134.513 E34.9053
G1 X65.105 Y133.772 E34.93038
G1 X64.045 Y132.376 E34.98868
G1 X63.361 Y130.478 E35.05578
G1 X63.304 Y130.214 E35.06476
G1 X62.96 Y129.44 E35.09293
G1 X62.768 Y128.224 E35.13388
G1 X61.867 Y125.406 E35.23228
G1 X62.112 Y119.145 E35.44068
G1 X63.361 Y114.99 E35.58499
G1 X64.593 Y111.602 E35.70489
G1 X65.43 Y109.993 E35.76521
G1 X67.232 Y108.263 E35.8483
G1 X67.232 Y31.314 E38.40763
G1 X67.253 Y30.599 E38.43142
G1 X67.701 Y27.998 E38.51921
G1 X68.174 Y26.64 E38.56704
G0 F6000 X68.533 Y26.817
G1 F1200 X69.214 Y25.436 E38.61825
G1 X70.26 Y23.9 E38.68006
G1 X70.862 Y23.213 E38.71044
G1 X72.614 Y21.709 E38.78724
G1 X73.969 Y20.868 E38.84028
G1 X75.084 Y20.362 E38.881
G1 X77.036 Y19.784 E38.94872
G1 X78.622 Y19.561 E39.00198
G1 X79.617 Y19.533 E39.03509
G1 X160.212 Y19.55 E41.71569
G1 X161.149 Y19.617 E41.74694
G1 X163.1 Y20.008 E41.81312
G1 X164.335 Y20.44 E41.85663
G1 X166.101 Y21.343 E41.9226
G1 X167.189 Y22.113 E41.96694
G1 X168.646 Y23.462 E42.03298
G1 X169.326 Y24.281 E42.06838
G1 X170.184 Y25.608 E42.12094
G1 X171.03 Y27.454 E42.18848
G1 X171.422 Y28.779 E42.23444
G1 X171.616 Y29.844 E42.27044
G1 X171.732 Y31.522 E42.32639
G1 X171.732 Y60.107 E43.27713
G1 X172.524 Y60.267 E43.304
G1 X173.595 Y60.267 E43.33962
G1 X175.599 Y60.748 E43.40817
G1 X176.576 Y61.398 E43.4472
G1 X178.394 Y62.385 E43.516
G1 X179.74 Y63.64 E43.57721
G1 X180.305 Y64.347 E43.60731
G1 X180.925 Y65.753 E43.65842
G1 X181.372 Y67.219 E43.7094
G1 X181.348 Y68.638 E43.7566
G1 X182.463 Y68.638 E43.79369
G1 X184.224 Y69.097 E43.85421
G1 X184.944 Y69.387 E43.88003
G1 X186.476 Y70.516 E43.94333
G1 X187.696 Y71.97 E44.00646
G1 X188.201 Y73.142 E44.0489
G1 X188.599 Y74.453 E44.09447
G1 X188.701 Y75.492 E44.12919
G1 X188.518 Y77.308 E44.1899
G1 X186.94 Y81.537 E44.34003
G1 X186.91 Y81.878 E44.35142
G1 X186.199 Y84.882 E44.45409
G1 X185.579 Y86.238 E44.50368
G1 X183.614 Y88.847 E44.61232
G1 X182.216 Y90.282 E44.67895
G1 X179.584 Y92.394 E44.79119
G1 X177.754 Y95.346 E44.90671
G1 X176.875 Y96.467 E44.95409
G1 X171.732 Y100.318 E45.16779
G1 X171.715 Y192.775 E48.24292
G1 X171.595 Y194.133 E48.28826
G1 X171.361 Y195.269 E48.32684
G1 X170.746 Y197.07 E48.39014
G1 X170.026 Y198.465 E48.44235
G1 X168.908 Y200.041 E48.50662
G1 X168.2 Y200.806 E48.54129
G1 X166.664 Y202.095 E48.60798
G1 X165.748 Y202.674 E48.64402
G1 X163.765 Y203.591 E48.71669
G1 X162.963 Y203.839 E48.74461
G1 X160.685 Y204.232 E48.82149
G1 X159.782 Y204.264 E48.85155
G1 X79.138 Y204.248 E51.53378
G1 X77.84 Y204.138 E51.5771
G1 X76.205 Y203.79 E51.6327
G1 X75.147 Y203.421 E51.66997
G1 X73.32 Y202.513 E51.73783
G1 X72.073 Y201.646 E51.78834
G1 X71.334 Y200.997 E51.82105
G1 X69.859 Y199.29 E51.89609
G1 X69.021 Y197.943 E51.94885
G1 X68.456 Y196.704 E51.99414
G1 X67.944 Y195.029 E52.0524
G1 X67.661 Y193.235 E52.11281
G1 X67.632 Y192.579 E52.13465
G1 X67.632 Y137.953 E53.95151
G1 X66.818 Y137.039 E53.99222
G1 X66.133 Y136.05 E54.03224
G1 X65.638 Y134.439 E54.08829
G1 X65.523 Y133.828 E54.10897
G1 X65.438 Y133.548 E54.1187
G1 X64.4 Y132.181 E54.17579
G1 X63.737 Y130.342 E54.24081
G1 X63.689 Y130.095 E54.24918
G1 X63.347 Y129.326 E54.27717
G1 X63.158 Y128.13 E54.31744
G1 X62.27 Y125.352 E54.41444
G1 X62.51 Y119.21 E54.61888
G1 X63.737 Y115.126 E54.76072
G1 X64.948 Y111.787 E54.87885
G1 X65.755 Y110.236 E54.937
G1 X67.632 Y108.434 E55.02355
G1 X67.632 Y31.326 E57.58817
G1 X67.653 Y30.611 E57.61196
G1 X68.079 Y28.129 E57.69572
G1 X68.533 Y26.817 E57.74189
G0 F6000 X68.892 Y26.994
G1 F1200 X69.573 Y25.613 E57.79311
G1 X70.561 Y24.164 E57.85144
G1 X71.163 Y23.477 E57.88182
G1 X72.825 Y22.049 E57.9547
G1 X74.18 Y21.208 E58.00774
G1 X75.198 Y20.746 E58.04492
G1 X77.15 Y20.168 E58.11263
G1 X78.633 Y19.961 E58.16244
G1 X79.617 Y19.933 E58.19518
G1 X160.183 Y19.949 E60.87481
G1 X161.12 Y20.016 E60.90606
G1 X162.969 Y20.386 E60.96878
G1 X164.154 Y20.797 E61.01049
G1 X165.87 Y21.67 E61.07453
G1 X166.958 Y22.44 E61.11886
G1 X168.338 Y23.718 E61.18142
G1 X169.018 Y24.537 E61.21682
G1 X169.82 Y25.775 E61.26589
G1 X170.666 Y27.621 E61.33342
G1 X171.028 Y28.851 E61.37607
G1 X171.222 Y29.916 E61.41207
G1 X171.332 Y31.522 E61.46562
G1 X171.332 Y60.531 E62.43046
G1 X171.812 Y60.531 E62.44642
G1 X172.485 Y60.667 E62.46926
G1 X173.548 Y60.667 E62.50462
G1 X175.436 Y61.12 E62.56919
G1 X176.372 Y61.743 E62.60659
G1 X178.158 Y62.713 E62.67419
G1 X179.467 Y63.933 E62.7337
G1 X179.96 Y64.556 E62.76013
G1 X180.542 Y65.87 E62.80793
G1 X180.971 Y67.277 E62.85685
G1 X180.941 Y69.038 E62.91543
G1 X182.413 Y69.038 E62.96439
G1 X184.074 Y69.468 E63.02146
G1 X184.749 Y69.74 E63.04566
G1 X186.201 Y70.81 E63.10565
G1 X187.351 Y72.181 E63.16517
G1 X187.818 Y73.258 E63.20421
G1 X188.205 Y74.533 E63.24853
G1 X188.299 Y75.491 E63.28054
G1 X188.125 Y77.215 E63.33818
G1 X186.545 Y81.45 E63.48852
G1 X186.521 Y81.786 E63.49972
G1 X185.819 Y84.75 E63.60103
G1 X185.234 Y86.03 E63.64784
G1 X183.294 Y88.606 E63.7551
G1 X181.93 Y90.002 E63.82001
G1 X179.279 Y92.126 E63.93299
G1 X177.439 Y95.099 E64.04928
G1 X176.592 Y96.179 E64.09493
G1 X171.332 Y100.118 E64.3135
G1 X171.316 Y192.741 E67.39415
G1 X171.203 Y194.053 E67.43795
G1 X170.982 Y195.14 E67.47484
G1 X170.367 Y196.941 E67.53814
G1 X169.699 Y198.234 E67.58655
G1 X168.614 Y199.769 E67.64907
G1 X167.906 Y200.534 E67.68374
G1 X166.449 Y201.758 E67.74703
G1 X165.58 Y202.311 E67.78129
G1 X163.645 Y203.209 E67.85224
G1 X162.894 Y203.445 E67.87842
G1 X160.671 Y203.832 E67.95347
G1 X159.782 Y203.864 E67.98306
G1 X79.172 Y203.849 E70.66416
G1 X77.874 Y203.739 E70.70748
G1 X76.336 Y203.412 E70.75978
G1 X75.324 Y203.062 E70.7954
G1 X73.548 Y202.184 E70.86129
G1 X72.336 Y201.344 E70.91034
G1 X71.637 Y200.735 E70.94117
G1 X70.162 Y199.028 E71.01621
G1 X69.385 Y197.776 E71.06522
G1 X68.839 Y196.587 E71.10873
G1 X68.327 Y194.912 E71.16699
G1 X68.061 Y193.217 E71.22405
G1 X68.032 Y192.561 E71.24589
G1 X68.032 Y137.8 E73.06725
G1 X67.117 Y136.773 E73.113
G1 X66.497 Y135.874 E73.14932
G1 X66.031 Y134.365 E73.20185
G1 X65.911 Y133.727 E73.22344
G1 X65.795 Y133.346 E73.23669
G1 X65.716 Y133.259 E73.2406
G1 X64.756 Y131.989 E73.29355
G1 X64.13 Y130.266 E73.35452
G1 X64.071 Y129.962 E73.36482
G1 X64.022 Y129.869 E73.36832
G1 X63.734 Y129.212 E73.39218
G1 X63.548 Y128.036 E73.43178
G1 X62.673 Y125.298 E73.52738
G1 X62.908 Y119.275 E73.72786
G1 X64.113 Y115.262 E73.86722
G1 X65.303 Y111.972 E73.98358
G1 X66.08 Y110.479 E74.03956
G1 X68.032 Y108.605 E74.12956
G1 X68.032 Y31.338 E76.69947
G1 X68.053 Y30.623 E76.72326
G1 X68.457 Y28.259 E76.80303
G1 X68.892 Y26.994 E76.84752
G0 F6000 X69.251 Y27.171
G1 F1200 X69.932 Y25.79 E76.89874
G1 X70.862 Y24.428 E76.95359
G1 X71.464 Y23.741 E76.98397
G1 X73.036 Y22.389 E77.05293
G1 X74.391 Y21.548 E77.10598
G1 X75.312 Y21.13 E77.13962
G1 X77.264 Y20.552 E77.20733
G1 X78.645 Y20.361 E77.2537
G1 X79.617 Y20.333 E77.28604
G1 X160.154 Y20.348 E79.96471
G1 X161.091 Y20.415 E79.99595
G1 X162.839 Y20.764 E80.05524
G1 X163.973 Y21.154 E80.09512
G1 X165.639 Y21.997 E80.15723
G1 X166.727 Y22.767 E80.20156
G1 X168.03 Y23.974 E80.26063
G1 X168.71 Y24.793 E80.29604
G1 X169.457 Y25.942 E80.34162
G1 X170.282 Y27.735 E80.40727
G1 X170.634 Y28.923 E80.44848
G1 X170.828 Y29.988 E80.48448
G1 X170.932 Y31.522 E80.53562
G1 X170.932 Y60.931 E81.51377
G1 X171.773 Y60.931 E81.54174
G1 X172.446 Y61.067 E81.56458
G1 X173.501 Y61.067 E81.59967
G1 X175.273 Y61.492 E81.66027
G1 X176.168 Y62.088 E81.69604
G1 X177.925 Y63.042 E81.76253
G1 X179.153 Y64.181 E81.81824
G1 X179.616 Y64.766 E81.84306
G1 X180.159 Y65.987 E81.8875
G1 X180.57 Y67.335 E81.93437
G1 X180.54 Y69.111 E81.99345
G1 X180.448 Y69.438 E82.00475
G1 X182.363 Y69.438 E82.06844
G1 X183.924 Y69.839 E82.12205
G1 X184.554 Y70.093 E82.14464
G1 X185.926 Y71.104 E82.20133
G1 X187.006 Y72.391 E82.25721
G1 X187.435 Y73.374 E82.29288
G1 X187.811 Y74.613 E82.33594
G1 X187.897 Y75.49 E82.36525
G1 X187.732 Y77.122 E82.41981
G1 X186.148 Y81.369 E82.57057
G1 X186.132 Y81.694 E82.58139
G1 X185.439 Y84.618 E82.68134
G1 X184.889 Y85.822 E82.72537
G1 X182.974 Y88.365 E82.83125
G1 X181.644 Y89.722 E82.89444
G1 X178.976 Y91.857 E83.0081
G1 X177.124 Y94.852 E83.12522
G1 X176.309 Y95.891 E83.16914
G1 X170.932 Y99.918 E83.39257
G1 X170.917 Y192.707 E86.47875
G1 X170.804 Y194.019 E86.52255
G1 X170.603 Y195.011 E86.55621
G1 X169.988 Y196.812 E86.61951
G1 X169.372 Y198.004 E86.66414
G1 X168.32 Y199.497 E86.72488
G1 X167.612 Y200.262 E86.75955
G1 X166.233 Y201.421 E86.81946
G1 X165.411 Y201.948 E86.85194
G1 X163.525 Y202.827 E86.92115
G1 X162.774 Y203.063 E86.94733
G1 X160.656 Y203.432 E87.01884
G1 X159.782 Y203.464 E87.04792
G1 X79.206 Y203.45 E89.72789
G1 X77.908 Y203.34 E89.77122
G1 X76.467 Y203.034 E89.82022
G1 X75.455 Y202.684 E89.85583
G1 X73.726 Y201.826 E89.92003
G1 X72.599 Y201.042 E89.96569
G1 X71.9 Y200.433 E89.99653
G1 X70.465 Y198.767 E90.06966
G1 X69.748 Y197.608 E90.11499
G1 X69.222 Y196.47 E90.15669
G1 X68.71 Y194.795 E90.21494
G1 X68.461 Y193.199 E90.26867
G1 X68.432 Y192.543 E90.29051
G1 X68.432 Y137.647 E92.11635
G1 X67.416 Y136.507 E92.16714
G1 X66.861 Y135.698 E92.19978
G1 X66.424 Y134.291 E92.24878
G1 X66.299 Y133.626 E92.27128
G1 X66.151 Y133.141 E92.28815
G1 X66.035 Y133.018 E92.29377
G1 X65.112 Y131.797 E92.34468
G1 X64.506 Y130.129 E92.40371
G1 X64.454 Y129.831 E92.41377
G1 X64.388 Y129.708 E92.41841
G1 X64.121 Y129.099 E92.44053
G1 X63.938 Y127.942 E92.47949
G1 X63.076 Y125.244 E92.57369
G1 X63.306 Y119.34 E92.77021
G1 X64.489 Y115.398 E92.9071
G1 X65.658 Y112.157 E93.02169
G1 X66.405 Y110.722 E93.0755
G1 X68.432 Y108.776 E93.16896
G1 X68.432 Y31.35 E95.74416
G1 X68.453 Y30.635 E95.76795
G1 X68.836 Y28.388 E95.84376
G1 X69.251 Y27.171 E95.88653
G0 F6000 X69.61 Y27.348
G1 F1200 X70.291 Y25.967 E95.93774
G1 X71.163 Y24.692 E95.98912
G1 X71.765 Y24.005 E96.0195
