;FLAVOR:Marlin
;TIME:8087
;Filament used: 8.26502m
;Layer height: 0.2
;MINX:65.825
;MINY:21.594
;MINZ:0.2
;MAXX:172.09
;MAXY:208.207
;MAXZ:2.6
;TARGET_MACHINE.NAME:Creality Ender-3
;POSTPROCESSED
;Generated with Cura_SteamEngine 5.5.0
M140 S60
M105
M190 S60
M104 S220
M105
M109 S220
M82 ;absolute extrusion mode
; Ender 3 Custom Start G-code
G92 E0 ; Reset Extruder
G28 ; Home all axes
G1 Z2.0 F3000 ; Move Z Axis up little to prevent scratching of Heat Bed
G1 X0.1 Y20 Z0.3 F5000.0 ; Move to start position
G1 X0.1 Y200.0 Z0.3 F1500.0 E15 ; Draw the first line
G1 X0.4 Y200.0 Z0.3 F5000.0 ; Move to side a little
G1 X0.4 Y20 Z0.3 F1500.0 E30 ; Draw the second line
G92 E0 ; Reset Extruder
G1 Z2.0 F3000 ; Move Z Axis up little to prevent scratching of Heat Bed
G1 X5 Y20 Z0.3 F5000.0 ; Move over to prevent blob squish
G92 E0
G92 E0
G1 F2700 E-5
;LAYER_COUNT:13
;LAYER:0
M107
G0 F6000 X67.495 Y29.024 Z0.2
;TYPE:SKIRT
G1 F2700 E0
G1 F1200 X67.832 Y28.333 E0.02557
G1 X69.28 Y26.15 E0.1127
G1 X69.751 Y25.613 E0.13646
G1 X71.901 Y23.763 E0.23079
G1 X72.597 Y23.325 E0.25814
G1 X74.649 Y22.377 E0.33333
G1 X76.503 Y21.848 E0.39745
G1 X78.133 Y21.624 E0.45217
G1 X79.231 Y21.594 E0.48871
G1 X159.921 Y21.901 E3.17249
G1 X161.376 Y22.041 E3.2211
G1 X162.509 Y22.281 E3.25962
G1 X164.295 Y22.887 E3.32235
G1 X165.824 Y23.658 E3.37931
G1 X167.385 Y24.745 E3.44257
G1 X168.838 Y26.111 E3.5089
G1 X169.442 Y26.838 E3.54034
G1 X170.488 Y28.45 E3.60426
G1 X171.34 Y30.33 E3.67291
G1 X171.733 Y31.659 E3.719
G1 X172.059 Y33.741 E3.78909
G1 X172.09 Y34.714 E3.82147
G1 X171.504 Y196.003 E9.186
G1 X171.419 Y197.055 E9.2211
G1 X170.973 Y199.182 E9.29339
G1 X170.649 Y200.111 E9.32611
G1 X169.644 Y202.137 E9.40133
G1 X169.028 Y203.05 E9.43796
G1 X167.329 Y204.926 E9.52214
G1 X166.519 Y205.599 E9.55717
G1 X164.698 Y206.753 E9.62887
G1 X163.451 Y207.32 E9.67444
G1 X161.407 Y207.926 E9.74534
G1 X159.712 Y208.173 E9.80232
G1 X158.686 Y208.207 E9.83646
G1 X78.187 Y207.919 E12.51388
G1 X77.143 Y207.842 E12.5487
G1 X75.018 Y207.425 E12.62073
G1 X73.693 Y206.968 E12.66735
G1 X72.088 Y206.166 E12.72702
G1 X70.576 Y205.122 E12.78813
G1 X69.195 Y203.844 E12.85072
G1 X68.285 Y202.732 E12.89851
G1 X67.195 Y200.96 E12.9677
G1 X66.627 Y199.672 E13.01452
G1 X66.3 Y198.659 E13.04993
G1 X65.85 Y196.012 E13.13923
G1 X65.825 Y195.087 E13.17001
G1 X66.404 Y33.977 E18.52858
G1 X66.505 Y32.456 E18.57928
G1 X66.623 Y31.748 E18.60315
G1 X67.495 Y29.024 E18.69828
G0 F6000 X67.855 Y29.199
G1 F1200 X68.192 Y28.508 E18.72385
G1 X69.581 Y26.414 E18.80743
G1 X70.052 Y25.877 E18.83119
G1 X72.114 Y24.102 E18.92168
G1 X72.81 Y23.664 E18.94903
G1 X74.76 Y22.761 E19.0205
G1 X76.558 Y22.244 E19.08273
G1 X78.144 Y22.024 E19.13599
G1 X79.229 Y21.994 E19.17209
G1 X159.883 Y22.299 E21.85467
G1 X161.294 Y22.433 E21.90181
G1 X162.38 Y22.66 E21.93871
G1 X164.166 Y23.266 E22.00144
G1 X165.595 Y23.986 E22.05466
G1 X167.156 Y25.073 E22.11793
G1 X168.53 Y26.367 E22.1807
G1 X169.134 Y27.094 E22.21214
G1 X170.152 Y28.667 E22.27446
G1 X170.956 Y30.443 E22.3393
G1 X171.349 Y31.772 E22.38539
G1 X171.659 Y33.754 E22.45212
G1 X171.69 Y34.713 E22.48403
G1 X171.105 Y195.971 E27.84753
G1 X171.02 Y197.023 E27.88263
G1 X170.595 Y199.05 E27.95152
G1 X170.271 Y199.979 E27.98424
G1 X169.312 Y201.913 E28.05604
G1 X168.696 Y202.826 E28.09267
G1 X167.073 Y204.618 E28.17308
G1 X166.263 Y205.291 E28.20811
G1 X164.484 Y206.415 E28.2781
G1 X163.337 Y206.936 E28.32
G1 X161.293 Y207.542 E28.39091
G1 X159.699 Y207.773 E28.44448
G1 X158.687 Y207.807 E28.47816
G1 X78.215 Y207.52 E31.15469
G1 X77.22 Y207.449 E31.18786
G1 X75.095 Y207.032 E31.25989
G1 X73.872 Y206.61 E31.30292
G1 X72.267 Y205.808 E31.3626
G1 X70.848 Y204.828 E31.41995
G1 X69.467 Y203.55 E31.48254
G1 X68.626 Y202.522 E31.52671
G1 X67.536 Y200.75 E31.59591
G1 X67.008 Y199.549 E31.63954
G1 X66.681 Y198.536 E31.67495
G1 X66.25 Y196.001 E31.76047
G1 X66.225 Y195.088 E31.79085
G1 X66.803 Y34.003 E37.14859
G1 X66.9 Y32.522 E37.19796
G1 X67.018 Y31.814 E37.22183
G1 X67.855 Y29.199 E37.31315
G0 F6000 X68.215 Y29.374
G1 F1200 X68.552 Y28.683 E37.33872
G1 X69.882 Y26.678 E37.41875
G1 X70.353 Y26.141 E37.4425
G1 X72.327 Y24.441 E37.52915
G1 X73.023 Y24.003 E37.5565
G1 X74.928 Y23.124 E37.62628
G1 X76.614 Y22.64 E37.68462
G1 X78.155 Y22.424 E37.73638
G1 X79.227 Y22.394 E37.77205
G1 X159.846 Y22.697 E40.45346
G1 X161.213 Y22.825 E40.49913
G1 X162.251 Y23.039 E40.53438
G1 X164.037 Y23.645 E40.59711
G1 X165.414 Y24.343 E40.64846
G1 X166.882 Y25.365 E40.70795
G1 X168.222 Y26.623 E40.76908
G1 X168.826 Y27.35 E40.80052
G1 X169.816 Y28.884 E40.86124
G1 X170.572 Y30.556 E40.92227
G1 X170.965 Y31.885 E40.96837
G1 X171.259 Y33.767 E41.03172
G1 X171.29 Y34.712 E41.06317
G1 X170.706 Y195.939 E46.42564
G1 X170.621 Y196.991 E46.46074
G1 X170.217 Y198.919 E46.52626
G1 X169.912 Y199.802 E46.55733
G1 X168.98 Y201.689 E46.62733
G1 X168.364 Y202.602 E46.66396
G1 X166.817 Y204.31 E46.74061
G1 X166.007 Y204.983 E46.77563
G1 X164.317 Y206.051 E46.84213
G1 X163.223 Y206.552 E46.88215
G1 X161.179 Y207.158 E46.95306
G1 X159.685 Y207.373 E47.00326
G1 X158.688 Y207.407 E47.03644
G1 X78.242 Y207.121 E49.7121
G1 X77.297 Y207.056 E49.7436
G1 X75.172 Y206.639 E49.81563
G1 X74.05 Y206.252 E49.85511
G1 X72.494 Y205.478 E49.91291
G1 X71.12 Y204.534 E49.96835
G1 X69.739 Y203.256 E50.03094
G1 X68.966 Y202.312 E50.07152
G1 X67.902 Y200.589 E50.13887
G1 X67.389 Y199.426 E50.18115
G1 X67.062 Y198.413 E50.21655
G1 X66.65 Y195.99 E50.2983
G1 X66.625 Y195.089 E50.32828
G1 X67.202 Y34.029 E55.68519
G1 X67.295 Y32.588 E55.73322
G1 X67.413 Y31.88 E55.75709
G1 X68.215 Y29.374 E55.8446
G0 F6000 X68.575 Y29.549
G1 F1200 X68.912 Y28.858 E55.87017
G1 X70.183 Y26.942 E55.94665
G1 X70.654 Y26.405 E55.9704
G1 X72.54 Y24.78 E56.05321
G1 X73.236 Y24.342 E56.08056
G1 X75.039 Y23.508 E56.14663
G1 X76.67 Y23.036 E56.2031
G1 X78.166 Y22.824 E56.25336
G1 X79.226 Y22.794 E56.28863
G1 X159.809 Y23.095 E58.96885
G1 X161.132 Y23.217 E59.01304
G1 X162.17 Y23.431 E59.04829
G1 X163.856 Y24.002 E59.10749
G1 X165.233 Y24.7 E59.15884
G1 X166.653 Y25.693 E59.21647
G1 X167.914 Y26.879 E59.27405
G1 X168.518 Y27.606 E59.30549
G1 X169.452 Y29.05 E59.36268
G1 X170.188 Y30.669 E59.42183
G1 X170.581 Y31.998 E59.46793
G1 X170.859 Y33.78 E59.52792
G1 X170.89 Y34.711 E59.5589
G1 X170.307 Y195.907 E64.92033
G1 X170.222 Y196.959 E64.95544
G1 X169.838 Y198.79 E65.01766
G1 X169.553 Y199.625 E65.04701
G1 X168.648 Y201.465 E65.11521
G1 X168.032 Y202.378 E65.15184
G1 X166.561 Y204.002 E65.22472
G1 X165.751 Y204.675 E65.25974
G1 X164.15 Y205.687 E65.32274
G1 X163.056 Y206.188 E65.36276
G1 X161.121 Y206.762 E65.42989
G1 X159.671 Y206.973 E65.47863
G1 X158.689 Y207.007 E65.51131
G1 X78.268 Y206.722 E68.18614
G1 X77.374 Y206.663 E68.21594
G1 X75.249 Y206.246 E68.28796
G1 X74.182 Y205.874 E68.32555
G1 X72.72 Y205.148 E68.37984
G1 X71.392 Y204.24 E68.43335
G1 X70.011 Y202.962 E68.49593
G1 X69.306 Y202.101 E68.53294
G1 X68.268 Y200.427 E68.59845
G1 X67.77 Y199.303 E68.63934
G1 X67.443 Y198.29 E68.67475
G1 X67.05 Y195.979 E68.75271
G1 X67.025 Y195.09 E68.78229
G1 X67.601 Y34.054 E74.13841
G1 X67.69 Y32.654 E74.18507
G1 X67.808 Y31.946 E74.20894
G1 X68.575 Y29.549 E74.29264
G0 F6000 X68.935 Y29.724
G1 F1200 X69.272 Y29.033 E74.31822
G1 X70.484 Y27.206 E74.39114
G1 X70.955 Y26.669 E74.41489
G1 X72.755 Y25.118 E74.49392
G1 X73.405 Y24.705 E74.51954
G1 X75.151 Y23.892 E74.58359
G1 X76.727 Y23.432 E74.6382
G1 X78.177 Y23.224 E74.68692
G1 X79.225 Y23.194 E74.72179
G1 X159.773 Y23.493 E77.40085
G1 X161.051 Y23.609 E77.44353
G1 X162.089 Y23.823 E77.47878
G1 X163.675 Y24.359 E77.53446
G1 X165.052 Y25.057 E77.58581
G1 X166.423 Y26.02 E77.64153
G1 X167.606 Y27.135 E77.6956
G1 X168.21 Y27.862 E77.72704
G1 X169.116 Y29.267 E77.78264
G1 X169.804 Y30.782 E77.83798
G1 X170.197 Y32.111 E77.88408
G1 X170.459 Y33.794 E77.94073
G1 X170.49 Y34.71 E77.97121
G1 X169.908 Y195.875 E83.33162
G1 X169.823 Y196.927 E83.36672
G1 X169.459 Y198.661 E83.42565
G1 X169.174 Y199.496 E83.455
G1 X168.316 Y201.241 E83.51967
G1 X167.7 Y202.154 E83.5563
G1 X166.305 Y203.694 E83.62541
G1 X165.495 Y204.367 E83.66044
G1 X163.983 Y205.323 E83.71994
G1 X162.889 Y205.824 E83.75996
G1 X161.063 Y206.366 E83.82331
G1 X159.657 Y206.573 E83.87058
G1 X158.69 Y206.607 E83.90276
G1 X78.293 Y206.323 E86.57679
G1 X77.45 Y206.27 E86.60489
G1 X75.381 Y205.868 E86.67499
G1 X74.314 Y205.496 E86.71257
G1 X72.899 Y204.79 E86.76517
G1 X71.663 Y203.946 E86.81495
G1 X70.32 Y202.707 E86.87572
G1 X69.646 Y201.89 E86.91095
G1 X68.608 Y200.216 E86.97646
G1 X68.151 Y199.18 E87.01412
G1 X67.824 Y198.167 E87.04953
G1 X67.45 Y195.968 E87.12372
G1 X67.425 Y195.091 E87.1529
G1 X68 Y34.079 E92.50821
G1 X68.085 Y32.72 E92.5535
G1 X68.203 Y32.012 E92.57737
G1 X68.935 Y29.724 E92.65727
G0 F6000 X69.295 Y29.899
G1 F1200 X69.632 Y29.208 E92.68284
G1 X70.785 Y27.47 E92.75221
G1 X71.256 Y26.933 E92.77597
G1 X72.97 Y25.456 E92.85122
G1 X73.62 Y25.043 E92.87684
G1 X75.264 Y24.276 E92.93718
G1 X76.785 Y23.828 E92.98991
G1 X78.189 Y23.624 E93.0371
G1 X79.224 Y23.594 E93.07154
G1 X159.737 Y23.891 E95.74943
G1 X160.97 Y24.001 E95.7906
G1 X162.008 Y24.215 E95.82585
G1 X163.494 Y24.716 E95.87801
G1 X164.871 Y25.414 E95.92936
G1 X166.149 Y26.312 E95.98131
G1 X167.298 Y27.391 E96.03374
G1 X167.902 Y28.118 E96.06517
G1 X168.779 Y29.483 E96.11913
G1 X169.421 Y30.896 E96.17075
G1 X169.802 Y32.173 E96.21508
G1 X170.059 Y33.808 E96.27013
G1 X170.09 Y34.709 E96.30011
G1 X169.509 Y195.843 E101.65948
G1 X169.424 Y196.895 E101.69459
G1 X169.08 Y198.532 E101.75022
G1 X168.795 Y199.367 E101.77957
G1 X167.984 Y201.017 E101.84072
G1 X167.368 Y201.93 E101.87735
G1 X166.049 Y203.386 E101.94269
G1 X165.239 Y204.059 E101.97772
G1 X163.816 Y204.959 E102.03372
G1 X162.722 Y205.46 E102.07374
G1 X161.004 Y205.97 E102.13335
G1 X159.643 Y206.173 E102.17912
G1 X158.691 Y206.207 E102.2108
G1 X78.317 Y205.924 E104.88407
G1 X77.526 Y205.877 E104.91042
G1 X75.513 Y205.49 E104.9786
G1 X74.446 Y205.118 E105.01618
G1 X73.124 Y204.459 E105.06531
G1 X71.934 Y203.651 E105.11316
G1 X70.628 Y202.451 E105.17215
G1 X69.986 Y201.679 E105.20554
G1 X68.974 Y200.054 E105.26921
G1 X68.532 Y199.057 E105.30549
G1 X68.205 Y198.044 E105.34089
G1 X67.85 Y195.956 E105.41133
G1 X67.825 Y195.092 E105.44008
G1 X68.399 Y34.104 E110.7946
G1 X68.48 Y32.786 E110.83852
G1 X68.598 Y32.078 E110.86239
G1 X69.295 Y29.899 E110.93848
G0 F6000 X69.655 Y30.074
G1 F1200 X69.992 Y29.383 E110.96405
G1 X71.086 Y27.734 E111.02987
G1 X71.557 Y27.197 E111.05363
G1 X73.185 Y25.794 E111.12511
G1 X73.835 Y25.381 E111.15072
G1 X75.377 Y24.66 E111.20734
G1 X76.898 Y24.212 E111.26008
G1 X78.201 Y24.024 E111.30386
G1 X79.223 Y23.994 E111.33787
G1 X159.702 Y24.29 E114.01463
G1 X160.889 Y24.393 E114.05426
G1 X161.927 Y24.607 E114.08951
G1 X163.366 Y25.095 E114.14005
G1 X164.689 Y25.77 E114.18945
G1 X165.876 Y26.604 E114.2377
G1 X166.99 Y27.647 E114.28845
G1 X167.594 Y28.374 E114.31989
G1 X168.442 Y29.699 E114.37221
G1 X169.038 Y31.011 E114.42014
G1 X169.407 Y32.236 E114.46269
G1 X169.659 Y33.822 E114.51611
G1 X169.69 Y34.708 E114.54559
G1 X169.11 Y195.811 E119.90394
G1 X169.025 Y196.863 E119.93904
G1 X168.701 Y198.403 E119.99138
G1 X168.416 Y199.238 E120.02073
G1 X167.652 Y200.793 E120.07835
G1 X167.036 Y201.706 E120.11498
G1 X165.793 Y203.078 E120.17656
G1 X164.983 Y203.751 E120.21159
G1 X163.649 Y204.595 E120.26409
G1 X162.555 Y205.096 E120.30411
G1 X160.944 Y205.574 E120.36
G1 X159.628 Y205.773 E120.40427
G1 X158.692 Y205.807 E120.43542
G1 X78.339 Y205.525 E123.10799
G1 X77.601 Y205.484 E123.13257
G1 X75.645 Y205.112 E123.1988
G1 X74.578 Y204.74 E123.23638
G1 X73.349 Y204.128 E123.28204
G1 X72.159 Y203.32 E123.32988
G1 X70.936 Y202.195 E123.38515
G1 X70.294 Y201.423 E123.41855
G1 X69.339 Y199.891 E123.47859
G1 X68.913 Y198.934 E123.51343
G1 X68.586 Y197.921 E123.54884
G1 X68.25 Y195.944 E123.61554
G1 X68.225 Y195.093 E123.64385
G1 X68.798 Y34.128 E128.9976
G1 X68.875 Y32.852 E129.04012
G1 X68.993 Y32.144 E129.06399
G1 X69.655 Y30.074 E129.13628
G0 F6000 X70.015 Y30.249
G1 F1200 X70.352 Y29.558 E129.16185
G1 X71.387 Y27.998 E129.22412
G1 X71.858 Y27.461 E129.24787
G1 X73.4 Y26.132 E129.31558
G1 X74.05 Y25.719 E129.34119
G1 X75.49 Y25.044 E129.39409
G1 X77.011 Y24.596 E129.44683
G1 X78.213 Y24.424 E129.48721
G1 X79.222 Y24.394 E129.52079
G1 X159.668 Y24.689 E132.19645
G1 X160.809 Y24.785 E132.23453
G1 X161.799 Y24.986 E132.26813
G1 X163.238 Y25.474 E132.31867
G1 X164.46 Y26.098 E132.36431
G1 X165.603 Y26.897 E132.41069
G1 X166.682 Y27.903 E132.45976
G1 X167.286 Y28.63 E132.49119
G1 X168.105 Y29.914 E132.54185
G1 X168.655 Y31.128 E132.58618
G1 X169.012 Y32.3 E132.62693
G1 X169.259 Y33.836 E132.67867
G1 X169.29 Y34.707 E132.70766
G1 X168.711 Y195.779 E138.06497
G1 X168.626 Y196.831 E138.10007
G1 X168.322 Y198.274 E138.14912
G1 X168.037 Y199.109 E138.17847
G1 X167.32 Y200.569 E138.23257
G1 X166.704 Y201.482 E138.2692
G1 X165.537 Y202.77 E138.327
G1 X164.727 Y203.443 E138.36203
G1 X163.482 Y204.231 E138.41104
G1 X162.388 Y204.732 E138.45106
G1 X160.884 Y205.179 E138.50324
G1 X159.613 Y205.373 E138.54601
G1 X158.693 Y205.407 E138.57663
G1 X78.359 Y205.125 E141.24856
G1 X77.675 Y205.091 E141.27134
G1 X75.777 Y204.734 E141.33558
G1 X74.71 Y204.362 E141.37316
G1 X73.574 Y203.797 E141.41536
G1 X72.384 Y202.989 E141.4632
G1 X71.244 Y201.939 E141.51475
G1 X70.602 Y201.167 E141.54814
G1 X69.704 Y199.728 E141.60456
G1 X69.294 Y198.811 E141.63797
G1 X68.967 Y197.798 E141.67337
G1 X68.65 Y195.932 E141.73633
G1 X68.625 Y195.094 E141.76421
G1 X69.197 Y34.152 E147.1172
G1 X69.27 Y32.918 E147.15831
G1 X69.388 Y32.21 E147.18219
G1 X70.015 Y30.249 E147.25066
G0 F6000 X70.375 Y30.424
G1 F1200 X70.712 Y29.733 E147.27623
G1 X71.688 Y28.262 E147.33495
G1 X72.159 Y27.725 E147.3587
G1 X73.615 Y26.47 E147.42264
G1 X74.265 Y26.057 E147.44825
G1 X75.603 Y25.428 E147.49743
G1 X77.124 Y24.98 E147.55016
G1 X78.225 Y24.824 E147.58715
G1 X79.221 Y24.794 E147.62029
G1 X159.634 Y25.088 E150.29486
G1 X160.775 Y25.184 E150.33294
G1 X161.671 Y25.365 E150.36334
G1 X163.11 Y25.853 E150.41388
G1 X164.231 Y26.426 E150.45575
G1 X165.374 Y27.225 E150.50214
G1 X166.374 Y28.159 E150.54765
G1 X166.978 Y28.886 E150.57909
G1 X167.741 Y30.08 E150.62621
G1 X168.272 Y31.245 E150.6688
G1 X168.629 Y32.417 E150.70955
G1 X168.859 Y33.85 E150.75782
G1 X168.89 Y34.706 E150.78631
G1 X168.312 Y195.747 E156.14259
G1 X168.227 Y196.799 E156.17769
G1 X167.943 Y198.145 E156.22345
G1 X167.658 Y198.98 E156.25279
G1 X166.988 Y200.345 E156.30336
G1 X166.372 Y201.258 E156.34
G1 X165.281 Y202.462 E156.39404
G1 X164.471 Y203.135 E156.42906
G1 X163.315 Y203.867 E156.47457
G1 X162.221 Y204.368 E156.51459
G1 X160.823 Y204.784 E156.56311
G1 X159.598 Y204.973 E156.60433
G1 X158.694 Y205.007 E156.63442
G1 X78.379 Y204.725 E159.30572
G1 X77.695 Y204.691 E159.3285
G1 X75.909 Y204.356 E159.38894
G1 X74.842 Y203.984 E159.42652
G1 X73.799 Y203.466 E159.46526
G1 X72.609 Y202.658 E159.5131
G1 X71.552 Y201.683 E159.56093
G1 X70.91 Y200.911 E159.59432
G1 X70.069 Y199.564 E159.64714
G1 X69.675 Y198.688 E159.67909
G1 X69.348 Y197.675 E159.71449
G1 X69.05 Y195.92 E159.7737
G1 X69.025 Y195.095 E159.80115
G1 X69.596 Y34.175 E165.1534
G1 X69.665 Y32.984 E165.19308
G1 X69.783 Y32.276 E165.21696
G1 X70.375 Y30.424 E165.28162
G0 F6000 X70.735 Y30.599
G1 F1200 X71.072 Y29.908 E165.30719
G1 X71.989 Y28.526 E165.36236
G1 X72.46 Y27.989 E165.38612
G1 X73.83 Y26.808 E165.44628
G1 X74.48 Y26.395 E165.47189
G1 X75.716 Y25.812 E165.51734
G1 X77.237 Y25.364 E165.57008
G1 X78.237 Y25.224 E165.60367
G1 X79.22 Y25.194 E165.63638
G1 X159.6 Y25.487 E168.30984
G1 X160.741 Y25.583 E168.34793
G1 X161.543 Y25.744 E168.37513
G1 X162.982 Y26.232 E168.42567
G1 X164.002 Y26.754 E168.46378
G1 X165.145 Y27.553 E168.51017
G1 X166.066 Y28.415 E168.55212
G1 X166.67 Y29.142 E168.58356
G1 X167.377 Y30.247 E168.62719
G1 X167.889 Y31.362 E168.668
G1 X168.246 Y32.534 E168.70875
G1 X168.459 Y33.865 E168.75358
G1 X168.49 Y34.705 E168.78154
G1 X167.913 Y195.715 E174.13679
G1 X167.828 Y196.767 E174.17189
G1 X167.564 Y198.016 E174.21435
