;FLAVOR:Marlin
;TIME:21836
;Filament used: 21.4831m
;Layer height: 0.2
;MINX:14.458
;MINY:20.224
;MINZ:0.2
;MAXX:210.393
;MAXY:216.192
;MAXZ:13.2
;TARGET_MACHINE.NAME:Creality Ender-3
;POSTPROCESSED
;Generated with Cura_SteamEngine 5.5.0
M140 S60
M105
M190 S60
M104 S220
M105
M109 S220
M82 ;absolute extrusion mode
; Ender 3 Custom Start G-code
G92 E0 ; Reset Extruder
G28 ; Home all axes
G1 Z2.0 F3000 ; Move Z Axis up little to prevent scratching of Heat Bed
G1 X0.1 Y20 Z0.3 F5000.0 ; Move to start position
G1 X0.1 Y200.0 Z0.3 F1500.0 E15 ; Draw the first line
G1 X0.4 Y200.0 Z0.3 F5000.0 ; Move to side a little
G1 X0.4 Y20 Z0.3 F1500.0 E30 ; Draw the second line
G92 E0 ; Reset Extruder
G1 Z2.0 F3000 ; Move Z Axis up little to prevent scratching of Heat Bed
G1 X5 Y20 Z0.3 F5000.0 ; Move over to prevent blob squish
G92 E0
G92 E0
G1 F2700 E-5
;LAYER_COUNT:66
;LAYER:0
M107
G0 F6000 X132.114 Y23.832 Z0.2
;TYPE:SKIRT
G1 F2700 E0
G1 F1200 X132.797 Y23.209 E0.03075
G1 X134.382 Y22.077 E0.09553
G1 X136.18 Y21.161 E0.16264
G1 X137.719 Y20.635 E0.21674
G1 X139.225 Y20.339 E0.26779
G1 X141.237 Y20.224 E0.33482
G1 X143.041 Y20.382 E0.39505
G1 X143.977 Y20.578 E0.42685
G1 X146.518 Y21.514 E0.51692
G1 X147.528 Y22.069 E0.55525
G1 X149.131 Y23.239 E0.62126
G1 X150.006 Y24.046 E0.66085
G1 X165.813 Y39.861 E1.40455
G1 X168.82 Y36.85 E1.54608
G1 X172.637 Y34.936 E1.6881
G1 X176.369 Y33.95 E1.81649
G1 X180.773 Y33.68 E1.96324
G1 X184.4 Y34.37 E2.08604
G1 X186.917 Y35.19 E2.17409
G1 X189.475 Y36.293 E2.26674
G1 X192.108 Y37.771 E2.36717
G1 X196.252 Y41.919 E2.56218
G1 X198.437 Y45.187 E2.69293
G1 X200.236 Y50.099 E2.86692
G1 X200.144 Y55.307 E3.04016
G1 X198.599 Y60.736 E3.2279
G1 X195.199 Y66.43 E3.44848
G1 X193.809 Y67.863 E3.51488
G1 X206.925 Y81.008 E4.1325
G1 X207.778 Y82.019 E4.17649
G1 X208.925 Y83.803 E4.24704
G1 X209.406 Y84.824 E4.28457
G1 X210.099 Y86.944 E4.35876
G1 X210.241 Y87.67 E4.38336
G1 X210.393 Y90.341 E4.47234
G1 X210.329 Y91.142 E4.49907
G1 X209.808 Y93.586 E4.58218
G1 X209.308 Y94.907 E4.62916
G1 X208.675 Y96.138 E4.6752
G1 X207.553 Y97.768 E4.74102
G1 X206.643 Y98.795 E4.78666
G1 X92.684 Y212.698 E10.14562
G1 X91.602 Y213.613 E10.19275
G1 X89.966 Y214.679 E10.2577
G1 X89.333 Y215 E10.2813
G1 X86.689 Y215.905 E10.37425
G1 X85.746 Y216.076 E10.40613
G1 X83.317 Y216.192 E10.48701
G1 X81.925 Y216.058 E10.53352
G1 X80.464 Y215.732 E10.58331
G1 X78.842 Y215.153 E10.64059
G1 X77.248 Y214.318 E10.70044
G1 X75.801 Y213.287 E10.75953
G1 X74.859 Y212.442 E10.80162
G1 X66.298 Y203.881 E11.20431
G1 X63.661 Y207.043 E11.34125
G1 X61.529 Y211.984 E11.52023
G1 X60.412 Y213.46 E11.5818
G1 X59.575 Y214.326 E11.62186
G1 X57.764 Y215.39 E11.69172
G1 X55.973 Y215.918 E11.75382
G1 X54.605 Y216.016 E11.79944
G1 X53.018 Y215.78 E11.8528
G1 X51.563 Y215.394 E11.90287
G1 X49.691 Y214.245 E11.97592
G1 X43.997 Y208.249 E12.25095
G1 X41.315 Y205.511 E12.37842
G1 X38.732 Y202.189 E12.51838
G1 X35.075 Y196.624 E12.73986
G1 X33.015 Y192.852 E12.88281
G1 X30.867 Y187.568 E13.07252
G1 X29.967 Y182.566 E13.24156
G1 X29.855 Y178.409 E13.37988
G1 X31.089 Y173.071 E13.5621
G1 X32.23 Y169.798 E13.67739
G1 X17.894 Y155.438 E14.35227
G1 X17.166 Y154.596 E14.38929
G1 X15.985 Y152.797 E14.46087
G1 X15.365 Y151.483 E14.50919
G1 X14.742 Y149.521 E14.57766
G1 X14.578 Y148.632 E14.60773
G1 X14.458 Y146.02 E14.6947
G1 X14.621 Y144.522 E14.74481
G1 X14.781 Y143.757 E14.77081
G1 X15.704 Y141.205 E14.86107
G1 X16.204 Y140.272 E14.89628
G1 X17.432 Y138.552 E14.96657
G1 X18.225 Y137.68 E15.00577
G1 X132.114 Y23.832 E20.36179
G0 F6000 X132.384 Y24.128
G1 F1200 X133.067 Y23.505 E20.39254
G1 X134.564 Y22.433 E20.45378
G1 X136.309 Y21.54 E20.51898
G1 X137.848 Y21.014 E20.57307
G1 X139.248 Y20.738 E20.62053
G1 X141.203 Y20.623 E20.68567
G1 X142.959 Y20.774 E20.74429
G1 X143.895 Y20.97 E20.7761
G1 X146.325 Y21.865 E20.86223
G1 X147.335 Y22.42 E20.90056
G1 X148.86 Y23.533 E20.96335
G1 X149.723 Y24.329 E21.0024
G1 X165.869 Y40.483 E21.76205
G1 X166.047 Y40.193 E21.77336
G1 X169.057 Y37.179 E21.91504
G1 X172.78 Y35.312 E22.05357
G1 X176.435 Y34.346 E22.17931
G1 X180.746 Y34.082 E22.32296
G1 X184.325 Y34.763 E22.44413
G1 X186.759 Y35.557 E22.52929
G1 X189.279 Y36.642 E22.62054
G1 X191.864 Y38.093 E22.71914
G1 X195.944 Y42.177 E22.91114
G1 X198.076 Y45.365 E23.0387
G1 X199.835 Y50.168 E23.20882
G1 X199.745 Y55.247 E23.37778
G1 X198.228 Y60.578 E23.56213
G1 X194.881 Y66.183 E23.77926
G1 X193.247 Y67.867 E23.8573
G1 X206.619 Y81.266 E24.48692
G1 X207.472 Y82.277 E24.53091
G1 X208.563 Y83.973 E24.59798
G1 X209.044 Y84.994 E24.63552
G1 X209.706 Y87.021 E24.70645
G1 X209.848 Y87.747 E24.73105
G1 X209.994 Y90.309 E24.8164
G1 X209.93 Y91.11 E24.84313
G1 X209.434 Y93.445 E24.92252
G1 X208.952 Y94.724 E24.96798
G1 X208.319 Y95.955 E25.01402
G1 X207.253 Y97.503 E25.07653
G1 X206.36 Y98.512 E25.12135
G1 X92.425 Y212.393 E30.47923
G1 X91.383 Y213.278 E30.5247
G1 X89.785 Y214.322 E30.58819
G1 X89.152 Y214.643 E30.6118
G1 X86.617 Y215.512 E30.70093
G1 X85.727 Y215.676 E30.73103
G1 X83.298 Y215.792 E30.81191
G1 X81.964 Y215.66 E30.85649
G1 X80.598 Y215.355 E30.90305
G1 X78.976 Y214.776 E30.96033
G1 X77.48 Y213.992 E31.0165
G1 X76.068 Y212.989 E31.07411
G1 X75.142 Y212.159 E31.11547
G1 X66.271 Y203.288 E31.53273
G1 X63.361 Y206.779 E31.6839
G1 X63.231 Y207.032 E31.69336
G1 X61.182 Y211.78 E31.86535
G1 X60.124 Y213.182 E31.92377
G1 X59.325 Y214.009 E31.96202
G1 X57.604 Y215.02 E32.0284
G1 X55.9 Y215.522 E32.08749
G1 X54.622 Y215.614 E32.1301
G1 X53.077 Y215.384 E32.18206
G1 X51.724 Y215.023 E32.22863
G1 X49.944 Y213.931 E32.29809
G1 X44.283 Y207.969 E32.57154
G1 X41.631 Y205.265 E32.69751
G1 X39.048 Y201.943 E32.83747
G1 X35.426 Y196.432 E33.05681
G1 X33.386 Y192.701 E33.19824
G1 X31.253 Y187.455 E33.38659
G1 X30.367 Y182.555 E33.55221
G1 X30.256 Y178.45 E33.68879
G1 X31.467 Y173.203 E33.8679
G1 X32.691 Y169.693 E33.99153
G1 X18.197 Y155.176 E34.67383
G1 X17.469 Y154.334 E34.71085
G1 X16.347 Y152.626 E34.77882
G1 X15.727 Y151.312 E34.82714
G1 X15.135 Y149.447 E34.89222
G1 X14.978 Y148.613 E34.92045
G1 X14.856 Y146.063 E35.00536
G1 X15.013 Y144.604 E35.05417
G1 X15.173 Y143.839 E35.08016
G1 X16.057 Y141.394 E35.16663
G1 X16.557 Y140.461 E35.20184
G1 X17.728 Y138.821 E35.26887
G1 X18.508 Y137.963 E35.30743
G1 X132.384 Y24.128 E40.66285
G0 F6000 X132.654 Y24.424
G1 F1200 X133.337 Y23.801 E40.69359
G1 X134.796 Y22.759 E40.75323
G1 X136.438 Y21.919 E40.81457
G1 X137.977 Y21.393 E40.86866
G1 X139.272 Y21.137 E40.91257
G1 X141.169 Y21.022 E40.97578
G1 X142.925 Y21.173 E41.0344
G1 X143.812 Y21.361 E41.06456
G1 X146.132 Y22.216 E41.14679
G1 X147.142 Y22.771 E41.18513
G1 X148.589 Y23.827 E41.24471
G1 X149.44 Y24.612 E41.28321
G1 X165.945 Y41.125 E42.05975
G1 X166.363 Y40.443 E42.08635
G1 X169.294 Y37.508 E42.22431
G1 X172.923 Y35.688 E42.35934
G1 X176.501 Y34.742 E42.48243
G1 X180.72 Y34.484 E42.62302
G1 X184.201 Y35.143 E42.74086
G1 X186.601 Y35.925 E42.82481
G1 X189.083 Y36.991 E42.91465
G1 X191.62 Y38.415 E43.01142
G1 X195.633 Y42.432 E43.20027
G1 X197.716 Y45.547 E43.32491
G1 X199.434 Y50.237 E43.49103
G1 X199.346 Y55.186 E43.65566
G1 X197.856 Y60.421 E43.8367
G1 X194.563 Y65.936 E44.05034
G1 X192.686 Y67.871 E44.14
G1 X206.313 Y81.524 E44.78158
G1 X207.166 Y82.535 E44.82558
G1 X208.201 Y84.143 E44.88918
G1 X208.682 Y85.164 E44.92672
G1 X209.313 Y87.098 E44.99438
G1 X209.455 Y87.824 E45.01899
G1 X209.595 Y90.277 E45.10071
G1 X209.531 Y91.078 E45.12743
G1 X209.059 Y93.305 E45.20315
G1 X208.596 Y94.541 E45.24705
G1 X207.963 Y95.772 E45.29309
G1 X206.953 Y97.238 E45.3523
G1 X206.077 Y98.229 E45.39629
G1 X92.165 Y212.089 E50.75314
G1 X91.164 Y212.943 E50.7969
G1 X89.604 Y213.965 E50.85893
G1 X88.971 Y214.286 E50.88254
G1 X86.543 Y215.119 E50.96791
G1 X85.708 Y215.276 E50.99617
G1 X83.279 Y215.392 E51.07705
G1 X82.005 Y215.262 E51.11965
G1 X80.732 Y214.978 E51.16303
G1 X79.11 Y214.399 E51.22031
G1 X77.712 Y213.666 E51.27281
G1 X76.3 Y212.663 E51.33042
G1 X75.425 Y211.876 E51.36956
G1 X66.244 Y202.695 E51.80141
G1 X63.024 Y206.559 E51.9687
G1 X62.875 Y206.849 E51.97954
G1 X60.835 Y211.576 E52.15078
G1 X59.836 Y212.904 E52.20605
G1 X59.075 Y213.692 E52.24249
G1 X57.444 Y214.65 E52.3054
G1 X55.827 Y215.126 E52.36146
G1 X54.638 Y215.212 E52.40111
G1 X53.18 Y214.997 E52.45013
G1 X51.882 Y214.651 E52.49481
G1 X50.197 Y213.617 E52.56056
G1 X44.573 Y207.694 E52.83222
G1 X41.947 Y205.019 E52.9569
G1 X39.364 Y201.697 E53.09686
G1 X35.777 Y196.24 E53.31406
G1 X33.757 Y192.55 E53.45397
G1 X31.64 Y187.343 E53.64093
G1 X30.767 Y182.544 E53.80316
G1 X30.657 Y178.491 E53.93801
G1 X31.845 Y173.335 E54.114
G1 X33.152 Y169.588 E54.24599
G1 X18.5 Y154.914 E54.93569
G1 X17.772 Y154.072 E54.97271
G1 X16.709 Y152.455 E55.03707
G1 X16.089 Y151.141 E55.0854
G1 X15.528 Y149.371 E55.14715
G1 X15.378 Y148.593 E55.17351
G1 X15.254 Y146.105 E55.25636
G1 X15.405 Y144.686 E55.30382
G1 X15.565 Y143.921 E55.32982
G1 X16.41 Y141.583 E55.4125
G1 X16.91 Y140.65 E55.44771
G1 X18.024 Y139.09 E55.51147
G1 X18.791 Y138.246 E55.5494
G1 X132.654 Y24.424 E60.9042
G0 F6000 X132.924 Y24.72
G1 F1200 X133.607 Y24.097 E60.93495
G1 X135.028 Y23.085 E60.99297
G1 X136.567 Y22.298 E61.05046
G1 X138.106 Y21.772 E61.10456
G1 X139.297 Y21.536 E61.14494
G1 X141.135 Y21.421 E61.20619
G1 X142.891 Y21.572 E61.26481
G1 X143.728 Y21.752 E61.29329
G1 X145.939 Y22.567 E61.37166
G1 X146.949 Y23.122 E61.40999
G1 X148.318 Y24.121 E61.46636
G1 X149.157 Y24.895 E61.50433
G1 X166.021 Y41.767 E62.29775
G1 X166.679 Y40.693 E62.33964
G1 X169.531 Y37.837 E62.47388
G1 X173.066 Y36.064 E62.60542
G1 X176.567 Y35.138 E62.72586
G1 X180.694 Y34.886 E62.86338
G1 X184.077 Y35.523 E62.97788
G1 X186.443 Y36.293 E63.06064
G1 X188.887 Y37.34 E63.14907
G1 X191.376 Y38.737 E63.244
G1 X195.322 Y42.687 E63.4297
G1 X197.356 Y45.729 E63.55142
G1 X199.033 Y50.306 E63.71354
G1 X198.947 Y55.126 E63.87388
G1 X197.485 Y60.263 E64.05152
G1 X194.244 Y65.691 E64.26179
G1 X192.125 Y67.876 E64.36303
G1 X206.007 Y81.782 E65.01656
G1 X206.86 Y82.793 E65.06056
G1 X207.839 Y84.313 E65.12069
G1 X208.32 Y85.334 E65.15823
G1 X208.92 Y87.175 E65.22263
G1 X209.062 Y87.901 E65.24724
G1 X209.196 Y90.245 E65.32532
G1 X209.132 Y91.046 E65.35205
G1 X208.684 Y93.165 E65.42409
G1 X208.24 Y94.358 E65.46643
G1 X207.607 Y95.589 E65.51246
G1 X206.653 Y96.973 E65.56837
G1 X205.794 Y97.946 E65.61154
G1 X91.882 Y211.806 E70.96839
G1 X90.944 Y212.609 E71.00946
G1 X89.423 Y213.608 E71.06998
G1 X88.79 Y213.929 E71.09359
G1 X86.467 Y214.726 E71.17527
G1 X85.688 Y214.876 E71.20166
G1 X83.32 Y214.994 E71.28052
G1 X82.046 Y214.864 E71.32311
G1 X80.866 Y214.601 E71.36332
G1 X79.244 Y214.022 E71.4206
G1 X77.943 Y213.34 E71.46946
G1 X76.567 Y212.365 E71.52555
G1 X75.708 Y211.593 E71.56396
G1 X66.218 Y202.103 E72.01034
G1 X62.825 Y206.173 E72.18658
G1 X62.653 Y206.405 E72.19619
G1 X62.515 Y206.675 E72.20627
G1 X60.488 Y211.372 E72.37642
G1 X59.548 Y212.626 E72.42855
G1 X58.825 Y213.375 E72.46317
G1 X57.284 Y214.28 E72.52261
G1 X55.754 Y214.73 E72.57565
G1 X54.654 Y214.81 E72.61234
G1 X53.238 Y214.601 E72.65994
G1 X52.042 Y214.28 E72.70113
G1 X50.45 Y213.303 E72.76326
G1 X44.863 Y207.419 E73.03313
G1 X42.263 Y204.773 E73.15651
G1 X39.68 Y201.451 E73.29647
G1 X36.128 Y196.048 E73.51153
G1 X34.128 Y192.399 E73.64993
G1 X32.027 Y187.23 E73.83551
G1 X31.161 Y182.472 E73.99636
G1 X31.058 Y178.532 E74.12745
G1 X32.223 Y173.467 E74.30031
G1 X33.613 Y169.483 E74.44066
G1 X18.803 Y154.652 E75.13777
G1 X18.075 Y153.81 E75.17479
G1 X17.071 Y152.284 E75.23554
G1 X16.451 Y150.97 E75.28387
G1 X15.921 Y149.295 E75.3423
G1 X15.771 Y148.517 E75.36865
G1 X15.652 Y146.147 E75.44758
G1 X15.797 Y144.768 E75.4937
G1 X15.957 Y144.003 E75.51969
G1 X16.763 Y141.772 E75.59859
G1 X17.263 Y140.839 E75.6338
G1 X18.32 Y139.359 E75.69429
G1 X19.074 Y138.529 E75.73158
G1 X132.924 Y24.72 E81.08577
G0 F6000 X133.194 Y25.016
G1 F1200 X133.877 Y24.393 E81.11652
G1 X135.26 Y23.411 E81.17294
G1 X136.696 Y22.677 E81.22658
G1 X138.235 Y22.151 E81.28067
G1 X139.323 Y21.935 E81.31756
G1 X141.101 Y21.82 E81.37682
G1 X142.857 Y21.971 E81.43544
G1 X143.59 Y22.128 E81.46038
G1 X145.746 Y22.918 E81.53675
G1 X146.756 Y23.473 E81.57508
G1 X148.047 Y24.415 E81.62823
G1 X148.874 Y25.178 E81.66566
G1 X166.097 Y42.409 E82.47596
G1 X166.995 Y40.943 E82.53314
G1 X169.768 Y38.166 E82.66367
G1 X173.209 Y36.44 E82.79171
G1 X176.633 Y35.534 E82.90951
G1 X180.668 Y35.288 E83.04396
G1 X183.953 Y35.903 E83.15512
G1 X186.286 Y36.661 E83.23671
G1 X188.691 Y37.689 E83.3237
G1 X191.132 Y39.059 E83.4168
G1 X195.014 Y42.945 E83.5995
G1 X196.995 Y45.907 E83.71801
G1 X198.632 Y50.375 E83.87628
G1 X198.548 Y55.066 E84.03233
G1 X197.114 Y60.105 E84.20658
G1 X193.926 Y65.444 E84.41341
G1 X191.563 Y67.88 E84.52628
G1 X205.702 Y82.041 E85.19186
G1 X206.524 Y83.01 E85.23412
G1 X207.477 Y84.483 E85.29247
G1 X207.958 Y85.504 E85.33001
G1 X208.527 Y87.252 E85.39115
G1 X208.669 Y87.978 E85.41576
G1 X208.797 Y90.213 E85.49021
G1 X208.733 Y91.014 E85.51694
G1 X208.309 Y93.026 E85.58533
G1 X207.884 Y94.176 E85.62611
G1 X207.277 Y95.363 E85.67045
G1 X206.353 Y96.708 E85.72472
G1 X205.511 Y97.663 E85.76707
G1 X91.599 Y211.523 E91.12392
G1 X90.724 Y212.275 E91.16229
G1 X89.242 Y213.251 E91.22131
G1 X88.609 Y213.572 E91.24492
G1 X86.391 Y214.333 E91.32291
G1 X85.612 Y214.483 E91.3493
G1 X83.361 Y214.596 E91.42426
G1 X82.087 Y214.466 E91.46685
G1 X81 Y214.224 E91.50389
G1 X79.378 Y213.645 E91.56117
G1 X78.174 Y213.013 E91.6064
G1 X76.834 Y212.067 E91.66096
G1 X75.991 Y211.31 E91.69864
G1 X66.192 Y201.51 E92.15958
G1 X62.504 Y205.934 E92.35114
G1 X62.313 Y206.191 E92.36179
G1 X62.155 Y206.501 E92.37337
G1 X60.141 Y211.168 E92.54243
G1 X59.26 Y212.348 E92.59141
G1 X58.575 Y213.058 E92.62422
G1 X57.124 Y213.91 E92.68019
G1 X55.681 Y214.334 E92.73021
G1 X54.67 Y214.408 E92.76393
G1 X53.296 Y214.205 E92.81012
G1 X52.202 Y213.909 E92.84782
G1 X50.703 Y212.989 E92.90631
G1 X45.148 Y207.138 E93.17466
G1 X42.579 Y204.527 E93.29649
G1 X39.996 Y201.205 E93.43645
G1 X36.479 Y195.856 E93.64937
G1 X34.499 Y192.248 E93.78625
G1 X32.412 Y187.113 E93.97061
G1 X31.561 Y182.462 E94.12787
G1 X31.459 Y178.573 E94.25726
G1 X32.601 Y173.599 E94.427
G1 X33.933 Y169.782 E94.56146
G1 X34.114 Y169.418 E94.57499
G1 X19.106 Y154.39 E95.28139
G1 X18.378 Y153.548 E95.31841
G1 X17.432 Y152.112 E95.3756
G1 X16.832 Y150.849 E95.42211
G1 X16.314 Y149.219 E95.47899
G1 X16.164 Y148.441 E95.50535
G1 X16.05 Y146.188 E95.58038
G1 X16.189 Y144.85 E95.62512
G1 X16.349 Y144.085 E95.65111
G1 X17.116 Y141.961 E95.72622
G1 X17.616 Y141.028 E95.76143
G1 X18.616 Y139.628 E95.81865
G1 X19.357 Y138.812 E95.85531
G1 X133.194 Y25.016 E101.20889
G0 F6000 X133.464 Y25.312
G1 F1200 X134.147 Y24.689 E101.23964
G1 X135.491 Y23.738 E101.2944
G1 X136.877 Y23.034 E101.34611
G1 X138.363 Y22.53 E101.3983
G1 X139.349 Y22.334 E101.43173
G1 X141.127 Y22.219 E101.49099
G1 X142.775 Y22.363 E101.54601
G1 X143.452 Y22.504 E101.56901
G1 X145.608 Y23.294 E101.64538
G1 X146.562 Y23.823 E101.68167
G1 X147.776 Y24.709 E101.73165
G1 X148.591 Y25.461 E101.76854
G1 X166.173 Y43.051 E102.59573
G1 X167.311 Y41.193 E102.6682
G1 X170.005 Y38.495 E102.79501
G1 X173.352 Y36.816 E102.91955
G1 X176.699 Y35.93 E103.03471
G1 X180.643 Y35.69 E103.16613
G1 X183.83 Y36.284 E103.27395
G1 X186.129 Y37.029 E103.35433
G1 X188.495 Y38.038 E103.43988
G1 X190.888 Y39.381 E103.53115
G1 X194.703 Y43.2 E103.71069
G1 X196.635 Y46.089 E103.82629
G1 X198.231 Y50.444 E103.98056
G1 X198.149 Y55.006 E104.13231
G1 X196.743 Y59.947 E104.30318
G1 X193.608 Y65.197 E104.50655
G1 X191.001 Y67.884 E104.63108
G1 X205.398 Y82.301 E105.30874
G1 X206.189 Y83.228 E105.34927
G1 X207.115 Y84.653 E105.40579
G1 X207.596 Y85.674 E105.44333
G1 X208.134 Y87.329 E105.50121
G1 X208.276 Y88.055 E105.52582
G1 X208.398 Y90.181 E105.59664
G1 X208.334 Y90.982 E105.62337
G1 X207.933 Y92.888 E105.68815
G1 X207.527 Y93.995 E105.72737
G1 X206.947 Y95.137 E105.76997
G1 X206.023 Y96.482 E105.82424
G1 X205.228 Y97.38 E105.86413
G1 X91.337 Y211.22 E111.22002
G1 X90.503 Y211.941 E111.25669
G1 X89.061 Y212.894 E111.31417
