;FLAVOR:Marlin
;TIME:9952
;Filament used: 8.92662m
;Layer height: 0.2
;MINX:14.445
;MINY:20.224
;MINZ:0.2
;MAXX:210.383
;MAXY:216.192
;MAXZ:2.6
;TARGET_MACHINE.NAME:Creality Ender-3
;POSTPROCESSED
;Generated with Cura_SteamEngine 5.5.0
M140 S60
M105
M190 S60
M104 S220
M105
M109 S220
M82 ;absolute extrusion mode
; Ender 3 Custom Start G-code
G92 E0 ; Reset Extruder
G28 ; Home all axes
G1 Z2.0 F3000 ; Move Z Axis up little to prevent scratching of Heat Bed
G1 X0.1 Y20 Z0.3 F5000.0 ; Move to start position
G1 X0.1 Y200.0 Z0.3 F1500.0 E15 ; Draw the first line
G1 X0.4 Y200.0 Z0.3 F5000.0 ; Move to side a little
G1 X0.4 Y20 Z0.3 F1500.0 E30 ; Draw the second line
G92 E0 ; Reset Extruder
G1 Z2.0 F3000 ; Move Z Axis up little to prevent scratching of Heat Bed
G1 X5 Y20 Z0.3 F5000.0 ; Move over to prevent blob squish
G92 E0
G92 E0
G1 F2700 E-5
;LAYER_COUNT:13
;LAYER:0
M107
G0 F6000 X132.114 Y23.832 Z0.2
;TYPE:SKIRT
G1 F2700 E0
G1 F1200 X132.797 Y23.209 E0.03075
G1 X134.382 Y22.077 E0.09553
G1 X136.18 Y21.161 E0.16264
G1 X137.719 Y20.635 E0.21674
G1 X139.225 Y20.339 E0.26779
G1 X141.237 Y20.224 E0.33482
G1 X143.041 Y20.382 E0.39505
G1 X143.977 Y20.578 E0.42685
G1 X146.518 Y21.514 E0.51692
G1 X147.528 Y22.069 E0.55525
G1 X149.131 Y23.239 E0.62126
G1 X150.006 Y24.046 E0.66085
G1 X165.813 Y39.861 E1.40455
G1 X168.82 Y36.85 E1.54608
G1 X172.637 Y34.936 E1.6881
G1 X176.369 Y33.95 E1.81649
G1 X180.773 Y33.68 E1.96324
G1 X184.4 Y34.37 E2.08604
G1 X186.917 Y35.19 E2.17409
G1 X189.475 Y36.293 E2.26674
G1 X192.108 Y37.771 E2.36717
G1 X196.252 Y41.919 E2.56218
G1 X198.437 Y45.187 E2.69293
G1 X200.236 Y50.099 E2.86692
G1 X200.144 Y55.307 E3.04016
G1 X198.599 Y60.736 E3.2279
G1 X195.199 Y66.43 E3.44848
G1 X193.809 Y67.863 E3.51488
G1 X206.925 Y81.008 E4.1325
G1 X207.778 Y82.019 E4.17649
G1 X208.925 Y83.803 E4.24704
G1 X209.406 Y84.824 E4.28457
G1 X210.099 Y86.946 E4.35882
G1 X210.255 Y87.784 E4.38717
G1 X210.383 Y90.355 E4.47279
G1 X210.213 Y91.953 E4.52624
G1 X209.974 Y93.031 E4.56296
G1 X209.272 Y94.981 E4.6319
G1 X208.685 Y96.124 E4.67463
G1 X207.554 Y97.763 E4.74086
G1 X206.643 Y98.795 E4.78665
G1 X92.684 Y212.698 E10.14561
G1 X91.602 Y213.613 E10.19274
G1 X89.966 Y214.679 E10.25769
G1 X89.333 Y215 E10.2813
G1 X86.689 Y215.905 E10.37425
G1 X85.746 Y216.076 E10.40612
G1 X83.317 Y216.192 E10.487
G1 X81.925 Y216.058 E10.53351
G1 X80.464 Y215.732 E10.5833
G1 X78.842 Y215.153 E10.64058
G1 X77.248 Y214.318 E10.70043
G1 X75.801 Y213.287 E10.75953
G1 X74.859 Y212.442 E10.80162
G1 X66.291 Y203.874 E11.20463
G1 X63.653 Y207.038 E11.34164
G1 X61.491 Y212.061 E11.52353
G1 X60.322 Y213.636 E11.58877
G1 X59.075 Y214.614 E11.64148
G1 X57.789 Y215.381 E11.69128
G1 X55.971 Y215.916 E11.75431
G1 X54.605 Y216.014 E11.79986
G1 X53.018 Y215.778 E11.85322
G1 X51.563 Y215.392 E11.90329
G1 X49.691 Y214.243 E11.97635
G1 X44.057 Y208.309 E12.2485
G1 X41.315 Y205.511 E12.3788
G1 X38.732 Y202.189 E12.51876
G1 X35.075 Y196.624 E12.74024
G1 X33.015 Y192.852 E12.88319
G1 X30.867 Y187.568 E13.0729
G1 X29.967 Y182.566 E13.24194
G1 X29.855 Y178.409 E13.38025
G1 X31.089 Y173.071 E13.56247
G1 X32.23 Y169.799 E13.67773
G1 X18.009 Y155.563 E14.34699
G1 X17.057 Y154.458 E14.39551
G1 X16.334 Y153.406 E14.43796
G1 X15.337 Y151.401 E14.51244
G1 X14.742 Y149.523 E14.57796
G1 X14.592 Y148.745 E14.60431
G1 X14.445 Y146.133 E14.69133
G1 X14.53 Y145.152 E14.72408
G1 X15.059 Y142.833 E14.80319
G1 X15.687 Y141.258 E14.85958
G1 X16.54 Y139.733 E14.9177
G1 X17.114 Y138.936 E14.95037
G1 X18.225 Y137.68 E15.00614
G1 X132.114 Y23.832 E20.36217
G0 F6000 X132.384 Y24.128
G1 F1200 X133.067 Y23.505 E20.39291
G1 X134.564 Y22.433 E20.45415
G1 X136.309 Y21.54 E20.51935
G1 X137.848 Y21.014 E20.57345
G1 X139.248 Y20.738 E20.62091
G1 X141.203 Y20.623 E20.68604
G1 X142.959 Y20.774 E20.74466
G1 X143.895 Y20.97 E20.77647
G1 X146.325 Y21.865 E20.8626
G1 X147.335 Y22.42 E20.90093
G1 X148.86 Y23.533 E20.96372
G1 X149.723 Y24.329 E21.00277
G1 X165.869 Y40.483 E21.76242
G1 X166.047 Y40.193 E21.77374
G1 X169.057 Y37.179 E21.91541
G1 X172.78 Y35.312 E22.05394
G1 X176.435 Y34.346 E22.17968
G1 X180.746 Y34.082 E22.32333
G1 X184.325 Y34.763 E22.4445
G1 X186.759 Y35.557 E22.52966
G1 X189.279 Y36.642 E22.62091
G1 X191.864 Y38.093 E22.71951
G1 X195.944 Y42.177 E22.91151
G1 X198.076 Y45.365 E23.03907
G1 X199.835 Y50.168 E23.2092
G1 X199.745 Y55.247 E23.37815
G1 X198.228 Y60.578 E23.5625
G1 X194.881 Y66.183 E23.77963
G1 X193.247 Y67.867 E23.85767
G1 X206.619 Y81.266 E24.48729
G1 X207.472 Y82.277 E24.53128
G1 X208.563 Y83.973 E24.59836
G1 X209.044 Y84.994 E24.63589
G1 X209.706 Y87.021 E24.70682
G1 X209.855 Y87.804 E24.73333
G1 X209.983 Y90.375 E24.81894
G1 X209.822 Y91.866 E24.86882
G1 X209.583 Y92.944 E24.90555
G1 X208.916 Y94.798 E24.97108
G1 X208.329 Y95.941 E25.01382
G1 X207.254 Y97.498 E25.07675
G1 X206.36 Y98.512 E25.12171
G1 X92.425 Y212.393 E30.47959
G1 X91.383 Y213.278 E30.52506
G1 X89.785 Y214.322 E30.58855
G1 X89.152 Y214.643 E30.61216
G1 X86.617 Y215.512 E30.70129
G1 X85.727 Y215.676 E30.73139
G1 X83.298 Y215.792 E30.81227
G1 X81.964 Y215.66 E30.85685
G1 X80.598 Y215.355 E30.90341
G1 X78.976 Y214.776 E30.96069
G1 X77.48 Y213.992 E31.01686
G1 X76.068 Y212.989 E31.07447
G1 X75.142 Y212.159 E31.11583
G1 X66.264 Y203.281 E31.53342
G1 X63.309 Y206.826 E31.68692
G1 X61.144 Y211.858 E31.86912
G1 X60.031 Y213.356 E31.93119
G1 X58.87 Y214.27 E31.98034
G1 X57.627 Y215.011 E32.02847
G1 X55.898 Y215.52 E32.08842
G1 X54.622 Y215.612 E32.13097
G1 X53.077 Y215.382 E32.18292
G1 X51.724 Y215.021 E32.22949
G1 X49.944 Y213.929 E32.29895
G1 X44.343 Y208.029 E32.56953
G1 X41.631 Y205.265 E32.69832
G1 X39.048 Y201.943 E32.83828
G1 X35.426 Y196.432 E33.05762
G1 X33.386 Y192.701 E33.19905
G1 X31.253 Y187.455 E33.38741
G1 X30.367 Y182.555 E33.55302
G1 X30.256 Y178.45 E33.68961
G1 X31.467 Y173.203 E33.86871
G1 X32.691 Y169.694 E33.99232
G1 X18.312 Y155.301 E34.66899
G1 X17.387 Y154.231 E34.71603
G1 X16.664 Y153.179 E34.75849
G1 X15.695 Y151.223 E34.83109
G1 X15.135 Y149.447 E34.89303
G1 X14.985 Y148.669 E34.91938
G1 X14.844 Y146.168 E35.0027
G1 X14.929 Y145.187 E35.03545
G1 X15.431 Y142.98 E35.11073
G1 X16.036 Y141.453 E35.16536
G1 X16.865 Y139.967 E35.22195
G1 X17.439 Y139.17 E35.25462
G1 X18.508 Y137.963 E35.30825
G1 X132.384 Y24.128 E40.66366
G0 F6000 X132.654 Y24.424
G1 F1200 X133.337 Y23.801 E40.69441
G1 X134.796 Y22.759 E40.75404
G1 X136.438 Y21.919 E40.81538
G1 X137.977 Y21.393 E40.86948
G1 X139.272 Y21.137 E40.91338
G1 X141.169 Y21.022 E40.97659
G1 X142.925 Y21.173 E41.03521
G1 X143.812 Y21.361 E41.06537
G1 X146.132 Y22.216 E41.14761
G1 X147.142 Y22.771 E41.18594
G1 X148.589 Y23.827 E41.24552
G1 X149.44 Y24.612 E41.28403
G1 X165.945 Y41.125 E42.06056
G1 X166.363 Y40.443 E42.08716
G1 X169.294 Y37.508 E42.22512
G1 X172.923 Y35.688 E42.36015
G1 X176.501 Y34.742 E42.48325
G1 X180.72 Y34.484 E42.62383
G1 X184.201 Y35.143 E42.74167
G1 X186.601 Y35.925 E42.82562
G1 X189.083 Y36.991 E42.91547
G1 X191.62 Y38.415 E43.01223
G1 X195.633 Y42.432 E43.20108
G1 X197.716 Y45.547 E43.32572
G1 X199.434 Y50.237 E43.49185
G1 X199.346 Y55.186 E43.65648
G1 X197.856 Y60.421 E43.83751
G1 X194.563 Y65.936 E44.05115
G1 X192.686 Y67.871 E44.14081
G1 X206.313 Y81.524 E44.7824
G1 X207.166 Y82.535 E44.82639
G1 X208.201 Y84.143 E44.89
G1 X208.682 Y85.164 E44.92753
G1 X209.313 Y87.098 E44.9952
G1 X209.455 Y87.824 E45.0198
G1 X209.583 Y90.395 E45.10542
G1 X209.431 Y91.779 E45.15173
G1 X209.192 Y92.857 E45.18845
G1 X208.56 Y94.615 E45.25059
G1 X207.973 Y95.758 E45.29332
G1 X206.954 Y97.234 E45.35298
G1 X206.077 Y98.229 E45.39709
G1 X92.165 Y212.089 E50.75394
G1 X91.164 Y212.943 E50.7977
G1 X89.604 Y213.965 E50.85973
G1 X88.971 Y214.286 E50.88334
G1 X86.543 Y215.119 E50.96872
G1 X85.708 Y215.276 E50.99697
G1 X83.279 Y215.392 E51.07785
G1 X82.005 Y215.262 E51.12045
G1 X80.732 Y214.978 E51.16383
G1 X79.11 Y214.399 E51.22111
G1 X77.712 Y213.666 E51.27361
G1 X76.3 Y212.663 E51.33122
G1 X75.425 Y211.876 E51.37036
G1 X66.237 Y202.688 E51.80254
G1 X62.965 Y206.614 E51.97252
G1 X60.797 Y211.655 E52.15503
G1 X59.741 Y213.075 E52.21389
G1 X58.665 Y213.926 E52.25952
G1 X57.465 Y214.641 E52.30598
G1 X55.825 Y215.124 E52.36284
G1 X54.638 Y215.21 E52.40242
G1 X53.18 Y214.995 E52.45144
G1 X51.882 Y214.649 E52.49612
G1 X50.197 Y213.615 E52.56188
G1 X44.633 Y207.754 E52.83066
G1 X41.947 Y205.019 E52.95816
G1 X39.364 Y201.697 E53.09812
G1 X35.777 Y196.24 E53.31532
G1 X33.757 Y192.55 E53.45524
G1 X31.64 Y187.343 E53.64219
G1 X30.767 Y182.544 E53.80443
G1 X30.657 Y178.491 E53.93928
G1 X31.845 Y173.335 E54.11526
G1 X33.152 Y169.589 E54.24722
G1 X18.595 Y155.018 E54.93227
G1 X17.717 Y154.004 E54.97688
G1 X16.994 Y152.952 E55.01933
G1 X16.076 Y151.102 E55.08802
G1 X15.528 Y149.371 E55.14841
G1 X15.378 Y148.593 E55.17477
G1 X15.243 Y146.203 E55.25439
G1 X15.328 Y145.222 E55.28714
G1 X15.803 Y143.127 E55.35858
G1 X16.386 Y141.647 E55.41149
G1 X17.19 Y140.201 E55.46652
G1 X17.764 Y139.404 E55.49919
G1 X18.791 Y138.246 E55.55067
G1 X132.654 Y24.424 E60.90547
G0 F6000 X132.924 Y24.72
G1 F1200 X133.607 Y24.097 E60.93622
G1 X135.028 Y23.085 E60.99424
G1 X136.567 Y22.298 E61.05173
G1 X138.106 Y21.772 E61.10583
G1 X139.297 Y21.536 E61.14621
G1 X141.135 Y21.421 E61.20746
G1 X142.891 Y21.572 E61.26608
G1 X143.728 Y21.752 E61.29456
G1 X145.939 Y22.567 E61.37293
G1 X146.949 Y23.122 E61.41126
G1 X148.318 Y24.121 E61.46763
G1 X149.157 Y24.895 E61.5056
G1 X166.021 Y41.767 E62.29901
G1 X166.679 Y40.693 E62.34091
G1 X169.531 Y37.837 E62.47515
G1 X173.066 Y36.064 E62.60668
G1 X176.567 Y35.138 E62.72713
G1 X180.694 Y34.886 E62.86465
G1 X184.077 Y35.523 E62.97915
G1 X186.443 Y36.293 E63.06191
G1 X188.887 Y37.34 E63.15034
G1 X191.376 Y38.737 E63.24527
G1 X195.322 Y42.687 E63.43097
G1 X197.356 Y45.729 E63.55268
G1 X199.033 Y50.306 E63.71481
G1 X198.947 Y55.126 E63.87515
G1 X197.485 Y60.263 E64.05279
G1 X194.244 Y65.691 E64.26306
G1 X192.125 Y67.876 E64.3643
G1 X206.007 Y81.782 E65.01783
G1 X206.86 Y82.793 E65.06183
G1 X207.839 Y84.313 E65.12196
G1 X208.32 Y85.334 E65.1595
G1 X208.92 Y87.175 E65.2239
G1 X209.062 Y87.901 E65.2485
G1 X209.185 Y90.352 E65.33013
G1 X209.04 Y91.692 E65.37496
G1 X208.801 Y92.77 E65.41168
G1 X208.204 Y94.432 E65.47042
G1 X207.617 Y95.575 E65.51315
G1 X206.654 Y96.97 E65.56953
G1 X205.794 Y97.946 E65.6128
G1 X91.882 Y211.806 E70.96965
G1 X90.944 Y212.609 E71.01072
G1 X89.423 Y213.608 E71.07124
G1 X88.79 Y213.929 E71.09485
G1 X86.467 Y214.726 E71.17653
G1 X85.688 Y214.876 E71.20292
G1 X83.32 Y214.994 E71.28177
G1 X82.046 Y214.864 E71.32437
G1 X80.866 Y214.601 E71.36458
G1 X79.244 Y214.022 E71.42186
G1 X77.943 Y213.34 E71.47072
G1 X76.567 Y212.365 E71.52681
G1 X75.708 Y211.593 E71.56522
G1 X66.21 Y202.095 E72.01198
G1 X62.621 Y206.402 E72.19844
G1 X60.45 Y211.452 E72.38127
G1 X59.451 Y212.795 E72.43694
G1 X58.46 Y213.582 E72.47903
G1 X57.303 Y214.271 E72.52382
G1 X55.752 Y214.728 E72.5776
G1 X54.654 Y214.808 E72.61422
G1 X53.238 Y214.599 E72.66182
G1 X52.042 Y214.278 E72.70301
G1 X50.45 Y213.301 E72.76514
G1 X44.923 Y207.479 E73.03214
G1 X42.263 Y204.773 E73.15834
G1 X39.68 Y201.451 E73.2983
G1 X36.128 Y196.048 E73.51336
G1 X34.128 Y192.399 E73.65176
G1 X32.027 Y187.23 E73.83734
G1 X31.161 Y182.472 E73.9982
G1 X31.058 Y178.532 E74.12929
G1 X32.223 Y173.467 E74.30215
G1 X33.613 Y169.484 E74.44246
G1 X18.878 Y154.735 E75.13588
G1 X18.047 Y153.777 E75.17806
G1 X17.324 Y152.725 E75.22051
G1 X16.457 Y150.981 E75.28529
G1 X15.921 Y149.295 E75.34413
G1 X15.771 Y148.517 E75.37049
G1 X15.642 Y146.238 E75.44641
G1 X15.727 Y145.257 E75.47916
G1 X16.176 Y143.273 E75.54681
G1 X16.736 Y141.841 E75.59796
G1 X17.515 Y140.435 E75.65142
G1 X18.089 Y139.638 E75.68408
G1 X19.074 Y138.529 E75.73342
G1 X132.924 Y24.72 E81.08761
G0 F6000 X133.194 Y25.016
G1 F1200 X133.877 Y24.393 E81.11836
G1 X135.26 Y23.411 E81.17477
G1 X136.696 Y22.677 E81.22841
G1 X138.235 Y22.151 E81.28251
G1 X139.323 Y21.935 E81.3194
G1 X141.101 Y21.82 E81.37866
G1 X142.857 Y21.971 E81.43728
G1 X143.59 Y22.128 E81.46221
G1 X145.746 Y22.918 E81.53858
G1 X146.756 Y23.473 E81.57691
G1 X148.047 Y24.415 E81.63007
G1 X148.874 Y25.178 E81.66749
G1 X166.097 Y42.409 E82.4778
G1 X166.995 Y40.943 E82.53498
G1 X169.768 Y38.166 E82.66551
G1 X173.209 Y36.44 E82.79354
G1 X176.633 Y35.534 E82.91135
G1 X180.668 Y35.288 E83.0458
G1 X183.953 Y35.903 E83.15696
G1 X186.286 Y36.661 E83.23855
G1 X188.691 Y37.689 E83.32554
G1 X191.132 Y39.059 E83.41864
G1 X195.014 Y42.945 E83.60133
G1 X196.995 Y45.907 E83.71985
G1 X198.632 Y50.375 E83.87812
G1 X198.548 Y55.066 E84.03416
G1 X197.114 Y60.105 E84.20842
G1 X193.926 Y65.444 E84.41524
G1 X191.563 Y67.88 E84.52812
G1 X205.702 Y82.041 E85.19369
G1 X206.524 Y83.01 E85.23596
G1 X207.477 Y84.483 E85.29431
G1 X207.958 Y85.504 E85.33185
G1 X208.527 Y87.252 E85.39299
G1 X208.669 Y87.978 E85.41759
G1 X208.787 Y90.309 E85.49522
G1 X208.642 Y91.649 E85.54005
G1 X208.411 Y92.683 E85.57529
G1 X207.848 Y94.249 E85.63064
G1 X207.261 Y95.392 E85.67337
G1 X206.354 Y96.706 E85.72648
G1 X205.511 Y97.663 E85.7689
G1 X91.599 Y211.523 E91.12574
G1 X90.724 Y212.275 E91.16412
G1 X89.242 Y213.251 E91.22314
G1 X88.609 Y213.572 E91.24674
G1 X86.391 Y214.333 E91.32474
G1 X85.612 Y214.483 E91.35112
G1 X83.361 Y214.596 E91.42608
G1 X82.087 Y214.466 E91.46868
G1 X81 Y214.224 E91.50572
G1 X79.378 Y213.645 E91.563
G1 X78.174 Y213.013 E91.60823
G1 X76.834 Y212.067 E91.66278
G1 X75.991 Y211.31 E91.70047
G1 X66.184 Y201.503 E92.16176
G1 X62.277 Y206.19 E92.36471
G1 X60.102 Y211.249 E92.54786
G1 X59.161 Y212.515 E92.60033
G1 X58.255 Y213.238 E92.63888
G1 X57.141 Y213.901 E92.682
G1 X55.679 Y214.332 E92.73269
G1 X54.67 Y214.406 E92.76634
G1 X53.296 Y214.203 E92.81254
G1 X52.202 Y213.907 E92.85023
G1 X50.703 Y212.987 E92.90873
G1 X45.208 Y207.198 E93.1742
G1 X42.579 Y204.527 E93.29885
G1 X39.996 Y201.205 E93.43881
G1 X36.479 Y195.856 E93.65173
G1 X34.499 Y192.248 E93.78862
G1 X32.412 Y187.113 E93.97298
G1 X31.561 Y182.462 E94.13024
G1 X31.459 Y178.573 E94.25963
G1 X32.601 Y173.599 E94.42937
G1 X33.933 Y169.782 E94.56383
G1 X34.113 Y169.418 E94.57734
G1 X19.18 Y154.472 E95.28005
G1 X18.377 Y153.55 E95.32071
G1 X17.654 Y152.498 E95.36317
G1 X16.816 Y150.804 E95.42603
G1 X16.314 Y149.219 E95.48133
G1 X16.164 Y148.441 E95.50768
G1 X16.041 Y146.273 E95.5799
G1 X16.126 Y145.292 E95.61265
G1 X16.566 Y143.362 E95.67849
G1 X17.086 Y142.034 E95.72593
G1 X17.84 Y140.669 E95.77779
G1 X18.414 Y139.872 E95.81046
G1 X19.357 Y138.812 E95.85765
G1 X133.194 Y25.016 E101.21123
G0 F6000 X133.464 Y25.312
G1 F1200 X134.147 Y24.689 E101.24198
G1 X135.491 Y23.738 E101.29674
G1 X136.877 Y23.034 E101.34844
G1 X138.363 Y22.53 E101.40063
G1 X139.349 Y22.334 E101.43407
G1 X141.127 Y22.219 E101.49333
G1 X142.775 Y22.363 E101.54835
G1 X143.452 Y22.504 E101.57135
G1 X145.608 Y23.294 E101.64772
G1 X146.562 Y23.823 E101.684
G1 X147.776 Y24.709 E101.73399
G1 X148.591 Y25.461 E101.77087
G1 X166.173 Y43.051 E102.59806
G1 X167.311 Y41.193 E102.67053
G1 X170.005 Y38.495 E102.79734
G1 X173.352 Y36.816 E102.92189
G1 X176.699 Y35.93 E103.03704
G1 X180.643 Y35.69 E103.16846
G1 X183.83 Y36.284 E103.27629
G1 X186.129 Y37.029 E103.35667
G1 X188.495 Y38.038 E103.44222
G1 X190.888 Y39.381 E103.53349
G1 X194.703 Y43.2 E103.71303
G1 X196.635 Y46.089 E103.82862
G1 X198.231 Y50.444 E103.98289
G1 X198.149 Y55.006 E104.13465
G1 X196.743 Y59.947 E104.30551
G1 X193.608 Y65.197 E104.50889
G1 X191.001 Y67.884 E104.63341
G1 X205.398 Y82.301 E105.31107
G1 X206.189 Y83.228 E105.3516
G1 X207.115 Y84.653 E105.40813
G1 X207.596 Y85.674 E105.44566
G1 X208.134 Y87.329 E105.50355
G1 X208.276 Y88.055 E105.52815
G1 X208.389 Y90.266 E105.60178
G1 X208.244 Y91.606 E105.64661
G1 X208.034 Y92.548 E105.67871
G1 X207.492 Y94.066 E105.73232
G1 X206.905 Y95.209 E105.77506
G1 X206.054 Y96.442 E105.82489
G1 X205.228 Y97.38 E105.86646
G1 X91.337 Y211.22 E111.22234
G1 X90.503 Y211.941 E111.25901
G1 X89.061 Y212.894 E111.3165
G1 X88.428 Y213.215 E111.34011
G1 X86.315 Y213.94 E111.41441
G1 X85.536 Y214.09 E111.44079
G1 X83.402 Y214.198 E111.51186
G1 X82.128 Y214.068 E111.55445
