;FLAVOR:Marlin
;TIME:10615
;Filament used: 9.53881m
;Layer height: 0.2
;MINX:61.184
;MINY:15.642
;MINZ:0.2
;MAXX:166.884
;MAXY:201.974
;MAXZ:3.6
;TARGET_MACHINE.NAME:Creality Ender-3
;POSTPROCESSED
;Generated with Cura_SteamEngine 5.5.0
M140 S60
M105
M190 S60
M104 S220
M105
M109 S220
M82 ;absolute extrusion mode
; Ender 3 Custom Start G-code
G92 E0 ; Reset Extruder
G28 ; Home all axes
G1 Z2.0 F3000 ; Move Z Axis up little to prevent scratching of Heat Bed
G1 X0.1 Y20 Z0.3 F5000.0 ; Move to start position
G1 X0.1 Y200.0 Z0.3 F1500.0 E15 ; Draw the first line
G1 X0.4 Y200.0 Z0.3 F5000.0 ; Move to side a little
G1 X0.4 Y20 Z0.3 F1500.0 E30 ; Draw the second line
G92 E0 ; Reset Extruder
G1 Z2.0 F3000 ; Move Z Axis up little to prevent scratching of Heat Bed
G1 X5 Y20 Z0.3 F5000.0 ; Move over to prevent blob squish
G92 E0
G92 E0
G1 F2700 E-5
;LAYER_COUNT:18
;LAYER:0
M117 Printing Layer 0 of 17 CE3E3V2_nipamayatan_pekiseyahk_plaque_v3_flat
M107
G0 F6000 X62.1 Y23.525 Z0.2
;TYPE:SKIRT
G1 F2700 E0
G1 F1200 X62.839 Y22.004 E0.05624
G1 X63.902 Y20.427 E0.1195
G1 X64.929 Y19.286 E0.17056
G1 X66.601 Y17.896 E0.24288
G1 X68.06 Y17.01 E0.29965
G1 X69.156 Y16.519 E0.33959
G1 X70.592 Y16.06 E0.38973
G1 X73.155 Y15.658 E0.47602
G1 X73.984 Y15.642 E0.5036
G1 X154.656 Y15.662 E3.18676
G1 X155.558 Y15.728 E3.21684
G1 X157.706 Y16.162 E3.28973
G1 X159.204 Y16.699 E3.34266
G1 X160.739 Y17.494 E3.40015
G1 X162.257 Y18.567 E3.46198
G1 X163.27 Y19.497 E3.50772
G1 X164.319 Y20.725 E3.56144
G1 X165.289 Y22.22 E3.62071
G1 X165.854 Y23.379 E3.66359
G1 X166.618 Y25.801 E3.74806
G1 X166.769 Y26.703 E3.77848
G1 X166.884 Y28.441 E3.83641
G1 X166.857 Y189.777 E9.20247
G1 X166.706 Y191.34 E9.2547
G1 X166.484 Y192.4 E9.29072
G1 X165.718 Y194.563 E9.36704
G1 X165.188 Y195.585 E9.40533
G1 X164.051 Y197.24 E9.47211
G1 X162.859 Y198.537 E9.5307
G1 X161.865 Y199.371 E9.57386
G1 X160.184 Y200.446 E9.64023
G1 X158.616 Y201.165 E9.6976
G1 X157.28 Y201.574 E9.74407
G1 X155.133 Y201.936 E9.81649
G1 X154.133 Y201.974 E9.84977
G1 X73.438 Y201.956 E12.5337
G1 X72.105 Y201.847 E12.57818
G1 X70.674 Y201.554 E12.62676
G1 X68.749 Y200.881 E12.69459
G1 X67.405 Y200.191 E12.74484
G1 X65.786 Y199.056 E12.8106
G1 X64.793 Y198.137 E12.8556
G1 X63.626 Y196.756 E12.91574
G1 X62.644 Y195.183 E12.97741
G1 X62.041 Y193.846 E13.0262
G1 X61.53 Y192.173 E13.08438
G1 X61.212 Y190.162 E13.1521
G1 X61.184 Y189.506 E13.17393
G1 X61.184 Y28.211 E18.53863
G1 X61.205 Y27.496 E18.56242
G1 X61.676 Y24.772 E18.65436
G1 X62.1 Y23.525 E18.69817
G0 F6000 X62.479 Y23.654
G1 F1200 X63.171 Y22.228 E18.75089
G1 X64.234 Y20.651 E18.81414
G1 X65.185 Y19.593 E18.86146
G1 X66.809 Y18.238 E18.93181
G1 X68.268 Y17.352 E18.98858
G1 X69.279 Y16.9 E19.02541
G1 X70.655 Y16.455 E19.07351
G1 X73.163 Y16.058 E19.15797
G1 X73.984 Y16.042 E19.18528
G1 X154.627 Y16.061 E21.86748
G1 X155.529 Y16.127 E21.89756
G1 X157.571 Y16.539 E21.96684
G1 X159.069 Y17.076 E22.01977
G1 X160.509 Y17.821 E22.0737
G1 X161.986 Y18.862 E22.1338
G1 X162.999 Y19.792 E22.17954
G1 X163.983 Y20.943 E22.2299
G1 X164.953 Y22.438 E22.28917
G1 X165.473 Y23.5 E22.3285
G1 X166.223 Y25.867 E22.41109
G1 X166.374 Y26.769 E22.44151
G1 X166.484 Y28.441 E22.49724
G1 X166.459 Y189.739 E27.86203
G1 X166.314 Y191.258 E27.91278
G1 X166.092 Y192.318 E27.9488
G1 X165.362 Y194.38 E28.02156
G1 X164.858 Y195.358 E28.05815
G1 X163.721 Y197.013 E28.12493
G1 X162.601 Y198.231 E28.17997
G1 X161.649 Y199.034 E28.22139
G1 X160.017 Y200.082 E28.2859
G1 X158.449 Y200.801 E28.34327
G1 X157.213 Y201.18 E28.38627
G1 X155.118 Y201.536 E28.45695
G1 X154.133 Y201.574 E28.48974
G1 X73.471 Y201.557 E31.17257
G1 X72.138 Y201.448 E31.21705
G1 X70.805 Y201.176 E31.2623
G1 X68.932 Y200.525 E31.32825
G1 X67.588 Y199.835 E31.3785
G1 X66.058 Y198.762 E31.44065
G1 X65.065 Y197.843 E31.48566
G1 X63.932 Y196.498 E31.54415
G1 X63.008 Y195.018 E31.60218
G1 X62.424 Y193.729 E31.64925
G1 X61.913 Y192.056 E31.70743
G1 X61.612 Y190.145 E31.77177
G1 X61.584 Y189.489 E31.79361
G1 X61.584 Y28.223 E37.15734
G1 X61.605 Y27.508 E37.18113
G1 X62.055 Y24.901 E37.26912
G1 X62.479 Y23.654 E37.31293
G0 F6000 X62.858 Y23.783
G1 F1200 X63.503 Y22.452 E37.36212
G1 X64.566 Y20.875 E37.42538
G1 X65.442 Y19.9 E37.46897
G1 X67.017 Y18.58 E37.53732
G1 X68.476 Y17.694 E37.59409
G1 X69.402 Y17.281 E37.62782
G1 X70.778 Y16.836 E37.67592
G1 X73.171 Y16.458 E37.7565
G1 X73.984 Y16.442 E37.78354
G1 X154.598 Y16.46 E40.46477
G1 X155.5 Y16.526 E40.49485
G1 X157.436 Y16.916 E40.56054
G1 X158.934 Y17.453 E40.61347
G1 X160.279 Y18.148 E40.66382
G1 X161.715 Y19.157 E40.7222
G1 X162.728 Y20.087 E40.76793
G1 X163.647 Y21.161 E40.81495
G1 X164.617 Y22.656 E40.87422
G1 X165.113 Y23.675 E40.91191
G1 X165.828 Y25.933 E40.99069
G1 X165.979 Y26.835 E41.02111
G1 X166.084 Y28.441 E41.07464
G1 X166.061 Y189.701 E46.43817
G1 X165.922 Y191.176 E46.48744
G1 X165.7 Y192.236 E46.52347
G1 X165.006 Y194.197 E46.59265
G1 X164.502 Y195.175 E46.62925
G1 X163.426 Y196.743 E46.6925
G1 X162.342 Y197.926 E46.74586
G1 X161.432 Y198.698 E46.78555
G1 X159.85 Y199.718 E46.84816
G1 X158.282 Y200.437 E46.90553
G1 X157.145 Y200.786 E46.94509
G1 X155.102 Y201.136 E47.01403
G1 X154.133 Y201.174 E47.04629
G1 X73.504 Y201.158 E49.72802
G1 X72.171 Y201.049 E49.7725
G1 X70.936 Y200.798 E49.81442
G1 X69.115 Y200.169 E49.8785
G1 X67.771 Y199.479 E49.92874
G1 X66.33 Y198.468 E49.98729
G1 X65.337 Y197.549 E50.03229
G1 X64.271 Y196.285 E50.08729
G1 X63.372 Y194.852 E50.14355
G1 X62.807 Y193.612 E50.18887
G1 X62.296 Y191.939 E50.24706
G1 X62.012 Y190.128 E50.30803
G1 X61.984 Y189.472 E50.32987
G1 X61.984 Y28.235 E55.69263
G1 X62.005 Y27.52 E55.71642
G1 X62.434 Y25.03 E55.80046
G1 X62.858 Y23.783 E55.84427
G0 F6000 X63.237 Y23.912
G1 F1200 X63.835 Y22.676 E55.88993
G1 X64.898 Y21.099 E55.95319
G1 X65.699 Y20.207 E55.99306
G1 X67.274 Y18.887 E56.06141
G1 X68.64 Y18.059 E56.11454
G1 X69.525 Y17.662 E56.1468
G1 X70.901 Y17.217 E56.1949
G1 X73.179 Y16.858 E56.2716
G1 X73.984 Y16.842 E56.29838
G1 X154.569 Y16.859 E58.97865
G1 X155.471 Y16.925 E59.00873
G1 X157.301 Y17.293 E59.07082
G1 X158.799 Y17.83 E59.12375
G1 X160.05 Y18.476 E59.17057
G1 X161.444 Y19.452 E59.22717
G1 X162.457 Y20.382 E59.27291
G1 X163.311 Y21.379 E59.31657
G1 X164.281 Y22.874 E59.37585
G1 X164.753 Y23.849 E59.41188
G1 X165.433 Y25.999 E59.48688
G1 X165.584 Y26.901 E59.51729
G1 X165.684 Y28.441 E59.56862
G1 X165.663 Y189.664 E64.93092
G1 X165.53 Y191.094 E64.97869
G1 X165.308 Y192.154 E65.01471
G1 X164.65 Y194.014 E65.08033
G1 X164.146 Y194.992 E65.11692
G1 X163.131 Y196.473 E65.17664
G1 X162.082 Y197.622 E65.22839
G1 X161.214 Y198.362 E65.26632
G1 X159.683 Y199.354 E65.327
G1 X158.115 Y200.073 E65.38437
G1 X157.077 Y200.392 E65.42049
G1 X155.086 Y200.736 E65.48769
G1 X154.133 Y200.774 E65.51942
G1 X73.537 Y200.759 E68.20005
G1 X72.204 Y200.65 E68.24453
G1 X71.066 Y200.42 E68.28315
G1 X69.298 Y199.813 E68.34532
G1 X67.954 Y199.123 E68.39557
G1 X66.601 Y198.174 E68.45054
G1 X65.643 Y197.291 E68.49387
G1 X64.577 Y196.027 E68.54887
G1 X63.736 Y194.685 E68.60154
G1 X63.19 Y193.495 E68.64509
G1 X62.679 Y191.822 E68.70327
G1 X62.412 Y190.111 E68.76087
G1 X62.384 Y189.455 E68.78271
G1 X62.384 Y28.247 E74.14451
G1 X62.405 Y27.532 E74.1683
G1 X62.813 Y25.159 E74.24838
G1 X63.237 Y23.912 E74.29219
G0 F6000 X63.616 Y24.041
G1 F1200 X64.167 Y22.899 E74.33436
G1 X65.197 Y21.365 E74.39582
G1 X65.956 Y20.514 E74.43374
G1 X67.531 Y19.194 E74.50209
G1 X68.846 Y18.402 E74.55315
G1 X69.648 Y18.043 E74.58238
G1 X71.024 Y17.598 E74.63048
G1 X73.187 Y17.258 E74.7033
G1 X73.984 Y17.242 E74.72981
G1 X154.54 Y17.258 E77.40912
G1 X155.442 Y17.324 E77.4392
G1 X157.166 Y17.67 E77.49768
G1 X158.664 Y18.207 E77.55061
G1 X159.821 Y18.804 E77.59391
G1 X161.173 Y19.747 E77.64874
G1 X162.186 Y20.677 E77.69448
G1 X162.975 Y21.597 E77.73479
G1 X163.945 Y23.092 E77.79406
G1 X164.392 Y24.022 E77.82838
G1 X165.038 Y26.065 E77.89965
G1 X165.189 Y26.967 E77.93006
G1 X165.284 Y28.441 E77.97919
G1 X165.265 Y189.627 E83.34026
G1 X165.138 Y191.012 E83.38652
G1 X164.916 Y192.072 E83.42254
G1 X164.294 Y193.831 E83.48459
G1 X163.79 Y194.809 E83.52119
G1 X162.836 Y196.203 E83.57737
G1 X161.787 Y197.352 E83.62912
G1 X160.996 Y198.026 E83.66368
G1 X159.465 Y199.018 E83.72436
G1 X157.949 Y199.709 E83.77977
G1 X157.008 Y199.998 E83.81251
G1 X155.07 Y200.336 E83.87794
G1 X154.133 Y200.374 E83.90913
G1 X73.57 Y200.36 E86.58867
G1 X72.237 Y200.251 E86.63315
G1 X71.195 Y200.041 E86.66851
G1 X69.481 Y199.457 E86.72873
G1 X68.137 Y198.767 E86.77898
G1 X66.871 Y197.879 E86.83041
G1 X65.949 Y197.033 E86.87203
G1 X64.883 Y195.769 E86.92703
G1 X64.099 Y194.517 E86.97616
G1 X63.573 Y193.378 E87.01789
G1 X63.062 Y191.705 E87.07607
G1 X62.812 Y190.094 E87.13029
G1 X62.784 Y189.438 E87.15213
G1 X62.784 Y28.259 E92.51297
G1 X62.805 Y27.544 E92.53676
G1 X63.192 Y25.288 E92.61289
G1 X63.616 Y24.041 E92.6567
G0 F6000 X63.995 Y24.17
G1 F1200 X64.527 Y23.074 E92.69722
G1 X65.497 Y21.63 E92.75508
G1 X66.213 Y20.821 E92.79101
G1 X67.788 Y19.501 E92.85936
G1 X69.011 Y18.767 E92.9068
G1 X69.771 Y18.424 E92.93453
G1 X71.147 Y17.979 E92.98263
G1 X73.195 Y17.658 E93.05158
G1 X73.984 Y17.642 E93.07783
G1 X154.511 Y17.657 E95.75617
G1 X155.413 Y17.723 E95.78625
G1 X157.031 Y18.047 E95.84113
G1 X158.529 Y18.584 E95.89406
G1 X159.593 Y19.133 E95.93388
G1 X160.902 Y20.042 E95.98689
G1 X161.915 Y20.972 E96.03262
G1 X162.64 Y21.815 E96.06961
G1 X163.584 Y23.265 E96.12715
G1 X164.031 Y24.195 E96.16147
G1 X164.643 Y26.131 E96.229
G1 X164.794 Y27.033 E96.25942
G1 X164.884 Y28.441 E96.30635
G1 X164.867 Y189.591 E101.66622
G1 X164.746 Y190.93 E101.71094
G1 X164.524 Y191.99 E101.74696
G1 X163.938 Y193.648 E101.80544
G1 X163.434 Y194.626 E101.84204
G1 X162.54 Y195.934 E101.89473
G1 X161.526 Y197.048 E101.94484
G1 X160.778 Y197.69 E101.97762
G1 X159.247 Y198.682 E102.0383
G1 X157.784 Y199.345 E102.09172
G1 X156.939 Y199.604 E102.12112
G1 X155.054 Y199.936 E102.18478
G1 X154.133 Y199.974 E102.21543
G1 X73.603 Y199.961 E104.89387
G1 X72.27 Y199.852 E104.93836
G1 X71.323 Y199.662 E104.97048
G1 X69.664 Y199.101 E105.02873
G1 X68.32 Y198.411 E105.07898
G1 X67.141 Y197.584 E105.12688
G1 X66.255 Y196.775 E105.16678
G1 X65.189 Y195.511 E105.22178
G1 X64.462 Y194.348 E105.2674
G1 X63.956 Y193.261 E105.30727
G1 X63.445 Y191.588 E105.36546
G1 X63.212 Y190.077 E105.41631
G1 X63.184 Y189.421 E105.43815
G1 X63.184 Y28.271 E110.79802
G1 X63.205 Y27.556 E110.82181
G1 X63.571 Y25.417 E110.89398
G1 X63.995 Y24.17 E110.93779
G0 F6000 X64.355 Y24.345
G1 F1200 X64.887 Y23.249 E110.97831
G1 X65.797 Y21.895 E111.03257
G1 X66.513 Y21.086 E111.0685
G1 X67.994 Y19.844 E111.13279
G1 X69.177 Y19.131 E111.17873
G1 X69.894 Y18.805 E111.20493
G1 X71.27 Y18.36 E111.25303
G1 X73.203 Y18.058 E111.3181
G1 X73.984 Y18.042 E111.34408
G1 X154.482 Y18.056 E114.02146
G1 X155.384 Y18.122 E114.05154
G1 X156.896 Y18.424 E114.10282
G1 X158.394 Y18.961 E114.15575
G1 X159.409 Y19.488 E114.19379
G1 X160.631 Y20.337 E114.24328
G1 X161.644 Y21.267 E114.28902
G1 X162.336 Y22.075 E114.3244
G1 X163.223 Y23.438 E114.37849
G1 X163.67 Y24.368 E114.41281
G1 X164.248 Y26.197 E114.4766
G1 X164.399 Y27.099 E114.50702
G1 X164.484 Y28.441 E114.55175
G1 X164.469 Y189.556 E119.91045
G1 X164.354 Y190.848 E119.95359
G1 X164.132 Y191.908 E119.98962
G1 X163.582 Y193.465 E120.04454
G1 X163.078 Y194.443 E120.08113
G1 X162.244 Y195.665 E120.13034
G1 X161.264 Y196.745 E120.17884
G1 X160.56 Y197.354 E120.2098
G1 X159.029 Y198.346 E120.27048
G1 X157.665 Y198.963 E120.32027
G1 X156.869 Y199.21 E120.34799
G1 X155.037 Y199.536 E120.40988
G1 X154.133 Y199.574 E120.43998
G1 X73.636 Y199.562 E123.11732
G1 X72.303 Y199.453 E123.1618
G1 X71.45 Y199.283 E123.19073
G1 X69.847 Y198.745 E123.24697
G1 X68.503 Y198.055 E123.29722
G1 X67.41 Y197.288 E123.34163
G1 X66.561 Y196.517 E123.37977
G1 X65.495 Y195.253 E123.43477
G1 X64.825 Y194.179 E123.47687
G1 X64.319 Y193.092 E123.51675
G1 X63.84 Y191.527 E123.57119
G1 X63.612 Y190.06 E123.62056
G1 X63.584 Y189.404 E123.6424
G1 X63.584 Y28.283 E129.00131
G1 X63.605 Y27.568 E129.0251
G1 X63.965 Y25.485 E129.09541
G1 X64.355 Y24.345 E129.13548
G0 F6000 X64.715 Y24.52
G1 F1200 X65.247 Y23.424 E129.176
G1 X66.097 Y22.16 E129.22666
G1 X66.813 Y21.351 E129.2626
G1 X68.201 Y20.186 E129.32287
G1 X69.344 Y19.495 E129.36729
G1 X70.017 Y19.186 E129.39192
G1 X71.393 Y18.741 E129.44002
G1 X73.211 Y18.458 E129.50122
G1 X73.984 Y18.442 E129.52693
G1 X154.453 Y18.455 E132.20334
G1 X155.355 Y18.521 E132.23342
G1 X156.762 Y18.801 E132.28114
G1 X158.21 Y19.316 E132.33225
G1 X159.225 Y19.843 E132.37029
G1 X160.36 Y20.632 E132.41627
G1 X161.373 Y21.562 E132.46201
G1 X162.032 Y22.335 E132.49579
G1 X162.862 Y23.611 E132.54642
G1 X163.309 Y24.541 E132.58074
G1 X163.853 Y26.263 E132.6408
G1 X164.004 Y27.165 E132.67122
G1 X164.084 Y28.441 E132.71374
G1 X164.071 Y189.521 E138.07129
G1 X163.962 Y190.766 E138.11285
G1 X163.74 Y191.826 E138.14887
G1 X163.226 Y193.283 E138.20026
G1 X162.747 Y194.218 E138.2352
G1 X161.947 Y195.397 E138.28259
G1 X161.002 Y196.442 E138.32945
G1 X160.298 Y197.051 E138.36041
G1 X158.864 Y197.982 E138.41728
G1 X157.545 Y198.581 E138.46546
G1 X156.798 Y198.816 E138.49151
G1 X155.02 Y199.136 E138.55159
G1 X154.133 Y199.174 E138.58112
G1 X73.668 Y199.163 E141.2574
G1 X72.38 Y199.06 E141.30037
G1 X71.576 Y198.903 E141.32762
G1 X70.03 Y198.389 E141.38181
G1 X68.686 Y197.699 E141.43206
G1 X67.678 Y196.991 E141.47303
G1 X66.866 Y196.258 E141.50941
G1 X65.834 Y195.04 E141.56251
G1 X65.188 Y194.01 E141.60295
G1 X64.682 Y192.923 E141.64282
G1 X64.235 Y191.465 E141.69355
G1 X64.012 Y190.043 E141.74142
G1 X63.984 Y189.387 E141.76326
G1 X63.984 Y28.295 E147.1212
G1 X64.005 Y27.58 E147.14499
G1 X64.359 Y25.554 E147.2134
G1 X64.715 Y24.52 E147.24977
G0 F6000 X65.075 Y24.695
G1 F1200 X65.607 Y23.599 E147.29029
G1 X66.397 Y22.425 E147.33735
G1 X67.113 Y21.616 E147.37329
G1 X68.409 Y20.528 E147.42957
G1 X69.511 Y19.859 E147.47245
G1 X70.184 Y19.55 E147.49708
G1 X71.515 Y19.122 E147.54358
G1 X73.219 Y18.858 E147.60093
G1 X73.984 Y18.842 E147.62638
G1 X154.424 Y18.854 E150.30182
G1 X155.326 Y18.92 E150.33191
G1 X156.629 Y19.178 E150.37608
G1 X158.026 Y19.671 E150.42536
G1 X159.041 Y20.198 E150.4634
G1 X160.089 Y20.927 E150.50586
G1 X161.102 Y21.857 E150.55159
G1 X161.727 Y22.594 E150.58373
G1 X162.501 Y23.784 E150.63095
G1 X162.948 Y24.714 E150.66527
G1 X163.458 Y26.329 E150.7216
G1 X163.609 Y27.231 E150.75202
G1 X163.684 Y28.441 E150.79234
G1 X163.672 Y189.487 E156.14875
G1 X163.57 Y190.684 E156.18871
G1 X163.348 Y191.744 E156.22473
G1 X162.869 Y193.102 E156.27262
G1 X162.416 Y193.993 E156.30587
G1 X161.616 Y195.172 E156.35326
G1 X160.74 Y196.139 E156.39665
G1 X160.036 Y196.748 E156.42761
G1 X158.647 Y197.646 E156.48263
G1 X157.424 Y198.2 E156.52728
G1 X156.726 Y198.422 E156.55164
G1 X155.003 Y198.736 E156.6099
G1 X154.133 Y198.774 E156.63886
G1 X73.699 Y198.764 E159.3141
G1 X72.457 Y198.667 E159.35554
G1 X71.653 Y198.51 E159.38279
G1 X70.213 Y198.033 E159.43324
G1 X68.869 Y197.343 E159.48349
G1 X67.945 Y196.693 E159.52106
G1 X67.171 Y195.999 E159.55564
G1 X66.139 Y194.781 E159.60874
G1 X65.551 Y193.841 E159.64561
G1 X65.045 Y192.754 E159.68549
G1 X64.63 Y191.402 E159.73253
G1 X64.412 Y190.026 E159.77887
G1 X64.384 Y189.37 E159.80071
G1 X64.384 Y28.307 E165.15768
G1 X64.405 Y27.592 E165.18147
G1 X64.738 Y25.683 E165.24593
G1 X65.075 Y24.695 E165.28065
G0 F6000 X65.435 Y24.87
G1 F1200 X65.967 Y23.774 E165.32117
G1 X66.697 Y22.69 E165.36464
G1 X67.413 Y21.881 E165.40057
G1 X68.617 Y20.87 E165.45286
G1 X69.678 Y20.223 E165.49419
G1 X70.351 Y19.914 E165.51882
G1 X71.637 Y19.503 E165.56373
G1 X73.227 Y19.258 E165.61723
G1 X73.984 Y19.242 E165.64242
G1 X154.395 Y19.253 E168.3169
G1 X155.297 Y19.319 E168.34698
G1 X156.497 Y19.556 E168.38766
G1 X157.843 Y20.027 E168.43509
G1 X158.813 Y20.527 E168.47139
G1 X159.818 Y21.222 E168.51203
G1 X160.831 Y22.152 E168.55777
G1 X161.421 Y22.852 E168.58822
G1 X162.14 Y23.957 E168.63206
G1 X162.587 Y24.887 E168.66638
G1 X163.064 Y26.396 E168.71902
G1 X163.21 Y27.256 E168.74803
