;FLAVOR:Marlin
;TIME:16704
;Filament used: 16.0037m
;Layer height: 0.2
;MINX:25.014
;MINY:60.273
;MINZ:0.2
;MAXX:214.199
;MAXY:167.069
;MAXZ:7.4
;TARGET_MACHINE.NAME:Creality Ender-3
;POSTPROCESSED
;Generated with Cura_SteamEngine 5.5.0
M140 S60
M105
M190 S60
M104 S220
M105
M109 S220
M82 ;absolute extrusion mode
; Ender 3 Custom Start G-code
G92 E0 ; Reset Extruder
G28 ; Home all axes
G1 Z2.0 F3000 ; Move Z Axis up little to prevent scratching of Heat Bed
G1 X0.1 Y20 Z0.3 F5000.0 ; Move to start position
G1 X0.1 Y200.0 Z0.3 F1500.0 E15 ; Draw the first line
G1 X0.4 Y200.0 Z0.3 F5000.0 ; Move to side a little
G1 X0.4 Y20 Z0.3 F1500.0 E30 ; Draw the second line
G92 E0 ; Reset Extruder
G1 Z2.0 F3000 ; Move Z Axis up little to prevent scratching of Heat Bed
G1 X5 Y20 Z0.3 F5000.0 ; Move over to prevent blob squish
G92 E0
G92 E0
G1 F2700 E-5
;LAYER_COUNT:37
;LAYER:0
M117 Printing Layer 0 of 36 CE3E3V2_nicocwâsaskanôs_plaque
M107
G0 F6000 X34.497 Y61.825 Z0.2
;TYPE:SKIRT
G1 F2700 E0
G1 F1200 X36.188 Y61.053 E0.06183
G1 X37.124 Y60.751 E0.09454
G1 X39.813 Y60.297 E0.18524
G1 X40.764 Y60.273 E0.21688
G1 X201.758 Y61.372 E5.57169
G1 X202.563 Y61.41 E5.59849
G1 X205.06 Y61.855 E5.68285
G1 X205.848 Y62.108 E5.71038
G1 X208.363 Y63.341 E5.80354
G1 X209.408 Y64.086 E5.84622
G1 X210.842 Y65.404 E5.91101
G1 X211.766 Y66.522 E5.95925
G1 X212.613 Y67.855 E6.01177
G1 X213.515 Y69.888 E6.08575
G1 X213.924 Y71.366 E6.13676
G1 X214.174 Y73.178 E6.19759
G1 X214.199 Y74.264 E6.23372
G1 X213.626 Y154.883 E8.91519
G1 X213.487 Y156.305 E8.96271
G1 X213.113 Y157.956 E9.01902
G1 X212.505 Y159.587 E9.07691
G1 X211.675 Y161.146 E9.13565
G1 X211.109 Y161.969 E9.16887
G1 X209.734 Y163.511 E9.23759
G1 X208.297 Y164.703 E9.29969
G1 X206.91 Y165.561 E9.35393
G1 X205.498 Y166.208 E9.40559
G1 X203.653 Y166.756 E9.46961
G1 X201.797 Y167.036 E9.53204
G1 X200.758 Y167.069 E9.56661
G1 X39.524 Y165.95 E14.9294
G1 X38.583 Y165.879 E14.96079
G1 X36.543 Y165.465 E15.03002
G1 X34.943 Y164.893 E15.08654
G1 X33.448 Y164.12 E15.14252
G1 X32.278 Y163.315 E15.18975
G1 X30.702 Y161.873 E15.2608
G1 X30.026 Y161.077 E15.29553
G1 X28.626 Y158.839 E15.38334
G1 X28.066 Y157.534 E15.43057
G1 X27.782 Y156.627 E15.46218
G1 X27.351 Y154.052 E15.54901
G1 X27.324 Y153.078 E15.58142
G1 X27.716 Y95.35 E17.50151
G1 X26.715 Y94.219 E17.55174
G1 X25.777 Y92.864 E17.60655
G1 X25.014 Y90.289 E17.69588
G1 X25.034 Y84.8 E17.87845
G1 X26.659 Y80.594 E18.02842
G1 X27.833 Y79.105 E18.09148
G1 X27.89 Y72.513 E18.31074
G1 X27.978 Y71.419 E18.34725
G1 X28.43 Y69.281 E18.41993
G1 X29.004 Y67.748 E18.47437
G1 X29.799 Y66.244 E18.53095
G1 X30.608 Y65.104 E18.57745
G1 X32.068 Y63.534 E18.64876
G1 X32.858 Y62.877 E18.68293
G1 X34.497 Y61.825 E18.74771
G0 F6000 X34.713 Y62.162
G1 F1200 X36.311 Y61.434 E18.80611
G1 X37.247 Y61.132 E18.83882
G1 X39.823 Y60.697 E18.92572
G1 X40.761 Y60.673 E18.95692
G1 X201.739 Y61.772 E24.3112
G1 X202.544 Y61.81 E24.338
G1 X204.938 Y62.236 E24.41888
G1 X205.726 Y62.489 E24.4464
G1 X208.131 Y63.667 E24.53548
G1 X209.137 Y64.381 E24.57651
G1 X210.571 Y65.699 E24.64129
G1 X211.428 Y66.737 E24.68606
G1 X212.275 Y68.07 E24.73859
G1 X213.129 Y69.995 E24.80863
G1 X213.538 Y71.473 E24.85964
G1 X213.774 Y73.187 E24.91718
G1 X213.799 Y74.261 E24.95291
G1 X213.228 Y154.845 E27.63321
G1 X213.097 Y156.217 E27.67905
G1 X212.738 Y157.817 E27.73359
G1 X212.152 Y159.399 E27.78971
G1 X211.345 Y160.919 E27.84694
G1 X210.779 Y161.742 E27.88017
G1 X209.436 Y163.244 E27.94718
G1 X208.086 Y164.363 E28.0055
G1 X206.743 Y165.197 E28.05808
G1 X205.331 Y165.844 E28.10974
G1 X203.593 Y166.36 E28.17004
G1 X201.737 Y166.64 E28.23247
G1 X200.761 Y166.669 E28.26495
G1 X39.554 Y165.551 E33.62684
G1 X38.613 Y165.48 E33.65823
G1 X36.678 Y165.088 E33.72389
G1 X35.078 Y164.516 E33.78041
G1 X33.675 Y163.79 E33.83295
G1 X32.505 Y162.985 E33.88019
G1 X31.007 Y161.614 E33.94773
G1 X30.331 Y160.818 E33.98246
G1 X28.994 Y158.681 E34.0663
G1 X28.434 Y157.376 E34.11353
G1 X28.176 Y156.56 E34.142
G1 X27.751 Y154.041 E34.22696
G1 X27.724 Y153.081 E34.25891
G1 X28.117 Y95.199 E36.18411
G1 X27.044 Y93.991 E36.23785
G1 X26.143 Y92.69 E36.29049
G1 X25.414 Y90.23 E36.37583
G1 X25.434 Y84.875 E36.55394
G1 X27.01 Y80.795 E36.69941
G1 X28.232 Y79.245 E36.76506
G1 X28.289 Y72.545 E36.98791
G1 X28.377 Y71.451 E37.02441
G1 X28.805 Y69.421 E37.09341
G1 X29.358 Y67.935 E37.14615
G1 X30.153 Y66.431 E37.20273
G1 X30.901 Y65.376 E37.24575
G1 X32.324 Y63.842 E37.31534
G1 X33.114 Y63.185 E37.34951
G1 X34.713 Y62.162 E37.41265
G0 F6000 X34.928 Y62.499
G1 F1200 X36.434 Y61.815 E37.46766
G1 X37.37 Y61.513 E37.50038
G1 X39.833 Y61.097 E37.58346
G1 X40.758 Y61.073 E37.61423
G1 X201.72 Y62.172 E42.96797
G1 X202.525 Y62.21 E42.99478
G1 X204.816 Y62.617 E43.07217
G1 X205.604 Y62.87 E43.0997
G1 X207.9 Y63.994 E43.18472
G1 X208.866 Y64.676 E43.22405
G1 X210.3 Y65.994 E43.28883
G1 X211.09 Y66.952 E43.33013
G1 X211.937 Y68.285 E43.38266
G1 X212.743 Y70.102 E43.44877
G1 X213.152 Y71.58 E43.49978
G1 X213.374 Y73.196 E43.55403
G1 X213.399 Y74.258 E43.58936
G1 X212.83 Y154.807 E46.2685
G1 X212.699 Y156.179 E46.31434
G1 X212.363 Y157.679 E46.36547
G1 X211.799 Y159.212 E46.4198
G1 X211.015 Y160.692 E46.4755
G1 X210.449 Y161.515 E46.50872
G1 X209.18 Y162.937 E46.57211
G1 X207.874 Y164.024 E46.62863
G1 X206.576 Y164.833 E46.6795
G1 X205.164 Y165.48 E46.73116
G1 X203.533 Y165.965 E46.78775
G1 X201.725 Y166.24 E46.84858
G1 X200.764 Y166.269 E46.88056
G1 X39.584 Y165.152 E52.24155
G1 X38.643 Y165.081 E52.27294
G1 X36.813 Y164.711 E52.33504
G1 X35.213 Y164.139 E52.39155
G1 X33.902 Y163.46 E52.44066
G1 X32.732 Y162.655 E52.48789
G1 X31.312 Y161.355 E52.55193
G1 X30.636 Y160.559 E52.58666
G1 X29.362 Y158.523 E52.66654
G1 X28.802 Y157.218 E52.71378
G1 X28.558 Y156.44 E52.74089
G1 X28.151 Y154.03 E52.82219
G1 X28.124 Y153.084 E52.85366
G1 X28.518 Y95.048 E54.78399
G1 X27.373 Y93.763 E54.84124
G1 X26.509 Y92.516 E54.8917
G1 X25.814 Y90.171 E54.97304
G1 X25.834 Y84.95 E55.1467
G1 X27.361 Y80.996 E55.28767
G1 X28.631 Y79.385 E55.3559
G1 X28.688 Y72.577 E55.58235
G1 X28.776 Y71.483 E55.61885
G1 X29.18 Y69.561 E55.68417
G1 X29.733 Y68.075 E55.73691
G1 X30.506 Y66.619 E55.79174
G1 X31.195 Y65.648 E55.83134
G1 X32.58 Y64.15 E55.89919
G1 X33.37 Y63.493 E55.93337
G1 X34.928 Y62.499 E55.99484
G0 F6000 X35.094 Y62.863
G1 F1200 X36.557 Y62.196 E56.04831
G1 X37.493 Y61.894 E56.08103
G1 X39.844 Y61.497 E56.16033
G1 X40.755 Y61.473 E56.19064
G1 X201.701 Y62.572 E61.54385
G1 X202.506 Y62.61 E61.57065
G1 X204.694 Y62.998 E61.64456
G1 X205.482 Y63.251 E61.67209
G1 X207.724 Y64.353 E61.75518
G1 X208.595 Y64.971 E61.7907
G1 X210.029 Y66.289 E61.85548
G1 X210.752 Y67.167 E61.89331
G1 X211.599 Y68.5 E61.94584
G1 X212.357 Y70.209 E62.00802
G1 X212.766 Y71.687 E62.05902
G1 X212.974 Y73.206 E62.11002
G1 X212.999 Y74.255 E62.14492
G1 X212.432 Y154.769 E64.82289
G1 X212.301 Y156.141 E64.86873
G1 X211.987 Y157.542 E64.91648
G1 X211.445 Y159.025 E64.969
G1 X210.685 Y160.465 E65.02316
G1 X210.119 Y161.288 E65.05638
G1 X208.882 Y162.67 E65.11807
G1 X207.662 Y163.685 E65.17085
G1 X206.409 Y164.469 E65.22001
G1 X204.997 Y165.116 E65.27167
G1 X203.472 Y165.57 E65.32459
G1 X201.713 Y165.84 E65.38378
G1 X200.767 Y165.869 E65.41526
G1 X39.614 Y164.753 E70.77536
G1 X38.673 Y164.682 E70.80675
G1 X36.948 Y164.334 E70.86528
G1 X35.348 Y163.762 E70.92179
G1 X34.129 Y163.13 E70.96746
G1 X32.959 Y162.325 E71.0147
G1 X31.617 Y161.096 E71.07522
G1 X30.941 Y160.3 E71.10995
G1 X29.729 Y158.365 E71.1859
G1 X29.184 Y157.098 E71.23177
G1 X28.94 Y156.32 E71.25889
G1 X28.551 Y154.018 E71.33654
G1 X28.524 Y153.087 E71.36752
G1 X28.919 Y94.896 E73.303
G1 X27.672 Y93.497 E73.36533
G1 X26.874 Y92.341 E73.41205
G1 X26.214 Y90.115 E73.48928
G1 X26.234 Y85.025 E73.65857
G1 X27.712 Y81.197 E73.79505
G1 X28.937 Y79.642 E73.86089
G1 X29.03 Y79.551 E73.86522
G1 X29.087 Y72.608 E74.09615
G1 X29.168 Y71.564 E74.13098
G1 X29.555 Y69.7 E74.1943
G1 X30.086 Y68.263 E74.24525
G1 X30.859 Y66.807 E74.30008
G1 X31.489 Y65.919 E74.3363
G1 X32.836 Y64.458 E74.40239
G1 X33.626 Y63.801 E74.43656
G1 X35.094 Y62.863 E74.49451
G0 F6000 X35.309 Y63.2
G1 F1200 X36.68 Y62.577 E74.54459
G1 X37.616 Y62.275 E74.57731
G1 X39.855 Y61.897 E74.65283
G1 X40.752 Y61.873 E74.68267
G1 X201.684 Y62.972 E80.03542
G1 X202.437 Y63.004 E80.06049
G1 X204.572 Y63.379 E80.13258
G1 X205.36 Y63.632 E80.16011
G1 X207.493 Y64.68 E80.23915
G1 X208.324 Y65.266 E80.27297
G1 X209.758 Y66.584 E80.33775
G1 X210.414 Y67.382 E80.37211
G1 X211.261 Y68.715 E80.42464
G1 X211.971 Y70.316 E80.48289
G1 X212.38 Y71.794 E80.5339
G1 X212.574 Y73.216 E80.58163
G1 X212.599 Y74.252 E80.6161
G1 X212.034 Y154.731 E83.29291
G1 X211.903 Y156.103 E83.33875
G1 X211.611 Y157.406 E83.38316
G1 X211.091 Y158.839 E83.43387
G1 X210.355 Y160.238 E83.48644
G1 X209.789 Y161.061 E83.51966
G1 X208.625 Y162.363 E83.57775
G1 X207.449 Y163.346 E83.62873
G1 X206.242 Y164.105 E83.67615
G1 X204.83 Y164.752 E83.72781
G1 X203.411 Y165.175 E83.77706
G1 X201.701 Y165.44 E83.83461
G1 X200.77 Y165.469 E83.86559
G1 X39.644 Y164.354 E89.22479
G1 X38.703 Y164.283 E89.25618
G1 X37.083 Y163.957 E89.31114
G1 X35.483 Y163.385 E89.36766
G1 X34.356 Y162.8 E89.40989
G1 X33.186 Y161.995 E89.45713
G1 X31.921 Y160.836 E89.51419
G1 X31.28 Y160.087 E89.54698
G1 X30.096 Y158.206 E89.6209
G1 X29.566 Y156.978 E89.66539
G1 X29.322 Y156.2 E89.69251
G1 X28.951 Y154.006 E89.76652
G1 X28.924 Y153.09 E89.797
G1 X29.32 Y94.672 E91.74003
G1 X29.134 Y94.536 E91.74769
G1 X27.971 Y93.231 E91.80583
G1 X27.239 Y92.165 E91.84884
G1 X26.614 Y90.059 E91.92191
G1 X26.634 Y85.1 E92.08685
G1 X28.063 Y81.398 E92.21883
G1 X29.251 Y79.89 E92.28268
G1 X29.429 Y79.733 E92.29058
G1 X29.486 Y72.638 E92.52656
G1 X29.56 Y71.644 E92.55972
G1 X29.93 Y69.838 E92.62103
G1 X30.44 Y68.45 E92.67022
G1 X31.186 Y67.038 E92.72333
G1 X31.784 Y66.19 E92.75784
G1 X33.092 Y64.766 E92.82215
G1 X33.882 Y64.109 E92.85633
G1 X35.309 Y63.2 E92.9126
G0 F6000 X35.475 Y63.564
G1 F1200 X36.803 Y62.958 E92.96115
G1 X37.739 Y62.656 E92.99386
G1 X39.866 Y62.297 E93.06561
G1 X40.749 Y62.273 E93.09499
G1 X201.667 Y63.372 E98.44727
G1 X202.42 Y63.404 E98.47233
G1 X204.45 Y63.76 E98.54088
G1 X205.238 Y64.013 E98.56841
G1 X207.262 Y65.007 E98.64341
G1 X208.093 Y65.593 E98.67723
G1 X209.487 Y66.878 E98.74029
G1 X210.076 Y67.597 E98.7712
G1 X210.923 Y68.93 E98.82373
G1 X211.585 Y70.423 E98.87805
G1 X211.994 Y71.901 E98.92906
G1 X212.174 Y73.226 E98.97353
G1 X212.199 Y74.249 E99.00757
G1 X211.636 Y154.693 E101.68321
G1 X211.505 Y156.065 E101.72905
G1 X211.235 Y157.27 E101.77012
G1 X210.737 Y158.653 E101.81901
G1 X210.025 Y160.011 E101.87001
G1 X209.459 Y160.834 E101.90323
G1 X208.327 Y162.096 E101.95962
G1 X207.235 Y163.008 E102.00694
G1 X206.075 Y163.741 E102.05258
G1 X204.663 Y164.388 E102.10424
G1 X203.349 Y164.78 E102.14984
G1 X201.688 Y165.04 E102.20576
G1 X200.773 Y165.069 E102.23621
G1 X39.674 Y163.955 E107.59451
G1 X38.733 Y163.884 E107.6259
G1 X37.218 Y163.58 E107.67729
G1 X35.618 Y163.008 E107.73381
G1 X34.583 Y162.47 E107.7726
G1 X33.413 Y161.665 E107.81984
G1 X32.225 Y160.576 E107.87344
G1 X31.584 Y159.827 E107.90623
G1 X30.463 Y158.047 E107.9762
G1 X29.948 Y156.858 E108.01929
G1 X29.704 Y156.08 E108.04641
G1 X29.351 Y153.994 E108.11678
G1 X29.324 Y153.093 E108.14676
G1 X29.721 Y94.455 E110.09711
G1 X29.432 Y94.269 E110.10854
G1 X28.301 Y93.005 E110.16496
G1 X27.604 Y91.99 E110.20591
G1 X27.014 Y90.003 E110.27485
G1 X27.034 Y85.175 E110.43543
G1 X28.414 Y81.599 E110.56292
G1 X29.565 Y80.138 E110.62478
G1 X29.827 Y79.924 E110.63603
G1 X29.885 Y72.666 E110.87744
G1 X29.952 Y71.723 E110.90888
G1 X30.306 Y69.975 E110.9682
G1 X30.794 Y68.636 E111.0156
G1 X31.514 Y67.267 E111.06705
G1 X32.079 Y66.46 E111.09982
G1 X33.348 Y65.074 E111.16232
G1 X34.138 Y64.417 E111.19649
G1 X35.475 Y63.564 E111.24924
G0 F6000 X35.642 Y63.928
G1 F1200 X36.926 Y63.339 E111.29623
G1 X37.862 Y63.037 E111.32894
G1 X39.877 Y62.697 E111.3969
G1 X40.746 Y62.673 E111.42582
G1 X201.65 Y63.772 E116.77763
G1 X202.403 Y63.804 E116.8027
G1 X204.328 Y64.141 E116.8677
G1 X205.116 Y64.394 E116.89523
G1 X207.031 Y65.334 E116.96618
G1 X207.862 Y65.92 E117
G1 X209.178 Y67.133 E117.05953
G1 X209.738 Y67.812 E117.0888
G1 X210.585 Y69.145 E117.14133
G1 X211.199 Y70.53 E117.19172
G1 X211.608 Y72.008 E117.24272
G1 X211.774 Y73.236 E117.28394
G1 X211.799 Y74.246 E117.31754
G1 X211.238 Y154.656 E119.99205
G1 X211.114 Y155.979 E120.03625
G1 X210.858 Y157.135 E120.07563
G1 X210.382 Y158.468 E120.12271
G1 X209.695 Y159.784 E120.17208
G1 X209.129 Y160.607 E120.20531
G1 X208.03 Y161.828 E120.25994
G1 X207.02 Y162.67 E120.30368
G1 X205.908 Y163.377 E120.34751
G1 X204.496 Y164.024 E120.39916
G1 X203.287 Y164.385 E120.44113
G1 X201.675 Y164.64 E120.49541
G1 X200.776 Y164.669 E120.52533
G1 X39.704 Y163.556 E125.88273
G1 X38.763 Y163.485 E125.91412
G1 X37.352 Y163.203 E125.96198
G1 X35.802 Y162.653 E126.01668
G1 X34.81 Y162.14 E126.05383
G1 X33.64 Y161.335 E126.10106
G1 X32.529 Y160.316 E126.1512
G1 X31.888 Y159.567 E126.18399
G1 X30.83 Y157.888 E126.25
G1 X30.33 Y156.738 E126.29171
G1 X30.086 Y155.96 E126.31882
G1 X29.751 Y153.982 E126.38555
G1 X29.724 Y153.096 E126.41503
G1 X30.123 Y94.222 E128.37323
G1 X29.73 Y94.002 E128.38821
G1 X28.631 Y92.779 E128.4429
G1 X27.969 Y91.815 E128.4818
G1 X27.414 Y89.947 E128.54661
G1 X27.434 Y85.25 E128.70284
G1 X28.765 Y81.8 E128.82583
G1 X29.879 Y80.386 E128.8857
G1 X30.225 Y80.123 E128.90015
G1 X30.284 Y72.693 E129.14728
G1 X30.344 Y71.801 E129.17702
G1 X30.682 Y70.111 E129.23434
G1 X31.148 Y68.822 E129.27993
G1 X31.843 Y67.495 E129.32975
G1 X32.374 Y66.73 E129.36073
G1 X33.604 Y65.382 E129.42142
G1 X34.394 Y64.725 E129.45559
G1 X35.642 Y63.928 E129.50485
G0 F6000 X35.809 Y64.292
G1 F1200 X37.093 Y63.703 E129.55183
G1 X37.984 Y63.418 E129.58294
G1 X39.888 Y63.097 E129.64717
G1 X40.743 Y63.073 E129.67561
G1 X201.633 Y64.172 E135.02696
G1 X202.386 Y64.204 E135.05203
G1 X204.206 Y64.522 E135.11348
G1 X204.994 Y64.775 E135.14101
G1 X206.8 Y65.661 E135.20791
G1 X207.631 Y66.247 E135.24173
G1 X208.869 Y67.388 E135.29773
G1 X209.429 Y68.067 E135.327
G1 X210.22 Y69.308 E135.37595
G1 X210.813 Y70.637 E135.42435
G1 X211.222 Y72.115 E135.47536
G1 X211.374 Y73.246 E135.51332
G1 X211.399 Y74.243 E135.54649
G1 X210.84 Y154.619 E138.21987
G1 X210.716 Y155.942 E138.26406
G1 X210.481 Y157 E138.30011
G1 X210.005 Y158.333 E138.34719
G1 X209.365 Y159.557 E138.39313
G1 X208.799 Y160.38 E138.42635
G1 X207.773 Y161.521 E138.47739
G1 X206.805 Y162.332 E138.51939
G1 X205.693 Y163.039 E138.56322
G1 X204.33 Y163.66 E138.61303
G1 X203.224 Y163.99 E138.65142
G1 X201.662 Y164.24 E138.70403
G1 X200.779 Y164.269 E138.73342
G1 X39.734 Y163.157 E144.08993
G1 X38.793 Y163.086 E144.12131
G1 X37.485 Y162.826 E144.16567
G1 X35.985 Y162.297 E144.21857
G1 X35.037 Y161.81 E144.25402
G1 X33.867 Y161.005 E144.30125
G1 X32.833 Y160.056 E144.34793
G1 X32.192 Y159.307 E144.38072
G1 X31.197 Y157.728 E144.4428
G1 X30.712 Y156.618 E144.48309
G1 X30.468 Y155.84 E144.5102
G1 X30.151 Y153.97 E144.57329
G1 X30.124 Y153.099 E144.60227
G1 X30.525 Y93.988 E146.56836
G1 X29.984 Y93.686 E146.58896
G1 X28.961 Y92.553 E146.63974
G1 X28.334 Y91.64 E146.67657
G1 X27.814 Y89.891 E146.73726
G1 X27.834 Y85.325 E146.88913
G1 X29.116 Y82.001 E147.00762
G1 X30.163 Y80.672 E147.0639
G1 X30.623 Y80.322 E147.08312
G1 X30.683 Y72.72 E147.33597
G1 X30.743 Y71.828 E147.36571
G1 X31.058 Y70.246 E147.41936
G1 X31.503 Y69.007 E147.46314
G1 X32.173 Y67.722 E147.51134
G1 X32.67 Y66.999 E147.54053
G1 X33.86 Y65.69 E147.59936
G1 X34.65 Y65.033 E147.63354
G1 X35.809 Y64.292 E147.67929
G0 F6000 X35.976 Y64.656
G1 F1200 X37.26 Y64.067 E147.72628
G1 X38.105 Y63.799 E147.75576
G1 X39.899 Y63.497 E147.81627
G1 X40.74 Y63.473 E147.84425
G1 X201.618 Y64.572 E153.1952
G1 X202.318 Y64.598 E153.2185
G1 X204.084 Y64.903 E153.27811
G1 X204.872 Y65.156 E153.30563
G1 X206.569 Y65.988 E153.3685
G1 X207.4 Y66.574 E153.40232
G1 X208.56 Y67.643 E153.45478
G1 X209.12 Y68.322 E153.48406
G1 X209.882 Y69.522 E153.53133
G1 X210.428 Y70.745 E153.57588
