;FLAVOR:Marlin
;TIME:9055
;Filament used: 7.44342m
;Layer height: 0.2
;MINX:46.442
;MINY:21.036
;MINZ:0.2
;MAXX:183.441
;MAXY:208.964
;MAXZ:2.6
;TARGET_MACHINE.NAME:Creality Ender-3
;POSTPROCESSED
;Generated with Cura_SteamEngine 5.5.0
M140 S60
M105
M190 S60
M104 S220
M105
M109 S220
M82 ;absolute extrusion mode
; Ender 3 Custom Start G-code
G92 E0 ; Reset Extruder
G28 ; Home all axes
G1 Z2.0 F3000 ; Move Z Axis up little to prevent scratching of Heat Bed
G1 X0.1 Y20 Z0.3 F5000.0 ; Move to start position
G1 X0.1 Y200.0 Z0.3 F1500.0 E15 ; Draw the first line
G1 X0.4 Y200.0 Z0.3 F5000.0 ; Move to side a little
G1 X0.4 Y20 Z0.3 F1500.0 E30 ; Draw the second line
G92 E0 ; Reset Extruder
G1 Z2.0 F3000 ; Move Z Axis up little to prevent scratching of Heat Bed
G1 X5 Y20 Z0.3 F5000.0 ; Move over to prevent blob squish
G92 E0
G92 E0
G1 F2700 E-5
;LAYER_COUNT:13
;LAYER:0
M117 Printing Layer 0 of 12 CE3E3V2_nôsemanicôs_plaque_v4
M107
G0 F6000 X58.542 Y29.125 Z0.2
;TYPE:SKIRT
G1 F2700 E0
G1 F1200 X59.493 Y27.167 E0.0724
G1 X59.973 Y26.427 E0.10174
G1 X61.797 Y24.339 E0.19395
G1 X62.322 Y23.885 E0.21703
G1 X64.614 Y22.416 E0.30758
G1 X66.437 Y21.65 E0.37335
G1 X67.493 Y21.358 E0.40979
G1 X69.547 Y21.06 E0.47882
G1 X70.409 Y21.036 E0.5075
G1 X151.689 Y21.045 E3.21089
G1 X153.36 Y21.19 E3.26667
G1 X155.086 Y21.573 E3.32548
G1 X156.476 Y22.071 E3.37458
G1 X158.141 Y22.937 E3.43701
G1 X159.585 Y23.966 E3.49598
G1 X160.872 Y25.179 E3.5548
G1 X161.62 Y26.073 E3.59357
G1 X162.758 Y27.86 E3.66404
G1 X163.346 Y29.141 E3.71092
G1 X163.915 Y30.972 E3.77469
G1 X164.11 Y32.044 E3.81093
G1 X164.238 Y33.872 E3.87188
G1 X164.238 Y71.096 E5.10995
G1 X165.066 Y71.602 E5.14223
G1 X166.529 Y72.816 E5.20546
G1 X169.946 Y76.378 E5.36963
G1 X173.122 Y81.149 E5.56026
G1 X174.204 Y83.752 E5.65401
G1 X175.359 Y83.795 E5.69246
G1 X176.822 Y84.016 E5.74167
G1 X178.924 Y85.012 E5.81903
G1 X181.297 Y87.062 E5.92333
G1 X182.59 Y88.884 E5.99764
G1 X183.186 Y90.919 E6.06817
G1 X183.441 Y92.47 E6.12045
G1 X183.023 Y94.646 E6.19414
G1 X181.151 Y100.599 E6.4017
G1 X179.803 Y102.523 E6.47984
G1 X179.304 Y103.052 E6.50402
G1 X177.782 Y104.04 E6.56438
G1 X175.769 Y105.058 E6.6394
G1 X172.537 Y107.576 E6.77567
G1 X171.523 Y108.605 E6.82372
G1 X168.218 Y115.292 E7.07182
G1 X165.329 Y124.036 E7.3781
G1 X164.621 Y125.667 E7.43724
G1 X164.238 Y126.184 E7.45864
G1 X164.219 Y196.648 E9.80228
G1 X164.128 Y197.799 E9.84069
G1 X163.731 Y199.709 E9.90557
G1 X163.056 Y201.551 E9.97082
G1 X162.453 Y202.691 E10.01371
G1 X161.465 Y204.128 E10.07172
G1 X160.517 Y205.197 E10.11924
G1 X158.777 Y206.657 E10.19478
G1 X157.523 Y207.429 E10.24376
G1 X155.734 Y208.235 E10.30903
G1 X155.081 Y208.446 E10.33185
G1 X152.423 Y208.932 E10.42172
G1 X151.724 Y208.964 E10.44499
G1 X70.148 Y208.961 E13.15822
G1 X69.191 Y208.899 E13.19012
G1 X66.84 Y208.44 E13.26979
G1 X65.693 Y208.044 E13.31015
G1 X63.717 Y207.038 E13.3839
G1 X62.423 Y206.122 E13.43663
G1 X61.215 Y205.004 E13.49137
G1 X60.109 Y203.682 E13.5487
G1 X59.23 Y202.279 E13.60377
G1 X58.569 Y200.839 E13.65647
G1 X57.995 Y198.913 E13.72331
G1 X57.729 Y197.181 E13.78159
G1 X57.696 Y196.47 E13.80527
G1 X57.696 Y137.672 E15.7609
G1 X57.35 Y137.271 E15.77851
G1 X53.435 Y127.626 E16.12473
G1 X52.918 Y115.49 E16.52874
G1 X53.227 Y113.695 E16.58932
G1 X53.349 Y113.383 E16.60046
G1 X52.81 Y113.246 E16.61896
G1 X51.046 Y112.32 E16.68522
G1 X50.008 Y111.356 E16.73234
G1 X48.878 Y109.987 E16.79138
G1 X46.776 Y105.246 E16.96387
G1 X46.442 Y103.381 E17.02688
G1 X46.58 Y101.031 E17.10518
G1 X47.43 Y99.077 E17.17605
G1 X48.584 Y97.507 E17.24086
G1 X49.227 Y96.863 E17.27113
G1 X51.049 Y95.773 E17.34175
G1 X57.696 Y92.835 E17.58346
G1 X57.696 Y33.652 E19.55189
G1 X57.717 Y32.93 E19.57592
G1 X58.217 Y30.08 E19.67216
G1 X58.542 Y29.125 E19.70571
G0 F6000 X58.921 Y29.254
G1 F1200 X59.829 Y27.385 E19.77482
G1 X60.309 Y26.645 E19.80416
G1 X62.059 Y24.642 E19.89262
G1 X62.584 Y24.188 E19.91571
G1 X64.77 Y22.785 E20.0021
G1 X66.544 Y22.036 E20.06615
G1 X67.6 Y21.744 E20.10259
G1 X69.558 Y21.46 E20.16839
G1 X70.409 Y21.436 E20.19671
G1 X151.654 Y21.444 E22.89893
G1 X153.325 Y21.589 E22.95471
G1 X154.951 Y21.95 E23.01011
G1 X156.341 Y22.448 E23.05922
G1 X157.909 Y23.263 E23.118
G1 X159.311 Y24.258 E23.17518
G1 X160.565 Y25.436 E23.2324
G1 X161.313 Y26.33 E23.27117
G1 X162.394 Y28.027 E23.33809
G1 X162.982 Y29.308 E23.38497
G1 X163.521 Y31.044 E23.44543
G1 X163.716 Y32.116 E23.48167
G1 X163.838 Y33.872 E23.54022
G1 X163.838 Y71.41 E24.78874
G1 X164.137 Y71.503 E24.79915
G1 X164.811 Y71.91 E24.82534
G1 X166.24 Y73.093 E24.88704
G1 X169.633 Y76.63 E25.05006
G1 X172.77 Y81.342 E25.23834
G1 X173.934 Y84.143 E25.33922
G1 X175.299 Y84.191 E25.38465
G1 X176.707 Y84.404 E25.43201
G1 X178.702 Y85.349 E25.50543
G1 X180.998 Y87.332 E25.60634
G1 X182.225 Y89.06 E25.67683
G1 X182.791 Y90.984 E25.74353
G1 X183.035 Y92.465 E25.79345
G1 X182.641 Y94.526 E25.86324
G1 X180.787 Y100.421 E26.06878
G1 X179.512 Y102.248 E26.14288
G1 X179.044 Y102.744 E26.16556
G1 X177.601 Y103.683 E26.22282
G1 X175.553 Y104.719 E26.29916
G1 X172.272 Y107.275 E26.43749
G1 X171.193 Y108.37 E26.48862
G1 X167.847 Y115.138 E26.73973
G1 X164.962 Y123.877 E27.04582
G1 X164.272 Y125.467 E27.10347
G1 X163.838 Y126.053 E27.12773
G1 X163.82 Y196.618 E29.47473
G1 X163.736 Y197.718 E29.51142
G1 X163.355 Y199.571 E29.57434
G1 X162.68 Y201.413 E29.63959
G1 X162.123 Y202.464 E29.67915
G1 X161.135 Y203.901 E29.73715
G1 X160.218 Y204.931 E29.78302
G1 X158.567 Y206.316 E29.8547
G1 X157.313 Y207.088 E29.90368
G1 X155.611 Y207.854 E29.96575
G1 X154.958 Y208.065 E29.98858
G1 X152.404 Y208.532 E30.07493
G1 X151.724 Y208.564 E30.09757
G1 X70.173 Y208.562 E32.80997
G1 X69.268 Y208.506 E32.84013
G1 X66.917 Y208.047 E32.9198
G1 X65.825 Y207.666 E32.95827
G1 X63.899 Y206.682 E33.0302
G1 X62.694 Y205.828 E33.07933
G1 X61.522 Y204.747 E33.13236
G1 X60.416 Y203.425 E33.18968
G1 X59.594 Y202.112 E33.24121
G1 X58.933 Y200.672 E33.29391
G1 X58.39 Y198.852 E33.35708
G1 X58.129 Y197.162 E33.41395
G1 X58.096 Y196.451 E33.43763
G1 X58.096 Y137.523 E35.39758
G1 X57.696 Y137.06 E35.41793
G1 X53.832 Y127.54 E35.75965
G1 X53.32 Y115.513 E36.16004
G1 X53.614 Y113.802 E36.21778
G1 X53.886 Y113.107 E36.2426
G1 X52.952 Y112.869 E36.27466
G1 X51.281 Y111.992 E36.33743
G1 X50.317 Y111.101 E36.38109
G1 X49.221 Y109.773 E36.43836
G1 X47.162 Y105.128 E36.60735
G1 X46.844 Y103.354 E36.66729
G1 X46.975 Y101.127 E36.74149
G1 X47.78 Y99.277 E36.80859
G1 X48.867 Y97.79 E36.86986
G1 X49.475 Y97.181 E36.89848
G1 X51.211 Y96.139 E36.96582
G1 X57.849 Y93.205 E37.20721
G1 X58.096 Y93.02 E37.21747
G1 X58.096 Y33.664 E39.19166
G1 X58.117 Y32.942 E39.21568
G1 X58.596 Y30.209 E39.30797
G1 X58.921 Y29.254 E39.34152
G0 F6000 X59.3 Y29.383
G1 F1200 X60.165 Y27.603 E39.40734
G1 X60.645 Y26.863 E39.43668
G1 X62.321 Y24.945 E39.5214
G1 X62.846 Y24.491 E39.54448
G1 X64.926 Y23.153 E39.62674
G1 X66.651 Y22.422 E39.68905
G1 X67.707 Y22.13 E39.72549
G1 X69.569 Y21.86 E39.78807
G1 X70.409 Y21.836 E39.81602
G1 X151.619 Y21.843 E42.51708
G1 X153.29 Y21.988 E42.57286
G1 X154.816 Y22.327 E42.62486
G1 X156.206 Y22.825 E42.67397
G1 X157.677 Y23.589 E42.7291
G1 X159.079 Y24.584 E42.78628
G1 X160.258 Y25.693 E42.84011
G1 X161.006 Y26.587 E42.87888
G1 X162.03 Y28.194 E42.94226
G1 X162.618 Y29.475 E42.98914
G1 X163.127 Y31.116 E43.04629
G1 X163.322 Y32.188 E43.08253
G1 X163.438 Y33.872 E43.13867
G1 X163.438 Y71.705 E44.397
G1 X163.972 Y71.871 E44.4156
G1 X164.556 Y72.218 E44.43819
G1 X165.951 Y73.37 E44.49837
G1 X169.32 Y76.882 E44.66023
G1 X172.416 Y81.533 E44.84606
G1 X173.691 Y84.599 E44.95651
G1 X174.003 Y84.546 E44.96703
G1 X175.285 Y84.591 E45.0097
G1 X176.586 Y84.79 E45.05347
G1 X178.481 Y85.687 E45.1232
G1 X180.701 Y87.605 E45.22078
G1 X181.86 Y89.237 E45.28736
G1 X182.396 Y91.049 E45.35021
G1 X182.629 Y92.46 E45.39777
G1 X182.259 Y94.406 E45.46366
G1 X180.423 Y100.243 E45.66717
G1 X179.184 Y102.019 E45.7392
G1 X178.788 Y102.433 E45.75825
G1 X177.42 Y103.326 E45.81259
G1 X175.337 Y104.38 E45.89023
G1 X172.007 Y106.974 E46.03063
G1 X170.863 Y108.135 E46.08484
G1 X167.476 Y114.984 E46.33897
G1 X164.595 Y123.718 E46.64486
G1 X163.923 Y125.267 E46.70102
G1 X163.438 Y125.921 E46.7281
G1 X163.421 Y196.589 E49.07853
G1 X163.344 Y197.638 E49.11351
G1 X162.979 Y199.434 E49.17447
G1 X162.326 Y201.226 E49.2379
G1 X161.793 Y202.237 E49.27592
G1 X160.805 Y203.674 E49.33392
G1 X159.92 Y204.664 E49.37809
G1 X158.357 Y205.975 E49.44594
G1 X157.103 Y206.747 E49.49491
G1 X155.488 Y207.473 E49.55381
G1 X154.835 Y207.684 E49.57663
G1 X152.385 Y208.132 E49.65947
G1 X151.724 Y208.164 E49.68148
G1 X70.196 Y208.163 E52.39311
G1 X69.344 Y208.113 E52.4215
G1 X67.049 Y207.669 E52.49925
G1 X65.957 Y207.288 E52.53771
G1 X64.13 Y206.355 E52.60595
G1 X62.965 Y205.533 E52.65337
G1 X61.829 Y204.49 E52.70466
G1 X60.723 Y203.168 E52.76199
G1 X59.958 Y201.945 E52.80997
G1 X59.297 Y200.505 E52.86267
G1 X58.785 Y198.791 E52.92217
G1 X58.529 Y197.143 E52.97764
G1 X58.496 Y196.432 E53.00131
G1 X58.496 Y137.373 E54.96562
G1 X58.041 Y136.847 E54.98875
G1 X54.229 Y127.454 E55.32591
G1 X53.722 Y115.536 E55.72266
G1 X54.001 Y113.909 E55.77757
G1 X54.423 Y112.831 E55.81607
G1 X53.094 Y112.492 E55.86169
G1 X51.516 Y111.664 E55.92096
G1 X50.589 Y110.807 E55.96295
G1 X49.565 Y109.561 E56.01659
G1 X47.547 Y105.01 E56.18217
G1 X47.246 Y103.328 E56.239
G1 X47.37 Y101.223 E56.30914
G1 X48.13 Y99.477 E56.37247
G1 X49.15 Y98.073 E56.43019
G1 X49.724 Y97.498 E56.45722
G1 X51.373 Y96.505 E56.52124
G1 X58.052 Y93.553 E56.76411
G1 X58.496 Y93.22 E56.78257
G1 X58.496 Y33.676 E58.76301
G1 X58.517 Y32.954 E58.78704
G1 X58.975 Y30.338 E58.87537
G1 X59.3 Y29.383 E58.90892
G0 F6000 X59.679 Y29.512
G1 F1200 X60.501 Y27.821 E58.97146
G1 X60.981 Y27.081 E59.0008
G1 X62.583 Y25.248 E59.08176
G1 X63.108 Y24.794 E59.10485
G1 X65.083 Y23.521 E59.183
G1 X66.758 Y22.808 E59.24355
G1 X67.814 Y22.516 E59.27999
G1 X69.581 Y22.26 E59.33937
G1 X70.409 Y22.236 E59.36692
G1 X151.585 Y22.242 E62.06685
G1 X153.204 Y22.379 E62.12089
G1 X154.681 Y22.704 E62.17119
G1 X156.071 Y23.202 E62.2203
G1 X157.445 Y23.915 E62.27179
G1 X158.847 Y24.91 E62.32897
G1 X159.951 Y25.95 E62.37941
G1 X160.699 Y26.844 E62.41818
G1 X161.666 Y28.361 E62.47802
G1 X162.254 Y29.642 E62.5249
G1 X162.733 Y31.188 E62.57873
G1 X162.928 Y32.26 E62.61497
G1 X163.038 Y33.872 E62.66871
G1 X163.038 Y72 E63.93685
G1 X163.808 Y72.239 E63.96367
G1 X164.302 Y72.527 E63.98269
G1 X165.662 Y73.647 E64.04128
G1 X169.007 Y77.134 E64.202
G1 X172.064 Y81.726 E64.38548
G1 X173.449 Y85.059 E64.50552
G1 X173.989 Y84.946 E64.52387
G1 X175.271 Y84.991 E64.56654
G1 X176.469 Y85.176 E64.60686
G1 X178.257 Y86.023 E64.67266
G1 X180.404 Y87.878 E64.76703
G1 X181.494 Y89.413 E64.82965
G1 X182.012 Y91.163 E64.89035
G1 X182.223 Y92.456 E64.93392
G1 X181.877 Y94.286 E64.99587
G1 X180.059 Y100.067 E65.19743
G1 X178.895 Y101.742 E65.26527
G1 X178.53 Y102.123 E65.28282
G1 X177.239 Y102.969 E65.33416
G1 X175.121 Y104.041 E65.41311
G1 X171.742 Y106.673 E65.55557
G1 X170.533 Y107.9 E65.61286
G1 X167.105 Y114.83 E65.87001
G1 X164.228 Y123.559 E66.1757
G1 X163.574 Y125.067 E66.23037
G1 X163.038 Y125.79 E66.26031
G1 X163.022 Y196.56 E68.61413
G1 X162.945 Y197.609 E68.64911
G1 X162.603 Y199.298 E68.70643
G1 X161.972 Y201.04 E68.76805
G1 X161.463 Y202.01 E68.80448
G1 X160.475 Y203.447 E68.86248
G1 X159.622 Y204.397 E68.90495
G1 X158.147 Y205.634 E68.96898
G1 X156.893 Y206.406 E69.01796
G1 X155.365 Y207.092 E69.07366
G1 X154.712 Y207.303 E69.09649
G1 X152.366 Y207.732 E69.17581
G1 X151.705 Y207.764 E69.19782
G1 X70.218 Y207.764 E71.90809
G1 X69.419 Y207.72 E71.9347
G1 X67.181 Y207.291 E72.0105
G1 X66.089 Y206.91 E72.04896
G1 X64.36 Y206.028 E72.11352
G1 X63.235 Y205.238 E72.15924
G1 X62.136 Y204.233 E72.20877
G1 X61.03 Y202.911 E72.2661
G1 X60.322 Y201.778 E72.31054
G1 X59.661 Y200.338 E72.36324
G1 X59.18 Y198.729 E72.41909
G1 X58.929 Y197.124 E72.47313
G1 X58.896 Y196.413 E72.4968
G1 X58.896 Y137.224 E74.46543
G1 X58.387 Y136.636 E74.4913
G1 X54.626 Y127.368 E74.82397
G1 X54.124 Y115.559 E75.21709
G1 X54.388 Y114.02 E75.26903
G1 X54.973 Y112.523 E75.32248
G1 X54.787 Y112.511 E75.32868
G1 X53.236 Y112.115 E75.38193
G1 X51.751 Y111.336 E75.4377
G1 X50.861 Y110.513 E75.47802
G1 X49.909 Y109.349 E75.52803
G1 X47.933 Y104.892 E75.69019
G1 X47.648 Y103.302 E75.74391
G1 X47.765 Y101.319 E75.80998
G1 X48.481 Y99.674 E75.86966
G1 X49.433 Y98.356 E75.92373
G1 X49.974 Y97.814 E75.9492
G1 X51.535 Y96.871 E76.00986
G1 X58.254 Y93.901 E76.25419
G1 X58.896 Y93.42 E76.28087
G1 X58.896 Y33.688 E78.26757
G1 X58.917 Y32.966 E78.29159
G1 X59.354 Y30.467 E78.37597
G1 X59.679 Y29.512 E78.40952
G0 F6000 X60.058 Y29.641
G1 F1200 X60.837 Y28.039 E78.46877
G1 X61.317 Y27.299 E78.49811
G1 X62.845 Y25.551 E78.57533
G1 X63.37 Y25.097 E78.59841
G1 X65.299 Y23.858 E78.67467
G1 X66.865 Y23.194 E78.73124
G1 X67.921 Y22.902 E78.76768
G1 X69.593 Y22.66 E78.82387
G1 X70.409 Y22.636 E78.85102
G1 X151.552 Y22.641 E81.54985
G1 X153.119 Y22.77 E81.60215
G1 X154.546 Y23.081 E81.65072
G1 X155.936 Y23.579 E81.69983
G1 X157.214 Y24.242 E81.74772
G1 X158.573 Y25.202 E81.80306
G1 X159.644 Y26.207 E81.85191
G1 X160.392 Y27.101 E81.89068
G1 X161.302 Y28.528 E81.94697
G1 X161.89 Y29.809 E81.99385
G1 X162.339 Y31.26 E82.04437
G1 X162.534 Y32.332 E82.08061
G1 X162.638 Y33.872 E82.13194
G1 X162.638 Y72.295 E83.4099
G1 X163.646 Y72.608 E83.445
G1 X164.101 Y72.873 E83.46252
G1 X165.373 Y73.924 E83.5174
G1 X168.694 Y77.386 E83.67696
G1 X171.71 Y81.917 E83.85799
G1 X173.207 Y85.518 E83.9877
G1 X174.024 Y85.348 E84.01545
G1 X175.257 Y85.391 E84.05649
G1 X176.352 Y85.562 E84.09335
G1 X178.033 Y86.359 E84.15523
G1 X180.107 Y88.151 E84.24639
G1 X181.13 Y89.592 E84.30517
G1 X181.617 Y91.227 E84.36191
G1 X181.817 Y92.452 E84.40319
G1 X181.495 Y94.166 E84.4612
G1 X179.694 Y99.892 E84.66084
G1 X178.567 Y101.514 E84.72654
G1 X178.274 Y101.812 E84.74044
G1 X177.058 Y102.612 E84.78885
G1 X174.905 Y103.702 E84.86911
G1 X171.477 Y106.372 E85.01363
G1 X170.203 Y107.665 E85.074
G1 X166.734 Y114.676 E85.33417
G1 X163.861 Y123.4 E85.63966
G1 X163.225 Y124.867 E85.69285
G1 X162.638 Y125.659 E85.72563
G1 X162.623 Y196.531 E88.08285
G1 X162.546 Y197.58 E88.11783
G1 X162.227 Y199.162 E88.17151
G1 X161.617 Y200.855 E88.23136
G1 X161.133 Y201.783 E88.26617
G1 X160.145 Y203.22 E88.32417
G1 X159.325 Y204.129 E88.36489
G1 X157.937 Y205.293 E88.42514
G1 X156.683 Y206.065 E88.47412
G1 X155.242 Y206.711 E88.52664
G1 X154.589 Y206.922 E88.54947
G1 X152.347 Y207.332 E88.62527
G1 X151.686 Y207.364 E88.64728
G1 X70.238 Y207.364 E91.35625
G1 X69.494 Y207.327 E91.38103
G1 X67.313 Y206.913 E91.45487
G1 X66.221 Y206.532 E91.49333
G1 X64.589 Y205.7 E91.55426
G1 X63.504 Y204.942 E91.59828
G1 X62.443 Y203.976 E91.64601
G1 X61.337 Y202.654 E91.70333
G1 X60.686 Y201.611 E91.74423
G1 X60.025 Y200.171 E91.79693
G1 X59.575 Y198.667 E91.84914
G1 X59.329 Y197.105 E91.90173
G1 X59.296 Y196.394 E91.92541
G1 X59.296 Y137.075 E93.89837
G1 X58.733 Y136.425 E93.92697
G1 X55.023 Y127.282 E94.25515
G1 X54.526 Y115.581 E94.64467
G1 X54.774 Y114.132 E94.69357
G1 X55.559 Y112.123 E94.76531
G1 X54.886 Y112.123 E94.78769
G1 X53.378 Y111.738 E94.83946
G1 X51.986 Y111.008 E94.89174
G1 X51.133 Y110.219 E94.93038
G1 X50.253 Y109.138 E94.97674
G1 X48.318 Y104.774 E95.13552
G1 X48.05 Y103.276 E95.18613
G1 X48.16 Y101.415 E95.24814
G1 X48.832 Y99.871 E95.30415
G1 X49.716 Y98.639 E95.35458
G1 X50.224 Y98.13 E95.3785
G1 X51.697 Y97.237 E95.43579
G1 X58.456 Y94.249 E95.68158
G1 X59.296 Y93.62 E95.71649
G1 X59.296 Y33.7 E97.70943
G1 X59.317 Y32.978 E97.73346
G1 X59.733 Y30.596 E97.81388
G1 X60.058 Y29.641 E97.84743
G0 F6000 X60.437 Y29.77
G1 F1200 X61.173 Y28.257 E97.90339
G1 X61.653 Y27.517 E97.93273
G1 X63.107 Y25.854 E98.0062
G1 X63.632 Y25.4 E98.02929
G1 X65.456 Y24.226 E98.10143
G1 X66.972 Y23.58 E98.15624
G1 X68.028 Y23.288 E98.19268
G1 X69.605 Y23.06 E98.24568
G1 X70.409 Y23.036 E98.27243
G1 X151.52 Y23.04 E100.9702
G1 X153.035 Y23.161 E101.02075
G1 X154.411 Y23.458 E101.06757
G1 X155.801 Y23.956 E101.11668
