;FLAVOR:Marlin
;TIME:7173
;Filament used: 6.19162m
;Layer height: 0.2
;MINX:70.182
;MINY:32.715
;MINZ:0.2
;MAXX:157.861
;MAXY:184.901
;MAXZ:3.6
;TARGET_MACHINE.NAME:Creality Ender-3
;POSTPROCESSED
;Generated with Cura_SteamEngine 5.5.0
M140 S60
M105
M190 S60
M104 S220
M105
M109 S220
M82 ;absolute extrusion mode
; Ender 3 Custom Start G-code
G92 E0 ; Reset Extruder
G28 ; Home all axes
G1 Z2.0 F3000 ; Move Z Axis up little to prevent scratching of Heat Bed
G1 X0.1 Y20 Z0.3 F5000.0 ; Move to start position
G1 X0.1 Y200.0 Z0.3 F1500.0 E15 ; Draw the first line
G1 X0.4 Y200.0 Z0.3 F5000.0 ; Move to side a little
G1 X0.4 Y20 Z0.3 F1500.0 E30 ; Draw the second line
G92 E0 ; Reset Extruder
G1 Z2.0 F3000 ; Move Z Axis up little to prevent scratching of Heat Bed
G1 X5 Y20 Z0.3 F5000.0 ; Move over to prevent blob squish
G92 E0
G92 E0
G1 F2700 E-5
;LAYER_COUNT:18
;LAYER:0
M117 Printing Layer 0 of 17 CE3E3V2_nipamayatan_pekiseyahk_plaque_v3
M107
G0 F6000 X71.864 Y38.331 Z0.2
;TYPE:SKIRT
G1 F2700 E0
G1 F1200 X72.806 Y36.998 E0.05429
G1 X73.844 Y35.876 E0.10513
G1 X74.779 Y35.089 E0.14578
G1 X76.368 Y34.082 E0.20834
G1 X78.023 Y33.357 E0.26844
G1 X79.387 Y32.98 E0.31551
G1 X81.152 Y32.736 E0.37477
G1 X81.982 Y32.715 E0.40239
G1 X146.699 Y32.743 E2.55488
G1 X147.904 Y32.866 E2.59517
G1 X149.461 Y33.212 E2.64822
G1 X150.506 Y33.578 E2.68504
G1 X152.317 Y34.503 E2.75268
G1 X153.46 Y35.311 E2.79924
G1 X154.621 Y36.372 E2.85155
G1 X155.559 Y37.491 E2.90011
G1 X156.349 Y38.71 E2.94843
G1 X156.948 Y39.951 E2.99426
G1 X157.63 Y42.156 E3.07103
G1 X157.752 Y42.888 E3.09571
G1 X157.861 Y44.505 E3.14961
G1 X157.836 Y173.714 E7.44712
G1 X157.704 Y175.053 E7.49187
G1 X157.501 Y176.014 E7.52454
G1 X156.826 Y177.957 E7.59295
G1 X156.165 Y179.234 E7.64078
G1 X155.441 Y180.287 E7.68328
G1 X154.028 Y181.833 E7.75294
G1 X153.13 Y182.571 E7.7916
G1 X151.504 Y183.584 E7.85532
G1 X150.058 Y184.222 E7.90789
G1 X149.298 Y184.461 E7.93439
G1 X146.905 Y184.875 E8.01516
G1 X146.111 Y184.901 E8.04158
G1 X81.452 Y184.883 E10.19215
G1 X80.393 Y184.792 E10.2275
G1 X78.664 Y184.432 E10.28624
G1 X76.956 Y183.805 E10.34676
G1 X76.046 Y183.325 E10.38098
G1 X74.394 Y182.175 E10.44792
G1 X73.408 Y181.258 E10.49271
G1 X72.756 Y180.509 E10.52574
G1 X71.503 Y178.564 E10.60269
G1 X70.821 Y177.015 E10.65898
G1 X70.631 Y176.412 E10.68001
G1 X70.204 Y173.931 E10.76374
G1 X70.182 Y173.245 E10.78657
G1 X70.194 Y44.099 E15.08198
G1 X70.305 Y42.715 E15.12816
G1 X70.527 Y41.569 E15.16699
G1 X71.283 Y39.42 E15.24276
G1 X71.864 Y38.331 E15.28381
G0 F6000 X72.191 Y38.561
G1 F1200 X73.1 Y37.27 E15.33633
G1 X74.138 Y36.148 E15.38716
G1 X74.993 Y35.427 E15.42436
G1 X76.582 Y34.42 E15.48693
G1 X78.13 Y33.743 E15.54313
G1 X79.494 Y33.366 E15.59019
G1 X81.162 Y33.136 E15.6462
G1 X81.982 Y33.115 E15.67348
G1 X146.658 Y33.141 E17.82461
G1 X147.863 Y33.264 E17.8649
G1 X149.329 Y33.59 E17.91485
G1 X150.374 Y33.956 E17.95168
G1 X152.086 Y34.83 E18.01561
G1 X153.229 Y35.638 E18.06217
G1 X154.315 Y36.63 E18.11109
G1 X155.223 Y37.709 E18.15799
G1 X156.013 Y38.928 E18.2063
G1 X156.566 Y40.07 E18.24851
G1 X157.235 Y42.222 E18.32346
G1 X157.357 Y42.954 E18.34814
G1 X157.461 Y44.505 E18.39985
G1 X157.438 Y173.675 E22.69606
G1 X157.312 Y174.972 E22.7394
G1 X157.123 Y175.883 E22.77034
G1 X156.47 Y177.774 E22.83688
G1 X155.835 Y179.007 E22.88301
G1 X155.111 Y180.06 E22.92551
G1 X153.773 Y181.525 E22.9915
G1 X152.918 Y182.231 E23.02838
G1 X151.292 Y183.244 E23.0921
G1 X149.938 Y183.84 E23.14131
G1 X149.178 Y184.079 E23.1678
G1 X146.892 Y184.475 E23.24497
G1 X146.111 Y184.501 E23.27096
G1 X81.485 Y184.484 E25.42043
G1 X80.475 Y184.4 E25.45414
G1 X78.746 Y184.04 E25.51288
G1 X77.142 Y183.451 E25.56971
G1 X76.275 Y182.997 E25.60226
G1 X74.623 Y181.847 E25.66921
G1 X73.71 Y180.995 E25.71074
G1 X73.058 Y180.246 E25.74377
G1 X71.869 Y178.402 E25.81675
G1 X71.203 Y176.895 E25.87155
G1 X71.013 Y176.292 E25.89258
G1 X70.604 Y173.918 E25.9727
G1 X70.582 Y173.245 E25.99509
G1 X70.593 Y44.13 E30.28948
G1 X70.698 Y42.791 E30.33415
G1 X70.92 Y41.645 E30.37297
G1 X71.636 Y39.607 E30.44482
G1 X72.191 Y38.561 E30.4842
G0 F6000 X72.519 Y38.791
G1 F1200 X73.394 Y37.542 E30.53492
G1 X74.432 Y36.42 E30.58576
G1 X75.208 Y35.764 E30.61956
G1 X76.743 Y34.786 E30.6801
G1 X78.237 Y34.129 E30.73438
G1 X79.601 Y33.752 E30.78145
G1 X81.172 Y33.536 E30.83419
G1 X81.982 Y33.515 E30.86114
G1 X146.618 Y33.539 E33.01094
G1 X147.777 Y33.655 E33.04968
G1 X149.197 Y33.968 E33.09805
G1 X150.242 Y34.334 E33.13487
G1 X151.855 Y35.157 E33.1951
G1 X152.998 Y35.965 E33.24166
G1 X154.045 Y36.925 E33.2889
G1 X154.887 Y37.927 E33.33243
G1 X155.677 Y39.146 E33.38075
G1 X156.184 Y40.189 E33.41932
G1 X156.84 Y42.288 E33.49246
G1 X156.962 Y43.02 E33.51715
G1 X157.061 Y44.505 E33.56665
G1 X157.04 Y173.637 E37.86159
G1 X156.92 Y174.892 E37.90353
G1 X156.745 Y175.752 E37.93272
G1 X156.092 Y177.643 E37.99925
G1 X155.505 Y178.78 E38.04181
G1 X154.781 Y179.833 E38.08432
G1 X153.518 Y181.217 E38.14664
G1 X152.706 Y181.891 E38.18173
G1 X151.08 Y182.904 E38.24545
G1 X149.818 Y183.458 E38.29129
G1 X149.058 Y183.697 E38.31779
G1 X146.878 Y184.075 E38.39138
G1 X146.111 Y184.101 E38.4169
G1 X81.517 Y184.085 E40.56531
G1 X80.557 Y184.008 E40.59734
G1 X78.828 Y183.648 E40.65608
G1 X77.326 Y183.096 E40.70931
G1 X76.504 Y182.669 E40.74011
G1 X74.852 Y181.519 E40.80706
G1 X74.012 Y180.732 E40.84535
G1 X73.36 Y179.983 E40.87838
G1 X72.206 Y178.186 E40.94941
G1 X71.585 Y176.775 E41.00068
G1 X71.395 Y176.172 E41.02171
G1 X71.004 Y173.905 E41.09822
G1 X70.982 Y173.245 E41.12019
G1 X70.992 Y44.161 E45.41354
G1 X71.091 Y42.867 E45.4567
G1 X71.313 Y41.721 E45.49553
G1 X71.99 Y39.794 E45.56346
G1 X72.519 Y38.791 E45.60118
G0 F6000 X72.873 Y38.978
G1 F1200 X73.688 Y37.814 E45.64844
G1 X74.726 Y36.692 E45.69927
G1 X75.424 Y36.101 E45.72969
G1 X76.905 Y35.152 E45.7882
G1 X78.344 Y34.515 E45.84054
G1 X79.708 Y34.138 E45.88761
G1 X81.182 Y33.936 E45.93709
G1 X81.982 Y33.915 E45.96371
G1 X146.579 Y33.937 E48.11221
G1 X147.692 Y34.046 E48.14941
G1 X149.065 Y34.346 E48.19615
G1 X150.11 Y34.712 E48.23298
G1 X151.624 Y35.484 E48.2895
G1 X152.767 Y36.292 E48.33606
G1 X153.774 Y37.219 E48.38158
G1 X154.551 Y38.145 E48.42179
G1 X155.341 Y39.364 E48.4701
G1 X155.802 Y40.309 E48.50507
G1 X156.445 Y42.354 E48.57637
G1 X156.567 Y43.086 E48.60105
G1 X156.661 Y44.505 E48.64835
G1 X156.642 Y173.6 E52.94207
G1 X156.528 Y174.812 E52.98256
G1 X156.353 Y175.672 E53.01175
G1 X155.736 Y177.46 E53.07466
G1 X155.175 Y178.553 E53.11552
G1 X154.451 Y179.606 E53.15803
G1 X153.261 Y180.91 E53.21674
G1 X152.494 Y181.551 E53.24999
G1 X150.868 Y182.564 E53.31371
G1 X149.698 Y183.076 E53.35618
G1 X148.938 Y183.315 E53.38268
G1 X146.864 Y183.675 E53.45269
G1 X146.111 Y183.701 E53.47775
G1 X81.548 Y183.686 E55.62513
G1 X80.638 Y183.616 E55.65548
G1 X78.965 Y183.272 E55.71229
G1 X77.509 Y182.74 E55.76385
G1 X76.733 Y182.341 E55.79287
G1 X75.081 Y181.191 E55.85982
G1 X74.314 Y180.469 E55.89486
G1 X73.662 Y179.72 E55.92788
G1 X72.572 Y178.024 E55.99494
G1 X71.967 Y176.655 E56.04472
G1 X71.777 Y176.052 E56.06575
G1 X71.404 Y173.891 E56.13869
G1 X71.382 Y173.245 E56.16018
G1 X71.391 Y44.191 E60.45254
G1 X71.484 Y42.943 E60.49416
G1 X71.706 Y41.797 E60.53299
G1 X72.344 Y39.981 E60.59701
G1 X72.873 Y38.978 E60.63472
G0 F6000 X73.227 Y39.165
G1 F1200 X73.982 Y38.086 E60.67852
G1 X75.02 Y36.964 E60.72936
G1 X75.641 Y36.437 E60.75645
G1 X77.068 Y35.517 E60.81292
G1 X78.451 Y34.9 E60.86329
G1 X79.763 Y34.534 E60.90859
G1 X81.193 Y34.336 E60.95661
G1 X81.982 Y34.315 E60.98286
G1 X146.541 Y34.335 E63.1301
G1 X147.607 Y34.437 E63.16572
G1 X148.933 Y34.724 E63.21084
G1 X149.978 Y35.09 E63.24767
G1 X151.393 Y35.811 E63.30049
G1 X152.536 Y36.619 E63.34705
G1 X153.468 Y37.477 E63.38918
G1 X154.215 Y38.363 E63.42773
G1 X155.005 Y39.582 E63.47604
G1 X155.421 Y40.43 E63.50745
G1 X156.05 Y42.42 E63.57687
G1 X156.172 Y43.152 E63.60155
G1 X156.261 Y44.505 E63.64665
G1 X156.244 Y173.563 E67.93914
G1 X156.136 Y174.732 E67.97818
G1 X155.961 Y175.592 E68.00737
G1 X155.38 Y177.277 E68.06665
G1 X154.819 Y178.37 E68.10752
G1 X154.155 Y179.337 E68.14653
G1 X153.004 Y180.603 E68.20344
G1 X152.237 Y181.244 E68.23669
G1 X150.707 Y182.198 E68.29666
G1 X149.578 Y182.694 E68.33767
G1 X148.818 Y182.933 E68.36417
G1 X146.85 Y183.275 E68.43061
G1 X146.111 Y183.301 E68.4552
G1 X81.577 Y183.287 E70.60161
G1 X80.718 Y183.224 E70.63026
G1 X79.102 Y182.896 E70.6851
G1 X77.646 Y182.364 E70.73666
G1 X76.917 Y181.986 E70.76397
G1 X75.355 Y180.899 E70.82727
G1 X74.616 Y180.206 E70.86096
G1 X73.964 Y179.457 E70.89399
G1 X72.938 Y177.862 E70.95707
G1 X72.349 Y176.535 E71.00536
G1 X72.159 Y175.932 E71.02638
G1 X71.804 Y173.877 E71.09575
G1 X71.782 Y173.245 E71.11678
G1 X71.79 Y44.22 E75.40817
G1 X71.877 Y43.019 E75.44822
G1 X72.099 Y41.873 E75.48704
G1 X72.698 Y40.168 E75.54715
G1 X73.227 Y39.165 E75.58487
G0 F6000 X73.581 Y39.352
G1 F1200 X74.276 Y38.358 E75.62521
G1 X75.314 Y37.236 E75.67604
G1 X75.899 Y36.743 E75.70149
G1 X77.232 Y35.882 E75.75427
G1 X78.56 Y35.285 E75.8027
G1 X79.818 Y34.93 E75.84617
G1 X81.204 Y34.736 E75.89272
G1 X81.982 Y34.715 E75.91861
G1 X146.504 Y34.733 E78.06462
G1 X147.523 Y34.828 E78.09866
G1 X148.801 Y35.102 E78.14213
G1 X149.846 Y35.468 E78.17895
G1 X151.162 Y36.138 E78.22807
G1 X152.305 Y36.946 E78.27463
G1 X153.163 Y37.736 E78.31342
G1 X153.879 Y38.581 E78.35026
G1 X154.669 Y39.8 E78.39857
G1 X155.061 Y40.605 E78.42835
G1 X155.655 Y42.486 E78.49396
G1 X155.777 Y43.218 E78.51864
G1 X155.861 Y44.505 E78.56154
G1 X155.846 Y173.527 E82.85283
G1 X155.744 Y174.652 E82.8904
G1 X155.569 Y175.512 E82.91959
G1 X155.024 Y177.094 E82.97524
G1 X154.463 Y178.187 E83.0161
G1 X153.858 Y179.069 E83.05168
G1 X152.747 Y180.296 E83.10673
G1 X151.98 Y180.937 E83.13998
G1 X150.545 Y181.832 E83.19623
G1 X149.458 Y182.312 E83.23575
G1 X148.698 Y182.551 E83.26225
G1 X146.836 Y182.875 E83.32511
G1 X146.111 Y182.901 E83.34924
G1 X81.606 Y182.888 E85.49468
G1 X80.747 Y182.825 E85.52333
G1 X79.238 Y182.52 E85.57453
G1 X77.83 Y182.009 E85.62435
G1 X77.101 Y181.631 E85.65166
G1 X75.628 Y180.607 E85.71133
G1 X74.918 Y179.943 E85.74366
G1 X74.266 Y179.194 E85.77669
G1 X73.303 Y177.699 E85.83584
G1 X72.731 Y176.415 E85.88259
G1 X72.541 Y175.812 E85.90362
G1 X72.204 Y173.863 E85.9694
G1 X72.182 Y173.245 E85.98997
G1 X72.189 Y44.248 E90.28043
G1 X72.27 Y43.095 E90.31887
G1 X72.492 Y41.949 E90.3577
G1 X73.052 Y40.355 E90.41389
G1 X73.581 Y39.352 E90.45161
G0 F6000 X73.91 Y39.58
G1 F1200 X74.57 Y38.63 E90.49008
G1 X75.608 Y37.508 E90.54092
G1 X76.156 Y37.05 E90.56467
G1 X77.396 Y36.247 E90.61381
G1 X78.724 Y35.65 E90.66224
G1 X79.874 Y35.326 E90.70197
G1 X81.215 Y35.136 E90.74702
G1 X81.982 Y35.115 E90.77254
G1 X146.468 Y35.131 E92.91735
G1 X147.44 Y35.219 E92.94982
G1 X148.669 Y35.48 E92.9916
G1 X149.714 Y35.846 E93.02843
G1 X150.98 Y36.494 E93.07573
G1 X152.034 Y37.24 E93.11868
G1 X152.892 Y38.03 E93.15747
G1 X153.543 Y38.799 E93.19098
G1 X154.333 Y40.018 E93.2393
G1 X154.68 Y40.726 E93.26552
G1 X155.26 Y42.552 E93.32925
G1 X155.382 Y43.284 E93.35393
G1 X155.461 Y44.505 E93.39462
G1 X155.448 Y173.492 E97.68475
G1 X155.352 Y174.572 E97.72081
G1 X155.177 Y175.432 E97.75
G1 X154.668 Y176.911 E97.80202
G1 X154.107 Y178.004 E97.84289
G1 X153.561 Y178.801 E97.87502
G1 X152.49 Y179.989 E97.92822
G1 X151.723 Y180.63 E97.96147
G1 X150.383 Y181.466 E98.014
G1 X149.338 Y181.93 E98.05202
G1 X148.578 Y182.169 E98.07852
G1 X146.821 Y182.475 E98.13784
G1 X146.111 Y182.501 E98.16147
G1 X81.635 Y182.489 E100.30595
G1 X80.776 Y182.426 E100.3346
G1 X79.374 Y182.144 E100.38216
G1 X78.013 Y181.653 E100.43029
G1 X77.329 Y181.302 E100.45586
G1 X75.901 Y180.314 E100.51361
G1 X75.22 Y179.68 E100.54456
G1 X74.568 Y178.931 E100.57759
G1 X73.668 Y177.536 E100.6328
G1 X73.113 Y176.295 E100.67802
G1 X72.923 Y175.692 E100.69905
G1 X72.604 Y173.848 E100.76129
G1 X72.582 Y173.245 E100.78136
G1 X72.588 Y44.275 E105.07092
G1 X72.663 Y43.171 E105.10772
G1 X72.885 Y42.025 E105.14655
G1 X73.406 Y40.541 E105.19886
G1 X73.91 Y39.58 E105.23495
G0 F6000 X74.239 Y39.808
G1 F1200 X74.899 Y38.858 E105.27342
G1 X75.865 Y37.815 E105.32071
G1 X76.413 Y37.357 E105.34446
G1 X77.561 Y36.611 E105.39
G1 X78.834 Y36.035 E105.43647
G1 X79.931 Y35.722 E105.47441
G1 X81.226 Y35.536 E105.51793
G1 X81.982 Y35.515 E105.54308
G1 X146.433 Y35.529 E107.68673
G1 X147.358 Y35.611 E107.71762
G1 X148.537 Y35.858 E107.75768
G1 X149.582 Y36.224 E107.79451
G1 X150.75 Y36.821 E107.83814
G1 X151.763 Y37.534 E107.87934
G1 X152.621 Y38.324 E107.91813
G1 X153.207 Y39.017 E107.94831
G1 X153.997 Y40.236 E107.99663
G1 X154.32 Y40.901 E108.02122
G1 X154.865 Y42.618 E108.08113
G1 X154.987 Y43.35 E108.10582
G1 X155.061 Y44.505 E108.14431
G1 X155.049 Y173.458 E112.4333
G1 X154.96 Y174.492 E112.46782
G1 X154.785 Y175.352 E112.49701
G1 X154.312 Y176.728 E112.54541
G1 X153.751 Y177.821 E112.58627
G1 X153.263 Y178.534 E112.61501
G1 X152.233 Y179.682 E112.6663
G1 X151.466 Y180.323 E112.69955
G1 X150.22 Y181.101 E112.74841
G1 X149.218 Y181.548 E112.7849
G1 X148.458 Y181.787 E112.8114
G1 X146.806 Y182.075 E112.86717
G1 X146.111 Y182.101 E112.8903
G1 X81.664 Y182.09 E115.03382
G1 X80.805 Y182.027 E115.06247
G1 X79.509 Y181.767 E115.10643
G1 X78.196 Y181.297 E115.15282
G1 X77.512 Y180.946 E115.17839
G1 X76.173 Y180.021 E115.23251
G1 X75.522 Y179.417 E115.26205
G1 X74.87 Y178.668 E115.29508
G1 X74.033 Y177.372 E115.34639
G1 X73.495 Y176.175 E115.39004
G1 X73.305 Y175.572 E115.41107
G1 X73.004 Y173.833 E115.46977
G1 X72.982 Y173.245 E115.48934
G1 X72.987 Y44.301 E119.77803
G1 X73.056 Y43.247 E119.81317
G1 X73.278 Y42.101 E119.85199
G1 X73.761 Y40.726 E119.90046
G1 X74.239 Y39.808 E119.93489
G0 F6000 X74.568 Y40.036
G1 F1200 X75.228 Y39.086 E119.97336
G1 X76.122 Y38.122 E120.01709
G1 X76.67 Y37.664 E120.04084
G1 X77.778 Y36.947 E120.08474
G1 X78.945 Y36.419 E120.12734
G1 X79.989 Y36.118 E120.16348
G1 X81.237 Y35.936 E120.20543
G1 X81.982 Y35.915 E120.23022
G1 X146.399 Y35.928 E122.37273
G1 X147.277 Y36.003 E122.40204
G1 X148.405 Y36.236 E122.44035
G1 X149.45 Y36.602 E122.47718
G1 X150.521 Y37.149 E122.51718
G1 X151.493 Y37.829 E122.55663
G1 X152.316 Y38.583 E122.59376
G1 X152.871 Y39.235 E122.62223
G1 X153.661 Y40.454 E122.67055
G1 X153.959 Y41.074 E122.69343
G1 X154.47 Y42.684 E122.74961
G1 X154.592 Y43.416 E122.77429
G1 X154.661 Y44.505 E122.81058
G1 X154.65 Y173.424 E127.09845
G1 X154.561 Y174.458 E127.13297
G1 X154.406 Y175.223 E127.15893
G1 X153.956 Y176.545 E127.20537
G1 X153.395 Y177.638 E127.24624
G1 X152.965 Y178.268 E127.27161
G1 X151.976 Y179.375 E127.32098
G1 X151.209 Y180.016 E127.35422
G1 X150.056 Y180.736 E127.39944
G1 X149.098 Y181.166 E127.43436
G1 X148.338 Y181.405 E127.46086
G1 X146.791 Y181.675 E127.51309
G1 X146.111 Y181.701 E127.53573
G1 X81.692 Y181.691 E129.67831
G1 X80.884 Y181.635 E129.70525
G1 X79.588 Y181.375 E129.74921
G1 X78.379 Y180.941 E129.79194
G1 X77.695 Y180.59 E129.81751
G1 X76.444 Y179.727 E129.86806
G1 X75.824 Y179.154 E129.89613
G1 X75.172 Y178.405 E129.92916
G1 X74.37 Y177.156 E129.97853
G1 X73.877 Y176.055 E130.01865
G1 X73.687 Y175.452 E130.03968
G1 X73.404 Y173.818 E130.09484
G1 X73.382 Y173.245 E130.11391
G1 X73.386 Y44.326 E134.40177
G1 X73.449 Y43.323 E134.4352
G1 X73.671 Y42.177 E134.47402
G1 X74.116 Y40.91 E134.51869
G1 X74.568 Y40.036 E134.55142
G0 F6000 X74.897 Y40.263
G1 F1200 X75.522 Y39.357 E134.58802
G1 X76.379 Y38.429 E134.63004
G1 X76.927 Y37.971 E134.65379
G1 X77.995 Y37.283 E134.69605
G1 X79.057 Y36.803 E134.73481
G1 X80.048 Y36.514 E134.76914
G1 X81.248 Y36.336 E134.80949
G1 X81.982 Y36.315 E134.83391
G1 X146.366 Y36.327 E136.97533
G1 X147.197 Y36.395 E137.00307
G1 X148.273 Y36.614 E137.03959
G1 X149.318 Y36.98 E137.07641
G1 X150.293 Y37.478 E137.11283
G1 X151.223 Y38.124 E137.15049
G1 X152.046 Y38.878 E137.18761
G1 X152.536 Y39.453 E137.21274
G1 X153.3 Y40.627 E137.25933
G1 X153.598 Y41.247 E137.28221
G1 X154.075 Y42.75 E137.33466
G1 X154.197 Y43.482 E137.35934
G1 X154.261 Y44.505 E137.39343
G1 X154.251 Y173.39 E141.68016
G1 X154.162 Y174.424 E141.71468
