;FLAVOR:Marlin
;TIME:16418
;Filament used: 14.9795m
;Layer height: 0.2
;MINX:63.501
;MINY:21.956
;MINZ:0.2
;MAXX:169.767
;MAXY:208.569
;MAXZ:9.6
;TARGET_MACHINE.NAME:Creality Ender-3
;POSTPROCESSED
;Generated with Cura_SteamEngine 5.5.0
M140 S60
M105
M190 S60
M104 S220
M105
M109 S220
M82 ;absolute extrusion mode
; Ender 3 Custom Start G-code
G92 E0 ; Reset Extruder
G28 ; Home all axes
G1 Z2.0 F3000 ; Move Z Axis up little to prevent scratching of Heat Bed
G1 X0.1 Y20 Z0.3 F5000.0 ; Move to start position
G1 X0.1 Y200.0 Z0.3 F1500.0 E15 ; Draw the first line
G1 X0.4 Y200.0 Z0.3 F5000.0 ; Move to side a little
G1 X0.4 Y20 Z0.3 F1500.0 E30 ; Draw the second line
G92 E0 ; Reset Extruder
G1 Z2.0 F3000 ; Move Z Axis up little to prevent scratching of Heat Bed
G1 X5 Y20 Z0.3 F5000.0 ; Move over to prevent blob squish
G92 E0
G92 E0
G1 F2700 E-5
;LAYER_COUNT:48
;LAYER:0
M117 Printing Layer 0 of 47 CE3E3V2_Oyoyo_Plaque_multicolour
M107
G0 F6000 X65.058 Y29.66 Z0.2
;TYPE:SKIRT
G1 F2700 E0
G1 F1200 X65.775 Y28.24 E0.05291
G1 X66.899 Y26.609 E0.11879
G1 X68.261 Y25.165 E0.18481
G1 X69.192 Y24.411 E0.22466
G1 X70.852 Y23.379 E0.28967
G1 X72.389 Y22.703 E0.34552
G1 X73.756 Y22.298 E0.39294
G1 X75.912 Y21.98 E0.46542
G1 X76.884 Y21.956 E0.49776
G1 X157.574 Y22.258 E3.18154
G1 X158.767 Y22.362 E3.22137
G1 X160.37 Y22.696 E3.27583
G1 X162.262 Y23.376 E3.3427
G1 X163.877 Y24.242 E3.40365
G1 X164.708 Y24.819 E3.4373
G1 X166.514 Y26.485 E3.51902
G1 X167.363 Y27.537 E3.56398
G1 X168.218 Y28.899 E3.61747
G1 X168.894 Y30.367 E3.67122
G1 X169.383 Y31.921 E3.72541
G1 X169.735 Y34.094 E3.79862
G1 X169.767 Y35.076 E3.8313
G1 X169.181 Y196.355 E9.1955
G1 X169.101 Y197.38 E9.2297
G1 X168.71 Y199.293 E9.29464
G1 X168.06 Y201.098 E9.35845
G1 X167.484 Y202.219 E9.40036
G1 X166.282 Y203.949 E9.47043
G1 X165.354 Y204.954 E9.51593
G1 X163.703 Y206.321 E9.58722
G1 X162.907 Y206.827 E9.61859
G1 X160.904 Y207.765 E9.69215
G1 X159.482 Y208.198 E9.74159
G1 X157.33 Y208.539 E9.81406
G1 X156.362 Y208.569 E9.84627
G1 X75.895 Y208.287 E12.52263
G1 X75.211 Y208.253 E12.54541
G1 X72.593 Y207.763 E12.634
G1 X71.65 Y207.442 E12.66713
G1 X69.286 Y206.235 E12.75541
G1 X68.266 Y205.501 E12.79721
G1 X67.046 Y204.381 E12.85229
G1 X65.8 Y202.867 E12.91751
G1 X64.876 Y201.346 E12.9767
G1 X64.488 Y200.501 E13.00763
G1 X63.825 Y198.391 E13.08119
G1 X63.537 Y196.526 E13.14395
G1 X63.501 Y195.449 E13.1798
G1 X64.08 Y34.324 E18.53887
G1 X64.186 Y32.923 E18.5856
G1 X64.552 Y31.109 E18.64715
G1 X65.058 Y29.66 E18.6982
G0 F6000 X65.416 Y29.839
G1 F1200 X66.105 Y28.466 E18.74929
G1 X67.19 Y26.883 E18.81312
G1 X68.513 Y25.476 E18.87736
G1 X69.444 Y24.722 E18.9172
G1 X71.014 Y23.745 E18.97871
G1 X72.503 Y23.087 E19.03285
G1 X73.87 Y22.682 E19.08027
G1 X75.922 Y22.38 E19.14926
G1 X76.883 Y22.356 E19.18123
G1 X157.54 Y22.657 E21.86391
G1 X158.685 Y22.754 E21.90213
G1 X160.288 Y23.088 E21.95659
G1 X162.126 Y23.752 E22.02159
G1 X163.649 Y24.571 E22.07911
G1 X164.48 Y25.148 E22.11275
G1 X166.203 Y26.737 E22.19071
G1 X167.024 Y27.75 E22.23408
G1 X167.879 Y29.112 E22.28757
G1 X168.512 Y30.487 E22.33791
G1 X169.001 Y32.041 E22.3921
G1 X169.335 Y34.107 E22.46171
G1 X169.367 Y35.075 E22.49392
G1 X168.782 Y196.324 E27.85712
G1 X168.702 Y197.349 E27.89131
G1 X168.333 Y199.158 E27.95272
G1 X167.704 Y200.915 E28.01479
G1 X167.128 Y202.036 E28.05671
G1 X165.987 Y203.678 E28.12321
G1 X165.098 Y204.646 E28.16693
G1 X163.488 Y205.983 E28.23653
G1 X162.692 Y206.489 E28.2679
G1 X160.787 Y207.382 E28.33788
G1 X159.365 Y207.815 E28.38732
G1 X157.317 Y208.139 E28.45628
G1 X156.363 Y208.169 E28.48803
G1 X75.915 Y207.887 E31.16376
G1 X75.231 Y207.853 E31.18653
G1 X72.722 Y207.384 E31.27143
G1 X71.779 Y207.063 E31.30456
G1 X69.519 Y205.91 E31.38895
G1 X68.537 Y205.206 E31.42913
G1 X67.317 Y204.086 E31.48422
G1 X66.142 Y202.659 E31.5457
G1 X65.24 Y201.179 E31.60335
G1 X64.852 Y200.334 E31.63427
G1 X64.22 Y198.329 E31.70419
G1 X63.937 Y196.512 E31.76535
G1 X63.901 Y195.45 E31.8007
G1 X64.479 Y34.354 E37.15881
G1 X64.585 Y32.953 E37.20554
G1 X64.93 Y31.24 E37.26366
G1 X65.416 Y29.839 E37.31298
G0 F6000 X65.774 Y30.017
G1 F1200 X66.435 Y28.691 E37.36226
G1 X67.482 Y27.156 E37.42406
G1 X68.765 Y25.786 E37.48648
G1 X69.655 Y25.062 E37.52464
G1 X71.225 Y24.085 E37.58615
G1 X72.617 Y23.471 E37.63675
G1 X73.984 Y23.066 E37.68417
G1 X75.98 Y22.776 E37.75125
G1 X76.882 Y22.756 E37.78126
G1 X157.507 Y23.056 E40.46288
G1 X158.604 Y23.146 E40.49949
G1 X160.153 Y23.465 E40.55209
G1 X161.937 Y24.105 E40.61513
G1 X163.421 Y24.9 E40.67112
G1 X164.252 Y25.477 E40.70477
G1 X165.892 Y26.989 E40.77896
G1 X166.713 Y28.002 E40.82233
G1 X167.54 Y29.324 E40.87419
G1 X168.13 Y30.607 E40.92116
G1 X168.619 Y32.161 E40.97535
G1 X168.935 Y34.12 E41.04135
G1 X168.967 Y35.074 E41.07309
G1 X168.383 Y196.293 E46.4353
G1 X168.303 Y197.318 E46.46949
G1 X167.956 Y199.024 E46.52739
G1 X167.348 Y200.732 E46.58769
G1 X166.772 Y201.853 E46.62961
G1 X165.692 Y203.407 E46.69256
G1 X164.803 Y204.375 E46.73627
G1 X163.273 Y205.645 E46.8024
G1 X162.477 Y206.151 E46.83378
G1 X160.67 Y206.999 E46.90017
G1 X159.248 Y207.432 E46.94961
G1 X157.304 Y207.739 E47.01506
G1 X156.364 Y207.769 E47.04634
G1 X75.935 Y207.487 E49.72144
G1 X75.251 Y207.453 E49.74422
G1 X72.851 Y207.005 E49.82542
G1 X71.908 Y206.684 E49.85855
G1 X69.751 Y205.584 E49.93909
G1 X68.808 Y204.911 E49.97762
G1 X67.588 Y203.791 E50.0327
G1 X66.483 Y202.45 E50.0905
G1 X65.604 Y201.012 E50.14655
G1 X65.216 Y200.167 E50.17748
G1 X64.615 Y198.267 E50.24376
G1 X64.337 Y196.498 E50.30332
G1 X64.301 Y195.451 E50.33816
G1 X64.878 Y34.384 E55.69531
G1 X64.984 Y32.983 E55.74204
G1 X65.308 Y31.37 E55.79676
G1 X65.774 Y30.017 E55.84435
G0 F6000 X66.132 Y30.195
G1 F1200 X66.766 Y28.916 E55.89183
G1 X67.775 Y27.429 E55.9516
G1 X69.018 Y26.096 E56.01222
G1 X69.866 Y25.402 E56.04867
G1 X71.436 Y24.425 E56.11017
G1 X72.731 Y23.855 E56.15723
G1 X74.098 Y23.45 E56.20465
G1 X75.989 Y23.176 E56.2682
G1 X76.881 Y23.156 E56.29788
G1 X157.474 Y23.455 E58.97843
G1 X158.571 Y23.545 E59.01504
G1 X160.018 Y23.842 E59.06417
G1 X161.802 Y24.482 E59.12721
G1 X163.193 Y25.229 E59.17972
G1 X164.024 Y25.806 E59.21337
G1 X165.581 Y27.241 E59.2838
G1 X166.402 Y28.254 E59.32716
G1 X167.201 Y29.536 E59.37741
G1 X167.748 Y30.727 E59.421
G1 X168.237 Y32.281 E59.47518
G1 X168.535 Y34.134 E59.53761
G1 X168.567 Y35.073 E59.56886
G1 X167.984 Y196.262 E64.93006
G1 X167.904 Y197.287 E64.96425
G1 X167.579 Y198.891 E65.01869
G1 X166.992 Y200.549 E65.07719
G1 X166.416 Y201.67 E65.1191
G1 X165.397 Y203.136 E65.17849
G1 X164.508 Y204.104 E65.2222
G1 X163.058 Y205.307 E65.28486
G1 X162.262 Y205.813 E65.31624
G1 X160.553 Y206.616 E65.37904
G1 X159.131 Y207.049 E65.42848
G1 X157.291 Y207.339 E65.49043
G1 X156.365 Y207.369 E65.52125
G1 X75.955 Y207.087 E68.19571
G1 X75.271 Y207.053 E68.21849
G1 X72.98 Y206.626 E68.296
G1 X72.037 Y206.305 E68.32913
G1 X69.983 Y205.258 E68.40581
G1 X69.04 Y204.585 E68.44435
G1 X67.896 Y203.536 E68.49597
G1 X66.824 Y202.241 E68.55188
G1 X65.968 Y200.845 E68.60635
G1 X65.58 Y200 E68.63728
G1 X64.997 Y198.147 E68.70188
G1 X64.737 Y196.484 E68.75787
G1 X64.701 Y195.452 E68.79221
G1 X65.277 Y34.414 E74.14839
G1 X65.383 Y33.013 E74.19512
G1 X65.7 Y31.45 E74.24817
G1 X66.132 Y30.195 E74.29231
G0 F6000 X66.491 Y30.372
G1 F1200 X67.097 Y29.141 E74.33795
G1 X68.106 Y27.654 E74.39772
G1 X69.272 Y26.405 E74.45455
G1 X70.077 Y25.742 E74.48923
G1 X71.647 Y24.765 E74.55074
G1 X72.845 Y24.239 E74.59426
G1 X74.212 Y23.834 E74.64168
G1 X75.998 Y23.576 E74.70169
G1 X76.88 Y23.556 E74.73104
G1 X157.441 Y23.854 E77.41053
G1 X158.538 Y23.944 E77.44713
G1 X159.883 Y24.219 E77.49279
G1 X161.667 Y24.859 E77.55583
G1 X162.965 Y25.558 E77.60487
G1 X163.796 Y26.135 E77.63852
G1 X165.27 Y27.493 E77.70518
G1 X166.091 Y28.506 E77.74854
G1 X166.838 Y29.704 E77.7955
G1 X167.366 Y30.847 E77.83738
G1 X167.855 Y32.401 E77.89156
G1 X168.135 Y34.148 E77.95041
G1 X168.167 Y35.072 E77.98116
G1 X167.585 Y196.231 E83.34137
G1 X167.505 Y197.256 E83.37556
G1 X167.202 Y198.758 E83.42652
G1 X166.636 Y200.366 E83.48322
G1 X166.06 Y201.487 E83.52514
G1 X165.102 Y202.865 E83.58096
G1 X164.213 Y203.833 E83.62467
G1 X162.843 Y204.969 E83.68387
G1 X162.047 Y205.475 E83.71524
G1 X160.436 Y206.233 E83.77446
G1 X159.014 Y206.666 E83.8239
G1 X157.278 Y206.939 E83.88235
G1 X156.366 Y206.969 E83.9127
G1 X75.975 Y206.687 E86.58653
G1 X75.291 Y206.653 E86.60931
G1 X73.109 Y206.247 E86.68312
G1 X72.166 Y205.926 E86.71626
G1 X70.215 Y204.932 E86.78908
G1 X69.272 Y204.259 E86.82762
G1 X68.204 Y203.28 E86.8758
G1 X67.165 Y202.031 E86.92984
G1 X66.332 Y200.678 E86.98269
G1 X65.944 Y199.833 E87.01361
G1 X65.392 Y198.085 E87.07458
G1 X65.137 Y196.47 E87.12896
G1 X65.101 Y195.453 E87.16281
G1 X65.676 Y34.443 E92.51806
G1 X65.775 Y33.093 E92.56308
G1 X66.092 Y31.53 E92.61612
G1 X66.491 Y30.372 E92.65686
G0 F6000 X66.85 Y30.548
G1 F1200 X67.428 Y29.366 E92.70062
G1 X68.437 Y27.879 E92.76039
G1 X69.528 Y26.713 E92.8135
G1 X70.288 Y26.082 E92.84636
G1 X71.858 Y25.105 E92.90786
G1 X72.959 Y24.623 E92.94783
G1 X74.326 Y24.218 E92.99525
G1 X76.007 Y23.976 E93.05174
G1 X76.879 Y23.956 E93.08075
G1 X157.408 Y24.253 E95.75918
G1 X158.505 Y24.343 E95.79578
G1 X159.749 Y24.596 E95.83801
G1 X161.478 Y25.212 E95.89905
G1 X162.737 Y25.887 E95.94657
G1 X163.568 Y26.464 E95.98022
G1 X164.959 Y27.745 E96.04311
G1 X165.78 Y28.758 E96.08648
G1 X166.498 Y29.915 E96.13177
G1 X166.984 Y30.967 E96.17031
G1 X167.473 Y32.521 E96.2245
G1 X167.735 Y34.162 E96.27977
G1 X167.767 Y35.071 E96.31002
G1 X167.186 Y196.2 E101.66923
G1 X167.106 Y197.225 E101.70342
G1 X166.81 Y198.678 E101.75274
G1 X166.28 Y200.183 E101.80581
G1 X165.704 Y201.304 E101.84773
G1 X164.807 Y202.594 E101.89999
G1 X163.918 Y203.562 E101.9437
G1 X162.628 Y204.631 E101.99943
G1 X161.832 Y205.137 E102.0308
G1 X160.319 Y205.85 E102.08643
G1 X158.897 Y206.283 E102.13587
G1 X157.265 Y206.539 E102.19081
G1 X156.367 Y206.569 E102.2207
G1 X75.995 Y206.287 E104.8939
G1 X75.311 Y206.253 E104.91667
G1 X73.238 Y205.868 E104.9868
G1 X72.295 Y205.547 E105.01993
G1 X70.447 Y204.606 E105.08891
G1 X69.504 Y203.933 E105.12744
G1 X68.512 Y203.024 E105.17219
G1 X67.473 Y201.775 E105.22623
G1 X66.696 Y200.511 E105.27558
G1 X66.308 Y199.666 E105.3065
G1 X65.787 Y198.022 E105.36386
G1 X65.537 Y196.456 E105.41661
G1 X65.501 Y195.454 E105.44996
G1 X66.075 Y34.471 E110.80431
G1 X66.167 Y33.173 E110.84759
G1 X66.484 Y31.61 E110.90063
G1 X66.85 Y30.548 E110.93799
G0 F6000 X67.21 Y30.723
G1 F1200 X67.76 Y29.59 E110.97988
G1 X68.73 Y28.152 E111.03757
G1 X69.784 Y27.021 E111.08899
G1 X70.544 Y26.39 E111.12185
G1 X72.019 Y25.471 E111.17965
G1 X73.073 Y25.007 E111.21795
G1 X74.44 Y24.602 E111.26537
G1 X76.016 Y24.376 E111.31832
G1 X76.878 Y24.356 E111.347
G1 X157.375 Y24.652 E114.02436
G1 X158.472 Y24.742 E114.06097
G1 X159.616 Y24.973 E114.09979
G1 X161.29 Y25.565 E114.15885
G1 X162.509 Y26.216 E114.20481
G1 X163.34 Y26.793 E114.23846
G1 X164.648 Y27.997 E114.29759
G1 X165.469 Y29.01 E114.34095
G1 X166.135 Y30.084 E114.38299
G1 X166.602 Y31.087 E114.41979
G1 X167.091 Y32.641 E114.47397
G1 X167.335 Y34.176 E114.52567
G1 X167.367 Y35.07 E114.55542
G1 X166.787 Y196.169 E119.91363
G1 X166.707 Y197.194 E119.94782
G1 X166.432 Y198.546 E119.99371
G1 X165.924 Y200 E120.04494
G1 X165.348 Y201.121 E120.08686
G1 X164.512 Y202.323 E120.13556
G1 X163.623 Y203.291 E120.17927
G1 X162.413 Y204.293 E120.23152
G1 X161.617 Y204.799 E120.26289
G1 X160.202 Y205.467 E120.31494
G1 X158.78 Y205.9 E120.36438
G1 X157.251 Y206.139 E120.41585
G1 X156.368 Y206.169 E120.44523
G1 X76.015 Y205.887 E123.1178
G1 X75.331 Y205.853 E123.14058
G1 X73.312 Y205.475 E123.2089
G1 X72.425 Y205.169 E123.24011
G1 X70.679 Y204.28 E123.30527
G1 X69.736 Y203.607 E123.34381
G1 X68.82 Y202.768 E123.38512
G1 X67.781 Y201.519 E123.43916
G1 X67.06 Y200.344 E123.48501
G1 X66.672 Y199.499 E123.51593
G1 X66.169 Y197.902 E123.57162
G1 X65.937 Y196.441 E123.62083
G1 X65.901 Y195.455 E123.65364
G1 X66.474 Y34.498 E129.00713
G1 X66.559 Y33.252 E129.04867
G1 X66.863 Y31.739 E129.09999
G1 X67.21 Y30.723 E129.1357
G0 F6000 X67.589 Y30.852
G1 F1200 X68.092 Y29.813 E129.1741
G1 X69.023 Y28.424 E129.22971
G1 X70.04 Y27.329 E129.27942
G1 X70.8 Y26.698 E129.31227
G1 X72.181 Y25.837 E129.3664
G1 X73.187 Y25.391 E129.403
G1 X74.554 Y24.986 E129.45042
G1 X76.025 Y24.776 E129.49984
G1 X76.877 Y24.756 E129.52819
G1 X157.342 Y25.051 E132.20448
G1 X158.439 Y25.141 E132.24109
G1 X159.536 Y25.365 E132.27833
G1 X161.102 Y25.918 E132.33357
G1 X162.281 Y26.545 E132.37798
G1 X163.112 Y27.122 E132.41163
G1 X164.337 Y28.249 E132.46699
G1 X165.158 Y29.262 E132.51036
G1 X165.773 Y30.254 E132.54918
G1 X166.22 Y31.207 E132.58419
G1 X166.709 Y32.761 E132.63838
G1 X166.935 Y34.191 E132.68653
G1 X166.967 Y35.069 E132.71575
G1 X166.388 Y196.138 E138.07296
G1 X166.308 Y197.163 E138.10716
G1 X166.054 Y198.414 E138.14962
G1 X165.546 Y199.868 E138.20084
G1 X164.993 Y200.937 E138.24087
G1 X164.217 Y202.052 E138.28606
G1 X163.328 Y203.02 E138.32977
G1 X162.198 Y203.955 E138.37855
G1 X161.402 Y204.461 E138.40992
G1 X160.085 Y205.084 E138.45838
G1 X158.663 Y205.517 E138.50782
G1 X157.237 Y205.739 E138.55582
G1 X156.369 Y205.769 E138.58471
G1 X76.035 Y205.487 E141.25664
G1 X75.351 Y205.453 E141.27942
G1 X73.441 Y205.096 E141.34405
G1 X72.606 Y204.812 E141.37338
G1 X70.911 Y203.954 E141.43657
G1 X69.968 Y203.281 E141.4751
G1 X69.128 Y202.512 E141.51298
G1 X68.089 Y201.263 E141.56702
G1 X67.423 Y200.176 E141.60942
G1 X67.054 Y199.379 E141.63863
G1 X66.551 Y197.782 E141.69432
G1 X66.337 Y196.426 E141.73998
G1 X66.301 Y195.456 E141.77226
G1 X66.873 Y34.524 E147.12492
G1 X66.951 Y33.33 E147.16471
G1 X67.242 Y31.868 E147.21429
G1 X67.589 Y30.852 E147.25
G0 F6000 X67.968 Y30.981
G1 F1200 X68.425 Y30.035 E147.28494
G1 X69.317 Y28.696 E147.33846
G1 X70.296 Y27.637 E147.38643
G1 X71.056 Y27.006 E147.41928
G1 X72.344 Y26.202 E147.46978
G1 X73.301 Y25.775 E147.50463
G1 X74.668 Y25.37 E147.55205
G1 X76.034 Y25.176 E147.59794
G1 X76.876 Y25.156 E147.62596
G1 X157.309 Y25.45 E150.30119
G1 X158.406 Y25.54 E150.3378
G1 X159.404 Y25.743 E150.37167
G1 X160.915 Y26.272 E150.42492
G1 X162.053 Y26.874 E150.46774
G1 X162.884 Y27.451 E150.50138
G1 X164.027 Y28.502 E150.55303
G1 X164.818 Y29.473 E150.59468
G1 X165.411 Y30.425 E150.63199
G1 X165.838 Y31.327 E150.66518
G1 X166.327 Y32.881 E150.71937
G1 X166.535 Y34.206 E150.76398
G1 X166.567 Y35.068 E150.79267
G1 X165.989 Y196.107 E156.14888
G1 X165.909 Y197.132 E156.18307
G1 X165.676 Y198.282 E156.2221
G1 X165.168 Y199.736 E156.27333
G1 X164.664 Y200.709 E156.30977
G1 X163.922 Y201.781 E156.35314
G1 X163.033 Y202.749 E156.39685
G1 X161.983 Y203.617 E156.44216
G1 X161.187 Y204.123 E156.47353
G1 X159.968 Y204.701 E156.5184
G1 X158.546 Y205.134 E156.56784
G1 X157.223 Y205.339 E156.61237
G1 X156.37 Y205.369 E156.64076
G1 X76.055 Y205.087 E159.31206
G1 X75.371 Y205.053 E159.33484
G1 X73.57 Y204.717 E159.39578
G1 X72.735 Y204.433 E159.42511
G1 X71.143 Y203.628 E159.48445
G1 X70.2 Y202.955 E159.52298
G1 X69.436 Y202.256 E159.55742
G1 X68.397 Y201.007 E159.61146
G1 X67.785 Y200.007 E159.65045
G1 X67.436 Y199.259 E159.6779
G1 X66.933 Y197.662 E159.73359
G1 X66.737 Y196.411 E159.77571
G1 X66.701 Y195.457 E159.80746
G1 X67.272 Y34.549 E165.15932
G1 X67.343 Y33.407 E165.19737
G1 X67.621 Y31.997 E165.24517
G1 X67.968 Y30.981 E165.28088
G0 F6000 X68.347 Y31.11
G1 F1200 X68.758 Y30.257 E165.31237
G1 X69.65 Y28.918 E165.36589
G1 X70.552 Y27.945 E165.41002
G1 X71.312 Y27.314 E165.44287
G1 X72.508 Y26.567 E165.48977
G1 X73.415 Y26.159 E165.52285
G1 X74.782 Y25.754 E165.57027
G1 X76.044 Y25.576 E165.61266
G1 X76.875 Y25.556 E165.64031
G1 X157.276 Y25.849 E168.31447
G1 X158.373 Y25.939 E168.35108
G1 X159.273 Y26.121 E168.38162
G1 X160.729 Y26.626 E168.43288
G1 X161.825 Y27.203 E168.47407
G1 X162.656 Y27.78 E168.50772
G1 X163.756 Y28.796 E168.55753
G1 X164.479 Y29.685 E168.59564
G1 X165.05 Y30.598 E168.63146
G1 X165.456 Y31.447 E168.66276
G1 X165.945 Y33.001 E168.71694
G1 X166.135 Y34.221 E168.75801
G1 X166.167 Y35.067 E168.78617
