;FLAVOR:Marlin
;TIME:11682
;Filament used: 9.16846m
;Layer height: 0.2
;MINX:65.021
;MINY:11.573
;MINZ:0.2
;MAXX:182.208
;MAXY:207.126
;MAXZ:3.4
;TARGET_MACHINE.NAME:Creality Ender-3
;POSTPROCESSED
;Generated with Cura_SteamEngine 5.5.0
M140 S60
M105
M190 S60
M104 S220
M105
M109 S220
M82 ;absolute extrusion mode
; Ender 3 Custom Start G-code
G92 E0 ; Reset Extruder
G28 ; Home all axes
G1 Z2.0 F3000 ; Move Z Axis up little to prevent scratching of Heat Bed
G1 X0.1 Y20 Z0.3 F5000.0 ; Move to start position
G1 X0.1 Y200.0 Z0.3 F1500.0 E15 ; Draw the first line
G1 X0.4 Y200.0 Z0.3 F5000.0 ; Move to side a little
G1 X0.4 Y20 Z0.3 F1500.0 E30 ; Draw the second line
G92 E0 ; Reset Extruder
G1 Z2.0 F3000 ; Move Z Axis up little to prevent scratching of Heat Bed
G1 X5 Y20 Z0.3 F5000.0 ; Move over to prevent blob squish
G92 E0
G92 E0
G1 F2700 E-5
;LAYER_COUNT:17
;LAYER:0
M117 Printing Layer 0 of 16 sôniyâwâhkêsîs_plaque_sale
M107
G0 F6000 X70.569 Y28.471 Z0.2
;TYPE:SKIRT
G1 F2700 E0
G1 F1200 X71.32 Y26.972 E0.05576
G1 X72.007 Y25.933 E0.09719
G1 X73.522 Y24.227 E0.17308
G1 X74.714 Y23.232 E0.22472
G1 X75.902 Y22.462 E0.27181
G1 X78.04 Y21.493 E0.34988
G1 X79.587 Y21.065 E0.40327
G1 X81.365 Y20.818 E0.46297
G1 X82.126 Y20.794 E0.4883
G1 X111.907 Y20.794 E1.47882
G1 X111.858 Y20.154 E1.50016
G1 X112.106 Y18.292 E1.56264
G1 X113.14 Y15.99 E1.64658
G1 X114.588 Y14.514 E1.71535
G1 X116.521 Y12.951 E1.79803
G1 X118.498 Y11.982 E1.87126
G1 X121.28 Y11.573 E1.96478
G1 X124.843 Y12.047 E2.08433
G1 X126.926 Y12.394 E2.15457
G1 X129.367 Y12.943 E2.23778
G1 X131.601 Y13.584 E2.31508
G1 X132.362 Y13.842 E2.34181
G1 X133.052 Y13.446 E2.36827
G1 X133.566 Y13.239 E2.3867
G1 X135.498 Y12.948 E2.45168
G1 X137.896 Y12.876 E2.53148
G1 X139.611 Y13.203 E2.58955
G1 X140.957 Y13.562 E2.63588
G1 X143.266 Y14.259 E2.7161
G1 X144.558 Y14.724 E2.76177
G1 X146.581 Y15.517 E2.83404
G1 X148.538 Y16.329 E2.90451
G1 X149.814 Y16.948 E2.95168
G1 X151.897 Y18.144 E3.03157
G1 X153.723 Y19.307 E3.10357
G1 X155.363 Y20.426 E3.16961
G1 X155.849 Y20.794 E3.18988
G1 X163.013 Y20.813 E3.42816
G1 X164.226 Y20.916 E3.46865
G1 X165.678 Y21.201 E3.51787
G1 X167.778 Y21.94 E3.59191
G1 X169.223 Y22.702 E3.64624
G1 X170.335 Y23.484 E3.69146
G1 X171.868 Y24.882 E3.76046
G1 X172.855 Y26.086 E3.81225
G1 X173.461 Y27.011 E3.84903
G1 X174.549 Y29.345 E3.93468
G1 X174.941 Y30.696 E3.98146
G1 X175.135 Y31.761 E4.01747
G1 X175.263 Y33.583 E4.07822
G1 X175.263 Y88.233 E5.89588
G1 X176.496 Y89.567 E5.9563
G1 X177.656 Y91.511 E6.0316
G1 X178.076 Y93.657 E6.10433
G1 X178.012 Y97.612 E6.23589
G1 X177.623 Y100.813 E6.34314
G1 X176.42 Y103.753 E6.44879
G1 X175.263 Y105.311 E6.51334
G1 X175.263 Y121.062 E7.03722
G1 X177.495 Y122.021 E7.11802
G1 X179.878 Y123.972 E7.22045
G1 X181.082 Y125.588 E7.28748
G1 X181.766 Y127.293 E7.34858
G1 X182.042 Y128.31 E7.38363
G1 X182.041 Y130.42 E7.45381
G1 X181.415 Y132.895 E7.53872
G1 X181.937 Y133.933 E7.57736
G1 X182.192 Y135.457 E7.62875
G1 X182.208 Y137.204 E7.68686
G1 X182.055 Y138.398 E7.7269
G1 X181.108 Y140.641 E7.80788
G1 X179.465 Y142.491 E7.89017
G1 X175.731 Y144.619 E8.03312
G1 X175.263 Y144.698 E8.0489
G1 X175.244 Y194.871 E9.71766
G1 X175.167 Y195.91 E9.75232
G1 X174.789 Y197.788 E9.81603
G1 X174.068 Y199.779 E9.88646
G1 X173.567 Y200.742 E9.92257
G1 X172.44 Y202.383 E9.98878
G1 X171.338 Y203.591 E10.04316
G1 X170.181 Y204.568 E10.09353
G1 X168.471 Y205.649 E10.16082
G1 X167.162 Y206.248 E10.20869
G1 X165.399 Y206.789 E10.27003
G1 X163.608 Y207.079 E10.33038
G1 X162.513 Y207.126 E10.36683
G1 X81.8 Y207.108 E13.05135
G1 X80.505 Y206.997 E13.09458
G1 X78.684 Y206.616 E13.15646
G1 X78.009 Y206.398 E13.18005
G1 X75.483 Y205.175 E13.2734
G1 X74.785 Y204.7 E13.30148
G1 X73.06 Y203.17 E13.37817
G1 X72.026 Y201.935 E13.43174
G1 X71.014 Y200.316 E13.49525
G1 X70.432 Y199.029 E13.54222
G1 X69.897 Y197.262 E13.60363
G1 X69.591 Y195.314 E13.66921
G1 X69.563 Y194.649 E13.69135
G1 X69.563 Y143.084 E15.40641
G1 X67.869 Y141.663 E15.47995
G1 X66.726 Y140.111 E15.54406
G1 X65.857 Y137.999 E15.62002
G1 X65.806 Y137.669 E15.63113
G1 X65.788 Y135.667 E15.69772
G1 X65.949 Y134.166 E15.74792
G1 X65.998 Y133.993 E15.75391
G1 X65.539 Y132.924 E15.7926
G1 X65.183 Y130.994 E15.85787
G1 X65.158 Y130.195 E15.88446
G1 X65.506 Y128.416 E15.94475
G1 X66.409 Y125.626 E16.04229
G1 X67.746 Y123.75 E16.11891
G1 X68.254 Y123.228 E16.14314
G1 X69.563 Y122.394 E16.19476
G1 X69.564 Y100.069 E16.93729
G1 X68.491 Y98.97 E16.98838
G1 X66.713 Y95.921 E17.10577
G1 X65.761 Y92.88 E17.21175
G1 X65.211 Y89.507 E17.32542
G1 X65.021 Y85.573 E17.45642
G1 X65.374 Y83.667 E17.52089
G1 X65.873 Y82.445 E17.56479
G1 X66.911 Y80.889 E17.62701
G1 X68.312 Y79.603 E17.69026
G1 X69.398 Y78.959 E17.73225
G1 X69.564 Y78.893 E17.73819
G1 X69.573 Y33.243 E19.25652
G1 X69.664 Y31.786 E19.30507
G1 X69.829 Y30.801 E19.33829
G1 X70.569 Y28.471 E19.4196
G0 F6000 X70.95 Y28.593
G1 F1200 X71.654 Y27.193 E19.47172
G1 X72.341 Y26.154 E19.51315
G1 X73.821 Y24.493 E19.58714
G1 X74.932 Y23.568 E19.63523
G1 X76.12 Y22.798 E19.68231
G1 X78.147 Y21.879 E19.75634
G1 X79.694 Y21.451 E19.80972
G1 X81.378 Y21.218 E19.86627
G1 X82.139 Y21.194 E19.89159
G1 X112.339 Y21.194 E20.89605
G1 X112.26 Y20.162 E20.93047
G1 X112.494 Y18.405 E20.98943
G1 X113.476 Y16.219 E21.06913
G1 X114.84 Y14.825 E21.134
G1 X116.739 Y13.289 E21.21524
G1 X118.617 Y12.369 E21.28479
G1 X121.282 Y11.977 E21.37438
G1 X124.777 Y12.442 E21.49165
G1 X126.86 Y12.789 E21.56189
G1 X129.279 Y13.333 E21.64435
G1 X131.473 Y13.963 E21.72027
G1 X132.406 Y14.279 E21.75304
G1 X133.202 Y13.817 E21.78365
G1 X133.671 Y13.628 E21.80047
G1 X135.558 Y13.344 E21.86393
G1 X137.865 Y13.277 E21.9407
G1 X139.508 Y13.59 E21.99633
G1 X140.841 Y13.945 E22.04221
G1 X143.15 Y14.642 E22.12243
G1 X144.412 Y15.096 E22.16704
G1 X146.428 Y15.886 E22.23905
G1 X148.363 Y16.689 E22.30873
G1 X149.639 Y17.308 E22.3559
G1 X151.682 Y18.481 E22.43426
G1 X153.498 Y19.637 E22.50586
G1 X155.122 Y20.745 E22.57125
G1 X155.715 Y21.194 E22.59598
G1 X162.98 Y21.212 E22.83762
G1 X164.149 Y21.309 E22.87664
G1 X165.601 Y21.594 E22.92585
G1 X167.592 Y22.294 E22.99604
G1 X168.994 Y23.03 E23.04871
G1 X170.065 Y23.78 E23.0922
G1 X171.598 Y25.178 E23.1612
G1 X172.52 Y26.305 E23.20963
G1 X173.126 Y27.23 E23.24641
G1 X174.165 Y29.457 E23.32815
G1 X174.547 Y30.768 E23.37357
G1 X174.741 Y31.833 E23.40957
G1 X174.863 Y33.583 E23.46792
G1 X174.863 Y88.389 E25.29077
G1 X176.175 Y89.809 E25.35508
G1 X177.276 Y91.654 E25.42654
G1 X177.675 Y93.695 E25.4957
G1 X177.615 Y97.564 E25.6244
G1 X177.232 Y100.712 E25.72988
G1 X176.07 Y103.553 E25.83197
G1 X174.863 Y105.178 E25.89929
G1 X174.863 Y121.326 E26.43638
G1 X177.286 Y122.367 E26.52409
G1 X179.586 Y124.25 E26.62296
G1 X180.73 Y125.785 E26.68663
G1 X181.38 Y127.398 E26.74447
G1 X181.642 Y128.363 E26.77773
G1 X181.641 Y130.369 E26.84445
G1 X180.991 Y132.941 E26.93268
G1 X181.552 Y134.057 E26.97423
G1 X181.797 Y135.523 E27.02366
G1 X181.811 Y137.153 E27.07788
G1 X181.665 Y138.291 E27.11604
G1 X180.764 Y140.426 E27.19311
G1 X179.21 Y142.176 E27.27096
G1 X175.593 Y144.237 E27.40942
G1 X174.863 Y144.361 E27.43405
G1 X174.845 Y194.841 E29.11302
G1 X174.768 Y195.88 E29.14767
G1 X174.413 Y197.652 E29.20778
G1 X173.713 Y199.594 E29.27644
G1 X173.212 Y200.557 E29.31254
G1 X172.144 Y202.113 E29.37531
G1 X171.042 Y203.321 E29.4297
G1 X169.967 Y204.23 E29.47652
G1 X168.305 Y205.285 E29.542
G1 X166.996 Y205.884 E29.58987
G1 X165.334 Y206.394 E29.6477
G1 X163.591 Y206.679 E29.70644
G1 X162.513 Y206.726 E29.74233
G1 X81.834 Y206.709 E32.42572
G1 X80.539 Y206.598 E32.46895
G1 X78.807 Y206.235 E32.52781
G1 X78.132 Y206.017 E32.5514
G1 X75.708 Y204.844 E32.64097
G1 X75.01 Y204.369 E32.66905
G1 X73.367 Y202.913 E32.74207
G1 X72.333 Y201.678 E32.79564
G1 X71.354 Y200.105 E32.85726
G1 X70.815 Y198.913 E32.90077
G1 X70.28 Y197.146 E32.96218
G1 X69.991 Y195.297 E33.02442
G1 X69.963 Y194.632 E33.04656
G1 X69.963 Y142.897 E34.76727
G1 X68.161 Y141.386 E34.84549
G1 X67.078 Y139.914 E34.90627
G1 X66.245 Y137.89 E34.97907
G1 X66.206 Y137.665 E34.98666
G1 X66.186 Y135.71 E35.05169
G1 X66.347 Y134.209 E35.1019
G1 X66.427 Y133.976 E35.1101
G1 X65.924 Y132.805 E35.15248
G1 X65.583 Y130.981 E35.2142
G1 X65.559 Y130.228 E35.23926
G1 X65.887 Y128.539 E35.29648
G1 X66.771 Y125.807 E35.39199
G1 X68.033 Y124.029 E35.46451
G1 X68.51 Y123.539 E35.48725
G1 X69.963 Y122.613 E35.54456
G1 X69.964 Y99.907 E36.29976
G1 X68.813 Y98.728 E36.35457
G1 X67.082 Y95.759 E36.46887
G1 X66.143 Y92.76 E36.5734
G1 X65.611 Y89.488 E36.68365
G1 X65.423 Y85.597 E36.81322
G1 X65.76 Y83.78 E36.87468
G1 X66.227 Y82.636 E36.91578
G1 X67.218 Y81.15 E36.97519
G1 X68.552 Y79.926 E37.0354
G1 X69.602 Y79.303 E37.07601
G1 X69.964 Y79.177 E37.08876
G1 X69.972 Y33.268 E38.6157
G1 X70.059 Y31.852 E38.66288
G1 X70.224 Y30.867 E38.6961
G1 X70.95 Y28.593 E38.7755
G0 F6000 X71.308 Y28.772
G1 F1200 X71.988 Y27.414 E38.82601
G1 X72.675 Y26.375 E38.86744
G1 X74.078 Y24.8 E38.93759
G1 X75.15 Y23.904 E38.98406
G1 X76.338 Y23.134 E39.03115
G1 X78.254 Y22.265 E39.10112
G1 X79.801 Y21.837 E39.15451
G1 X81.391 Y21.618 E39.20789
G1 X82.152 Y21.594 E39.23322
G1 X112.771 Y21.594 E40.25161
G1 X112.662 Y20.175 E40.29894
G1 X112.883 Y18.515 E40.35464
G1 X113.813 Y16.446 E40.43009
G1 X115.091 Y15.136 E40.49096
G1 X116.955 Y13.629 E40.57068
G1 X118.736 Y12.756 E40.63665
G1 X121.284 Y12.381 E40.72231
G1 X124.711 Y12.837 E40.8373
G1 X126.794 Y13.184 E40.90754
G1 X129.169 Y13.718 E40.9885
G1 X131.345 Y14.342 E41.06379
G1 X132.45 Y14.716 E41.10259
G1 X133.403 Y14.163 E41.13924
G1 X133.773 Y14.018 E41.15246
G1 X135.618 Y13.74 E41.21452
G1 X137.833 Y13.678 E41.28822
G1 X139.433 Y13.983 E41.34239
G1 X140.725 Y14.328 E41.38687
G1 X143.034 Y15.025 E41.46709
G1 X144.266 Y15.468 E41.51063
G1 X146.275 Y16.255 E41.5824
G1 X148.188 Y17.049 E41.65129
G1 X149.464 Y17.668 E41.69846
G1 X151.467 Y18.818 E41.77528
G1 X153.273 Y19.968 E41.84649
G1 X154.881 Y21.064 E41.91121
G1 X155.581 Y21.594 E41.94041
G1 X162.948 Y21.611 E42.18544
G1 X164.072 Y21.702 E42.22295
G1 X165.524 Y21.987 E42.27216
G1 X167.407 Y22.648 E42.33854
G1 X168.765 Y23.358 E42.38951
G1 X169.795 Y24.076 E42.43127
G1 X171.328 Y25.474 E42.50027
G1 X172.185 Y26.524 E42.54535
G1 X172.791 Y27.449 E42.58213
G1 X173.781 Y29.569 E42.65995
G1 X174.153 Y30.84 E42.704
G1 X174.347 Y31.905 E42.74001
G1 X174.463 Y33.583 E42.79595
G1 X174.463 Y88.623 E44.62659
G1 X174.664 Y88.763 E44.63473
G1 X175.854 Y90.051 E44.69306
G1 X176.896 Y91.797 E44.76069
G1 X177.274 Y93.733 E44.82629
G1 X177.218 Y97.516 E44.95213
G1 X176.842 Y100.61 E45.05579
G1 X175.718 Y103.356 E45.15448
G1 X174.463 Y105.046 E45.22449
G1 X174.463 Y121.623 E45.77585
G1 X174.845 Y121.754 E45.78928
G1 X177.077 Y122.713 E45.87008
G1 X179.294 Y124.528 E45.96538
G1 X180.378 Y125.983 E46.02572
G1 X180.994 Y127.503 E46.08027
G1 X181.242 Y128.416 E46.11174
G1 X181.241 Y130.318 E46.175
G1 X180.567 Y132.986 E46.26653
G1 X181.166 Y134.179 E46.31093
G1 X181.402 Y135.589 E46.35847
G1 X181.414 Y137.102 E46.4088
G1 X181.275 Y138.186 E46.44515
G1 X180.421 Y140.21 E46.51821
G1 X178.955 Y141.86 E46.59163
G1 X175.454 Y143.855 E46.72565
G1 X174.463 Y144.023 E46.75908
G1 X174.446 Y194.811 E48.44829
G1 X174.369 Y195.85 E48.48295
G1 X174.037 Y197.517 E48.53948
G1 X173.358 Y199.409 E48.60634
G1 X172.857 Y200.372 E48.64244
G1 X171.848 Y201.843 E48.70177
G1 X170.746 Y203.051 E48.75616
G1 X169.752 Y203.893 E48.79948
G1 X168.139 Y204.921 E48.8631
G1 X166.83 Y205.52 E48.91098
G1 X165.269 Y205.999 E48.96529
G1 X163.573 Y206.279 E49.02246
G1 X162.513 Y206.326 E49.05775
G1 X81.868 Y206.31 E51.74002
G1 X80.573 Y206.199 E51.78325
G1 X78.93 Y205.854 E51.83908
G1 X78.255 Y205.636 E51.86268
G1 X75.932 Y204.512 E51.94851
G1 X75.275 Y204.069 E51.97486
G1 X73.674 Y202.656 E52.04589
G1 X72.64 Y201.421 E52.09946
G1 X71.718 Y199.939 E52.15751
G1 X71.198 Y198.797 E52.19925
G1 X70.663 Y197.03 E52.26065
G1 X70.391 Y195.28 E52.31956
G1 X70.363 Y194.615 E52.34169
G1 X70.363 Y142.711 E54.06803
G1 X68.455 Y141.111 E54.15085
G1 X67.428 Y139.715 E54.20849
G1 X66.637 Y137.808 E54.27716
G1 X66.606 Y137.66 E54.28219
G1 X66.584 Y135.753 E54.34562
G1 X66.745 Y134.252 E54.39583
G1 X66.861 Y133.973 E54.40588
G1 X66.309 Y132.686 E54.45245
G1 X65.983 Y130.968 E54.51062
G1 X65.96 Y130.26 E54.53418
G1 X66.268 Y128.662 E54.5883
G1 X67.133 Y125.989 E54.68175
G1 X68.32 Y124.308 E54.75019
G1 X68.766 Y123.85 E54.77145
G1 X70.363 Y122.832 E54.83444
G1 X70.364 Y99.745 E55.60232
G1 X69.135 Y98.486 E55.66084
G1 X67.451 Y95.597 E55.77206
G1 X66.525 Y92.64 E55.87512
G1 X66.011 Y89.469 E55.98196
G1 X65.825 Y85.621 E56.1101
G1 X66.146 Y83.893 E56.16856
G1 X66.581 Y82.827 E56.20685
G1 X67.525 Y81.411 E56.26345
G1 X68.792 Y80.249 E56.32063
G1 X69.771 Y79.668 E56.3585
G1 X70.364 Y79.462 E56.37938
G1 X70.371 Y33.292 E57.915
G1 X70.454 Y31.918 E57.96078
G1 X70.619 Y30.933 E57.994
G1 X71.308 Y28.772 E58.06944
G0 F6000 X71.689 Y28.894
G1 F1200 X72.322 Y27.635 E58.11631
G1 X73.009 Y26.596 E58.15773
G1 X74.376 Y25.067 E58.22595
G1 X75.368 Y24.24 E58.26891
G1 X76.556 Y23.47 E58.31599
G1 X78.361 Y22.651 E58.38192
G1 X79.908 Y22.223 E58.4353
G1 X81.404 Y22.018 E58.48553
G1 X82.165 Y21.994 E58.51085
G1 X113.254 Y21.994 E59.54487
G1 X113.185 Y21.764 E59.55286
G1 X113.064 Y20.188 E59.60543
G1 X113.272 Y18.625 E59.65788
G1 X114.149 Y16.675 E59.72899
G1 X115.343 Y15.447 E59.78596
G1 X117.173 Y13.967 E59.86424
G1 X118.855 Y13.143 E59.92654
G1 X121.286 Y12.785 E60.00826
G1 X124.645 Y13.232 E60.12097
G1 X126.728 Y13.579 E60.1912
G1 X129.081 Y14.108 E60.27142
G1 X131.217 Y14.721 E60.34533
G1 X132.494 Y15.153 E60.39017
G1 X133.548 Y14.536 E60.43079
G1 X133.876 Y14.408 E60.4425
G1 X135.678 Y14.136 E60.50311
G1 X137.801 Y14.079 E60.57375
G1 X139.33 Y14.37 E60.62552
G1 X140.61 Y14.711 E60.66958
G1 X142.899 Y15.401 E60.74909
G1 X144.12 Y15.84 E60.79225
G1 X146.122 Y16.625 E60.86377
G1 X148.013 Y17.409 E60.93186
G1 X149.289 Y18.028 E60.97903
G1 X151.252 Y19.155 E61.05431
G1 X153.048 Y20.298 E61.12512
G1 X154.639 Y21.383 E61.18917
G1 X155.445 Y21.994 E61.22281
G1 X162.917 Y22.01 E61.47133
G1 X163.995 Y22.095 E61.50729
G1 X165.447 Y22.38 E61.55651
G1 X167.222 Y23.003 E61.61908
G1 X168.537 Y23.687 E61.66838
G1 X169.525 Y24.372 E61.70836
G1 X171.058 Y25.77 E61.77737
G1 X171.85 Y26.743 E61.8191
G1 X172.456 Y27.668 E61.85588
G1 X173.397 Y29.682 E61.92981
G1 X173.759 Y30.912 E61.97246
G1 X173.953 Y31.977 E62.00846
G1 X174.063 Y33.583 E62.062
G1 X174.063 Y88.849 E63.90016
G1 X174.37 Y89.034 E63.91208
G1 X175.533 Y90.293 E63.96909
G1 X176.516 Y91.94 E64.03288
G1 X176.873 Y93.771 E64.09493
G1 X176.821 Y97.468 E64.2179
G1 X176.451 Y100.509 E64.31979
G1 X175.367 Y103.158 E64.41499
G1 X174.063 Y104.914 E64.48774
G1 X174.063 Y121.908 E65.05296
G1 X174.687 Y122.122 E65.0749
G1 X176.868 Y123.059 E65.15385
G1 X179.002 Y124.806 E65.24558
G1 X180.028 Y126.183 E65.30269
G1 X180.608 Y127.608 E65.35387
G1 X180.842 Y128.469 E65.38354
G1 X180.841 Y130.267 E65.44334
G1 X180.143 Y133.032 E65.53819
G1 X180.781 Y134.304 E65.58552
G1 X181.007 Y135.655 E65.63108
G1 X181.017 Y137.051 E65.67751
G1 X180.885 Y138.081 E65.71205
G1 X180.078 Y139.994 E65.78111
G1 X178.7 Y141.544 E65.85009
G1 X175.315 Y143.473 E65.97967
G1 X174.063 Y143.685 E66.02191
G1 X174.047 Y194.781 E67.72137
G1 X173.97 Y195.82 E67.75602
G1 X173.645 Y197.438 E67.81091
G1 X173.003 Y199.224 E67.87403
G1 X172.502 Y200.187 E67.91014
G1 X171.552 Y201.573 E67.96603
G1 X170.45 Y202.781 E68.02041
G1 X169.494 Y203.587 E68.062
G1 X167.973 Y204.557 E68.122
G1 X166.664 Y205.156 E68.16988
G1 X165.203 Y205.604 E68.22071
G1 X163.555 Y205.879 E68.27628
G1 X162.513 Y205.926 E68.31097
G1 X81.902 Y205.911 E70.9921
G1 X80.607 Y205.8 E71.03533
G1 X79.053 Y205.473 E71.08815
G1 X78.378 Y205.255 E71.11174
G1 X76.156 Y204.18 E71.19384
G1 X75.499 Y203.737 E71.2202
G1 X73.981 Y202.399 E71.2875
G1 X72.947 Y201.164 E71.34107
G1 X72.082 Y199.772 E71.39558
G1 X71.581 Y198.681 E71.43551
G1 X71.046 Y196.914 E71.49691
G1 X70.791 Y195.263 E71.55248
G1 X70.763 Y194.598 E71.57462
G1 X70.763 Y142.525 E73.30657
G1 X68.749 Y140.836 E73.39399
