;FLAVOR:Marlin
;TIME:7908
;Filament used: 5.99355m
;Layer height: 0.2
;MINX:74.933
;MINY:29.468
;MINZ:0.2
;MAXX:172.11
;MAXY:189.239
;MAXZ:3.4
;TARGET_MACHINE.NAME:Creality Ender-3
;POSTPROCESSED
;Generated with Cura_SteamEngine 5.5.0
M140 S60
M105
M190 S60
M104 S220
M105
M109 S220
M82 ;absolute extrusion mode
; Ender 3 Custom Start G-code
G92 E0 ; Reset Extruder
G28 ; Home all axes
G1 Z2.0 F3000 ; Move Z Axis up little to prevent scratching of Heat Bed
G1 X0.1 Y20 Z0.3 F5000.0 ; Move to start position
G1 X0.1 Y200.0 Z0.3 F1500.0 E15 ; Draw the first line
G1 X0.4 Y200.0 Z0.3 F5000.0 ; Move to side a little
G1 X0.4 Y20 Z0.3 F1500.0 E30 ; Draw the second line
G92 E0 ; Reset Extruder
G1 Z2.0 F3000 ; Move Z Axis up little to prevent scratching of Heat Bed
G1 X5 Y20 Z0.3 F5000.0 ; Move over to prevent blob squish
G92 E0
G92 E0
G1 F2700 E-5
;LAYER_COUNT:17
;LAYER:0
M117 Printing Layer 0 of 16 CE3E3V2_sôniyâwâhkêsîs_plaque
M107
G0 F6000 X80.363 Y42.866 Z0.2
;TYPE:SKIRT
G1 F2700 E0
G1 F1200 X81.472 Y41.271 E0.06461
G1 X82.468 Y40.201 E0.11323
G1 X83.51 Y39.341 E0.15817
G1 X85.206 Y38.302 E0.22432
G1 X86.805 Y37.624 E0.28209
G1 X87.416 Y37.443 E0.30328
G1 X89.87 Y37.067 E0.38586
G1 X90.398 Y37.054 E0.40342
G1 X112.517 Y37.054 E1.1391
G1 X112.598 Y36.554 E1.15595
G1 X113.08 Y34.873 E1.21411
G1 X114.504 Y33.05 E1.29105
G1 X116.129 Y31.403 E1.36801
G1 X118.027 Y30.211 E1.44255
G1 X120.869 Y29.548 E1.53962
G1 X121.698 Y29.468 E1.56732
G1 X125.012 Y29.915 E1.67854
G1 X126.943 Y30.253 E1.74374
G1 X128.84 Y30.683 E1.80844
G1 X130.173 Y31.066 E1.85456
G1 X132.019 Y30.585 E1.91801
G1 X135.193 Y30.516 E2.02361
G1 X136.877 Y30.845 E2.08067
G1 X137.952 Y31.127 E2.11764
G1 X139.869 Y31.714 E2.18432
G1 X140.997 Y32.128 E2.22429
G1 X142.86 Y32.86 E2.29086
G1 X144.306 Y33.46 E2.34293
G1 X145.331 Y33.957 E2.38082
G1 X147.165 Y35.004 E2.45106
G1 X148.718 Y35.994 E2.51231
G1 X150.244 Y37.054 E2.57411
G1 X155.119 Y37.069 E2.73626
G1 X156.445 Y37.187 E2.78053
G1 X157.467 Y37.387 E2.81517
G1 X159.71 Y38.174 E2.89423
G1 X160.993 Y38.868 E2.94275
G1 X161.758 Y39.394 E2.97362
G1 X163.383 Y40.862 E3.04646
G1 X163.931 Y41.509 E3.07466
G1 X165.194 Y43.472 E3.1523
G1 X165.531 Y44.196 E3.17886
G1 X166.242 Y46.494 E3.25887
G1 X166.364 Y47.226 E3.28355
G1 X166.473 Y48.843 E3.33745
G1 X166.473 Y91.549 E4.75786
G1 X167.341 Y92.484 E4.80029
G1 X168.504 Y94.432 E4.87575
G1 X168.926 Y96.579 E4.94853
G1 X168.866 Y100.18 E5.06831
G1 X168.519 Y103.068 E5.16506
G1 X167.402 Y105.84 E5.26446
G1 X166.473 Y107.084 E5.3161
G1 X166.473 Y117.586 E5.6654
G1 X167.615 Y118.072 E5.70668
G1 X169.958 Y119.991 E5.80741
G1 X171.122 Y121.564 E5.87249
G1 X171.91 Y123.466 E5.94097
G1 X172.108 Y124.437 E5.97393
G1 X172.11 Y126.322 E6.03662
G1 X171.613 Y128.417 E6.10824
G1 X171.698 Y128.667 E6.11702
G1 X171.979 Y129.883 E6.15853
G1 X171.817 Y131.921 E6.22653
G1 X171.34 Y134.295 E6.30707
G1 X170.514 Y136.217 E6.37665
G1 X169.564 Y137.351 E6.42585
G1 X168.355 Y138.492 E6.48114
G1 X166.848 Y139.275 E6.53763
G1 X166.473 Y139.419 E6.55099
G1 X166.444 Y178.089 E7.83716
G1 X166.294 Y179.52 E7.88501
G1 X166.132 Y180.288 E7.91112
G1 X165.424 Y182.321 E7.98272
G1 X164.642 Y183.798 E8.0383
G1 X164.181 Y184.469 E8.06538
G1 X162.622 Y186.191 E8.14264
G1 X161.769 Y186.895 E8.17943
G1 X160.126 Y187.919 E8.24382
G1 X158.8 Y188.507 E8.29206
G1 X157.427 Y188.916 E8.33971
G1 X155.684 Y189.198 E8.39844
G1 X154.723 Y189.239 E8.43043
G1 X90.052 Y189.221 E10.5814
G1 X89.045 Y189.142 E10.61499
G1 X87.368 Y188.799 E10.67192
G1 X85.836 Y188.259 E10.72595
G1 X84.445 Y187.539 E10.77805
G1 X83.15 Y186.637 E10.83054
G1 X82.423 Y185.999 E10.86271
G1 X80.874 Y184.188 E10.94197
G1 X80.444 Y183.517 E10.96848
G1 X79.433 Y181.353 E11.04792
G1 X79.243 Y180.75 E11.06895
G1 X78.816 Y178.314 E11.1512
G1 X78.793 Y177.79 E11.16865
G1 X78.793 Y137.957 E12.4935
G1 X78.556 Y137.734 E12.50432
G1 X77.24 Y136.208 E12.57134
G1 X75.874 Y132.636 E12.69854
G1 X75.688 Y130.468 E12.77091
G1 X75.721 Y129.779 E12.79386
G1 X75.597 Y129.5 E12.80401
G1 X75.1 Y127.388 E12.87617
G1 X74.933 Y125.818 E12.92869
G1 X75.568 Y123.516 E13.00811
G1 X76.509 Y121.197 E13.09135
G1 X77.73 Y119.726 E13.15493
G1 X78.793 Y118.708 E13.20389
G1 X78.793 Y102.939 E13.72837
G1 X78.054 Y102.175 E13.76372
G1 X76.474 Y99.467 E13.868
G1 X75.605 Y96.705 E13.9643
G1 X75.112 Y93.681 E14.06621
G1 X74.942 Y90.166 E14.18325
G1 X75.303 Y88.221 E14.24905
G1 X75.775 Y87.05 E14.29104
G1 X76.85 Y85.445 E14.35529
G1 X78.261 Y84.164 E14.41868
G1 X78.793 Y83.855 E14.43914
G1 X78.807 Y48.419 E15.61775
G1 X78.882 Y47.325 E15.65422
G1 X79.226 Y45.587 E15.71315
G1 X79.83 Y43.893 E15.77296
G1 X80.363 Y42.866 E15.81145
G0 F6000 X80.692 Y43.094
G1 F1200 X81.765 Y41.544 E15.87415
G1 X82.761 Y40.474 E15.92277
G1 X83.72 Y39.682 E15.96414
G1 X85.363 Y38.67 E16.02832
G1 X86.919 Y38.008 E16.08456
G1 X87.53 Y37.827 E16.10575
G1 X89.88 Y37.467 E16.18483
G1 X90.408 Y37.454 E16.20239
G1 X112.857 Y37.454 E16.94905
G1 X112.993 Y36.618 E16.97722
G1 X113.442 Y35.06 E17.03115
G1 X114.789 Y33.331 E17.10405
G1 X116.381 Y31.718 E17.17943
G1 X118.183 Y30.586 E17.25021
G1 X120.96 Y29.938 E17.34505
G1 X121.691 Y29.87 E17.36947
G1 X124.943 Y30.309 E17.47861
G1 X126.855 Y30.643 E17.54317
G1 X128.729 Y31.067 E17.60707
G1 X130.168 Y31.481 E17.65688
G1 X132.074 Y30.984 E17.72239
G1 X135.157 Y30.917 E17.82496
G1 X136.8 Y31.238 E17.88064
G1 X137.85 Y31.514 E17.91674
G1 X139.731 Y32.09 E17.98217
G1 X140.851 Y32.5 E18.02184
G1 X142.707 Y33.229 E18.08817
G1 X144.131 Y33.82 E18.13944
G1 X145.156 Y34.317 E18.17733
G1 X146.95 Y35.341 E18.24604
G1 X148.49 Y36.322 E18.30677
G1 X150.119 Y37.454 E18.37275
G1 X155.118 Y37.469 E18.53901
G1 X156.368 Y37.58 E18.58075
G1 X157.39 Y37.78 E18.61539
G1 X159.577 Y38.551 E18.69252
G1 X160.766 Y39.198 E18.73754
G1 X161.531 Y39.724 E18.76842
G1 X163.078 Y41.121 E18.83775
G1 X163.626 Y41.768 E18.86595
G1 X164.831 Y43.641 E18.94002
G1 X165.168 Y44.365 E18.96658
G1 X165.847 Y46.56 E19.043
G1 X165.969 Y47.292 E19.06768
G1 X166.073 Y48.843 E19.11939
G1 X166.073 Y91.706 E20.54502
G1 X167.02 Y92.726 E20.59131
G1 X168.125 Y94.577 E20.66301
G1 X168.525 Y96.612 E20.73199
G1 X168.466 Y100.173 E20.85044
G1 X168.128 Y102.968 E20.94408
G1 X167.05 Y105.644 E21.04004
G1 X166.073 Y106.952 E21.09434
G1 X166.073 Y117.85 E21.45681
G1 X167.408 Y118.419 E21.50507
G1 X169.663 Y120.266 E21.60202
G1 X170.771 Y121.763 E21.66397
G1 X171.526 Y123.585 E21.72956
G1 X171.708 Y124.478 E21.75988
G1 X171.71 Y126.277 E21.81971
G1 X171.197 Y128.438 E21.89358
G1 X171.319 Y128.796 E21.90616
G1 X171.575 Y129.912 E21.94425
G1 X171.418 Y131.889 E22.01021
G1 X170.956 Y134.177 E22.08784
G1 X170.17 Y136.005 E22.15402
G1 X169.289 Y137.06 E22.19974
G1 X168.121 Y138.163 E22.25317
G1 X166.705 Y138.901 E22.30628
G1 X166.073 Y139.143 E22.32879
G1 X166.046 Y178.048 E23.62278
G1 X165.902 Y179.439 E23.66929
G1 X165.754 Y180.157 E23.69367
G1 X165.07 Y182.134 E23.76325
G1 X164.312 Y183.571 E23.81729
G1 X163.851 Y184.242 E23.84436
G1 X162.367 Y185.882 E23.91793
G1 X161.514 Y186.586 E23.95471
G1 X159.963 Y187.554 E24.01552
G1 X158.685 Y188.124 E24.06206
G1 X157.363 Y188.521 E24.10797
G1 X155.667 Y188.798 E24.16513
G1 X154.723 Y188.839 E24.19656
G1 X90.083 Y188.822 E26.34649
G1 X89.076 Y188.743 E26.38009
G1 X87.5 Y188.421 E26.43359
G1 X86.019 Y187.903 E26.48577
G1 X84.673 Y187.21 E26.53613
G1 X83.414 Y186.336 E26.5871
G1 X82.687 Y185.698 E26.61927
G1 X81.211 Y183.972 E26.69481
G1 X80.781 Y183.301 E26.72132
G1 X79.815 Y181.233 E26.79723
G1 X79.625 Y180.63 E26.81826
G1 X79.216 Y178.296 E26.89707
G1 X79.193 Y177.772 E26.91452
G1 X79.193 Y137.783 E28.24456
G1 X78.83 Y137.442 E28.26112
G1 X77.589 Y136.001 E28.32437
G1 X76.268 Y132.546 E28.4474
G1 X76.087 Y130.434 E28.5179
G1 X76.126 Y129.696 E28.54248
G1 X75.986 Y129.408 E28.55313
G1 X75.498 Y127.346 E28.62361
G1 X75.339 Y125.851 E28.67362
G1 X75.939 Y123.666 E28.74898
G1 X76.857 Y121.404 E28.83017
G1 X78.007 Y120.015 E28.89015
G1 X79.059 Y119.006 E28.93863
G1 X79.193 Y118.916 E28.944
G1 X79.193 Y102.778 E29.48075
G1 X78.376 Y101.934 E29.51982
G1 X76.843 Y99.305 E29.62104
G1 X75.987 Y96.585 E29.71589
G1 X75.512 Y93.662 E29.81438
G1 X75.344 Y90.19 E29.92999
G1 X75.688 Y88.336 E29.99271
G1 X76.131 Y87.237 E30.03212
G1 X77.155 Y85.708 E30.09333
G1 X78.498 Y84.489 E30.15365
G1 X79.193 Y84.085 E30.18039
G1 X79.206 Y48.446 E31.36575
G1 X79.281 Y47.352 E31.40222
G1 X79.603 Y45.721 E31.45751
G1 X80.186 Y44.076 E31.51556
G1 X80.692 Y43.094 E31.5523
G0 F6000 X81.021 Y43.321
G1 F1200 X82.058 Y41.816 E31.61309
G1 X83.017 Y40.782 E31.66
G1 X83.93 Y40.023 E31.69949
G1 X85.573 Y39.011 E31.76367
G1 X87.033 Y38.392 E31.81641
G1 X87.644 Y38.211 E31.83761
G1 X89.89 Y37.867 E31.91318
G1 X90.418 Y37.854 E31.93075
G1 X113.198 Y37.854 E32.68841
G1 X113.388 Y36.682 E32.7279
G1 X113.805 Y35.245 E32.77767
G1 X115.074 Y33.612 E32.84646
G1 X116.633 Y32.033 E32.92026
G1 X118.339 Y30.961 E32.98727
G1 X121.051 Y30.328 E33.0799
G1 X121.687 Y30.273 E33.10113
G1 X124.874 Y30.703 E33.20809
G1 X126.767 Y31.033 E33.272
G1 X128.618 Y31.451 E33.33512
G1 X130.209 Y31.909 E33.39018
G1 X130.36 Y31.844 E33.39565
G1 X132.129 Y31.383 E33.45645
G1 X135.121 Y31.318 E33.55599
G1 X136.723 Y31.631 E33.61028
G1 X137.748 Y31.901 E33.64554
G1 X139.594 Y32.466 E33.70974
G1 X140.705 Y32.872 E33.74909
G1 X142.554 Y33.598 E33.81516
G1 X143.956 Y34.18 E33.86564
G1 X144.981 Y34.677 E33.90353
G1 X146.735 Y35.678 E33.9707
G1 X148.262 Y36.65 E34.03091
G1 X149.671 Y37.629 E34.08797
G1 X149.964 Y37.854 E34.10026
G1 X155.117 Y37.869 E34.27165
G1 X156.291 Y37.973 E34.31085
G1 X157.313 Y38.173 E34.34549
G1 X159.386 Y38.903 E34.41859
G1 X160.539 Y39.528 E34.46221
G1 X161.304 Y40.054 E34.49308
G1 X162.773 Y41.38 E34.5589
G1 X163.321 Y42.027 E34.5871
G1 X164.468 Y43.81 E34.65762
G1 X164.805 Y44.534 E34.68418
G1 X165.452 Y46.626 E34.75701
G1 X165.574 Y47.358 E34.78169
G1 X165.673 Y48.843 E34.8312
G1 X165.673 Y91.863 E36.26205
G1 X166.699 Y92.968 E36.3122
G1 X167.746 Y94.722 E36.38014
G1 X168.124 Y96.645 E36.44532
G1 X168.066 Y100.166 E36.56245
G1 X167.737 Y102.868 E36.65298
G1 X166.698 Y105.448 E36.74549
G1 X165.673 Y106.82 E36.80245
G1 X165.673 Y118.114 E37.17809
G1 X167.201 Y118.766 E37.23334
G1 X169.368 Y120.541 E37.32651
G1 X170.422 Y121.965 E37.38544
G1 X171.141 Y123.699 E37.44787
G1 X171.308 Y124.519 E37.4757
G1 X171.31 Y126.232 E37.53268
G1 X170.781 Y128.461 E37.60887
G1 X170.929 Y128.885 E37.62381
G1 X171.171 Y129.941 E37.65984
G1 X171.019 Y131.857 E37.72377
G1 X170.572 Y134.06 E37.79854
G1 X169.826 Y135.793 E37.86129
G1 X169.014 Y136.769 E37.90352
G1 X167.884 Y137.836 E37.95521
G1 X166.562 Y138.527 E38.00482
G1 X165.673 Y138.867 E38.03648
G1 X165.648 Y178.007 E39.33828
G1 X165.51 Y179.358 E39.38345
G1 X165.362 Y180.076 E39.40783
G1 X164.716 Y181.948 E39.4737
G1 X163.982 Y183.344 E39.52616
G1 X163.521 Y184.015 E39.55323
G1 X162.112 Y185.573 E39.6231
G1 X161.259 Y186.277 E39.65989
G1 X159.799 Y187.189 E39.71714
G1 X158.569 Y187.741 E39.76198
G1 X157.298 Y188.126 E39.80615
G1 X155.649 Y188.398 E39.86174
G1 X154.723 Y188.439 E39.89257
G1 X90.114 Y188.423 E42.04147
G1 X89.107 Y188.344 E42.07507
G1 X87.632 Y188.043 E42.12514
G1 X86.151 Y187.525 E42.17732
G1 X84.857 Y186.855 E42.22579
G1 X83.678 Y186.035 E42.27355
G1 X82.951 Y185.397 E42.30573
G1 X81.548 Y183.756 E42.37753
G1 X81.118 Y183.085 E42.40404
G1 X80.197 Y181.113 E42.47643
G1 X80.007 Y180.51 E42.49746
G1 X79.616 Y178.278 E42.57283
G1 X79.593 Y177.754 E42.59027
G1 X79.593 Y137.609 E43.9255
G1 X79.133 Y137.181 E43.9464
G1 X77.939 Y135.794 E44.00727
G1 X76.661 Y132.453 E44.12624
G1 X76.487 Y130.452 E44.19305
G1 X76.517 Y129.781 E44.21539
G1 X76.546 Y129.63 E44.2205
G1 X76.375 Y129.315 E44.23242
G1 X75.896 Y127.304 E44.30118
G1 X75.745 Y125.883 E44.34871
G1 X76.31 Y123.816 E44.41998
G1 X77.205 Y121.611 E44.49913
G1 X78.284 Y120.304 E44.5555
G1 X79.336 Y119.295 E44.60398
G1 X79.593 Y119.149 E44.61381
G1 X79.593 Y102.617 E45.16367
G1 X78.7 Y101.694 E45.20638
G1 X77.211 Y99.141 E45.30468
G1 X76.369 Y96.465 E45.39799
G1 X75.912 Y93.643 E45.49307
G1 X75.746 Y90.214 E45.60726
G1 X76.073 Y88.451 E45.66689
G1 X76.487 Y87.424 E45.70372
G1 X77.46 Y85.971 E45.76188
G1 X78.735 Y84.814 E45.81915
G1 X79.593 Y84.315 E45.85216
G1 X79.605 Y48.473 E47.04427
G1 X79.68 Y47.379 E47.08074
G1 X79.98 Y45.854 E47.13244
G1 X80.542 Y44.258 E47.18871
G1 X81.021 Y43.321 E47.22372
G0 F6000 X81.351 Y43.547
G1 F1200 X82.352 Y42.087 E47.28259
G1 X83.273 Y41.09 E47.32774
G1 X84.186 Y40.331 E47.36723
G1 X85.73 Y39.379 E47.42756
G1 X87.147 Y38.776 E47.47878
G1 X87.758 Y38.595 E47.49997
G1 X89.9 Y38.267 E47.57204
G1 X90.428 Y38.254 E47.58961
G1 X113.539 Y38.254 E48.35829
G1 X113.783 Y36.746 E48.40909
G1 X114.167 Y35.431 E48.45466
G1 X115.39 Y33.858 E48.52093
G1 X116.882 Y32.349 E48.59151
G1 X118.495 Y31.336 E48.65486
G1 X121.142 Y30.718 E48.74527
G1 X121.68 Y30.675 E48.76322
G1 X124.805 Y31.097 E48.8681
G1 X126.679 Y31.423 E48.93137
G1 X128.507 Y31.835 E48.99369
G1 X130.246 Y32.336 E49.05388
G1 X130.461 Y32.231 E49.06184
G1 X132.184 Y31.782 E49.12106
G1 X135.085 Y31.719 E49.21757
G1 X136.646 Y32.024 E49.27047
G1 X137.631 Y32.284 E49.30436
G1 X139.457 Y32.842 E49.36786
G1 X140.559 Y33.244 E49.40688
G1 X142.401 Y33.967 E49.47269
G1 X143.781 Y34.54 E49.52239
G1 X144.806 Y35.037 E49.56028
G1 X146.52 Y36.016 E49.62593
G1 X148.034 Y36.979 E49.68561
G1 X149.427 Y37.946 E49.74201
G1 X149.828 Y38.254 E49.75883
G1 X155.116 Y38.269 E49.93471
G1 X156.214 Y38.366 E49.97137
G1 X157.236 Y38.566 E50.00601
G1 X159.252 Y39.28 E50.07714
G1 X160.312 Y39.858 E50.1173
G1 X161.077 Y40.384 E50.14817
G1 X162.468 Y41.639 E50.21049
G1 X163.016 Y42.286 E50.23869
G1 X164.105 Y43.979 E50.30564
G1 X164.442 Y44.703 E50.3322
G1 X165.057 Y46.692 E50.40145
G1 X165.179 Y47.424 E50.42613
G1 X165.273 Y48.843 E50.47343
G1 X165.273 Y92.02 E51.9095
G1 X166.378 Y93.21 E51.96351
G1 X167.366 Y94.865 E52.02762
G1 X167.723 Y96.683 E52.08924
G1 X167.669 Y100.118 E52.2035
G1 X167.347 Y102.766 E52.29223
G1 X166.346 Y105.25 E52.3813
G1 X165.273 Y106.687 E52.44095
G1 X165.273 Y118.378 E52.82979
G1 X166.994 Y119.113 E52.89204
G1 X169.073 Y120.816 E52.98142
G1 X170.073 Y122.167 E53.03733
G1 X170.756 Y123.813 E53.0966
G1 X170.908 Y124.56 E53.12195
G1 X170.91 Y126.187 E53.17607
G1 X170.365 Y128.484 E53.25459
G1 X170.539 Y128.974 E53.27188
G1 X170.767 Y129.97 E53.30586
G1 X170.62 Y131.825 E53.36776
G1 X170.188 Y133.942 E53.43962
G1 X169.482 Y135.581 E53.49897
G1 X168.739 Y136.478 E53.53771
G1 X167.648 Y137.508 E53.58762
G1 X166.419 Y138.153 E53.63378
G1 X165.425 Y138.533 E53.66918
G1 X165.273 Y138.561 E53.67432
G1 X165.25 Y177.967 E54.98497
G1 X165.118 Y179.277 E55.02876
G1 X164.97 Y179.995 E55.05314
G1 X164.362 Y181.762 E55.11529
G1 X163.652 Y183.117 E55.16617
G1 X163.191 Y183.788 E55.19325
G1 X161.857 Y185.264 E55.25942
G1 X161.004 Y185.968 E55.29621
G1 X159.634 Y186.824 E55.34994
G1 X158.452 Y187.358 E55.39307
G1 X157.232 Y187.731 E55.43551
G1 X155.631 Y187.998 E55.48949
G1 X154.723 Y188.039 E55.51972
G1 X90.145 Y188.024 E57.66759
G1 X89.138 Y187.945 E57.70119
G1 X87.764 Y187.665 E57.74783
G1 X86.283 Y187.147 E57.80001
G1 X85.042 Y186.5 E57.84656
G1 X83.942 Y185.734 E57.89115
G1 X83.215 Y185.096 E57.92332
G1 X81.853 Y183.497 E57.99318
G1 X81.456 Y182.871 E58.01783
G1 X80.579 Y180.993 E58.08677
G1 X80.389 Y180.39 E58.1078
G1 X80.016 Y178.26 E58.17972
G1 X79.993 Y177.736 E58.19716
G1 X79.993 Y137.434 E59.53761
G1 X79.436 Y136.92 E59.56282
G1 X78.289 Y135.587 E59.62131
G1 X77.054 Y132.359 E59.73627
G1 X76.887 Y130.47 E59.79934
G1 X76.917 Y129.799 E59.82168
G1 X76.975 Y129.562 E59.82979
G1 X76.764 Y129.222 E59.8431
G1 X76.294 Y127.262 E59.91014
G1 X76.151 Y125.915 E59.95519
G1 X76.681 Y123.966 E60.02237
G1 X77.553 Y121.818 E60.09948
G1 X78.561 Y120.593 E60.15224
G1 X79.613 Y119.584 E60.20072
G1 X79.993 Y119.399 E60.21478
G1 X79.993 Y102.455 E60.77834
G1 X79.02 Y101.449 E60.82489
G1 X77.58 Y98.981 E60.91993
G1 X76.751 Y96.345 E61.01183
G1 X76.312 Y93.624 E61.10351
G1 X76.148 Y90.238 E61.21626
G1 X76.458 Y88.566 E61.27282
G1 X76.843 Y87.611 E61.30706
G1 X77.765 Y86.234 E61.36218
